<?xml version="1.0" encoding="UTF-8"?>
<map version="1.10" tiledversion="1.11.0" orientation="orthogonal" renderorder="right-down" width="16" height="256" tilewidth="8" tileheight="8" infinite="0" nextlayerid="4" nextobjectid="1">
 <tileset firstgid="1" name="1" tilewidth="8" tileheight="8" tilecount="512" columns="16">
  <image source="tiles/1.png" trans="ffffff" width="128" height="256"/>
 </tileset>
 <tileset firstgid="513" name="2" tilewidth="8" tileheight="8" tilecount="512" columns="16">
  <image source="tiles/2.png" trans="ffffff" width="128" height="256"/>
 </tileset>
 <tileset firstgid="1025" name="3" tilewidth="8" tileheight="8" tilecount="512" columns="16">
  <image source="tiles/3.png" trans="ffffff" width="128" height="256"/>
 </tileset>
 <tileset firstgid="1537" name="4" tilewidth="8" tileheight="8" tilecount="512" columns="16">
  <image source="tiles/4.png" trans="ffffff" width="128" height="256"/>
 </tileset>
 <tileset firstgid="2049" name="5" tilewidth="8" tileheight="8" tilecount="864" columns="16">
  <image source="tiles/5.png" trans="ffffff" width="128" height="432"/>
 </tileset>
 <tileset firstgid="2913" name="6" tilewidth="8" tileheight="8" tilecount="512" columns="16">
  <image source="tiles/6.png" trans="ffffff" width="128" height="256"/>
 </tileset>
 <tileset firstgid="3425" name="7" tilewidth="8" tileheight="8" tilecount="512" columns="16">
  <image source="tiles/7.png" trans="ffffff" width="128" height="256"/>
 </tileset>
 <tileset firstgid="3937" name="8" tilewidth="8" tileheight="8" tilecount="512" columns="16">
  <image source="tiles/8.png" trans="ffffff" width="128" height="256"/>
 </tileset>
 <tileset firstgid="4449" name="9" tilewidth="8" tileheight="8" tilecount="512" columns="16">
  <image source="tiles/9.png" trans="ffffff" width="128" height="256"/>
 </tileset>
 <tileset firstgid="4961" name="10" tilewidth="8" tileheight="8" tilecount="480" columns="16">
  <image source="tiles/10.png" trans="ffffff" width="128" height="240"/>
 </tileset>
 <tileset firstgid="5441" name="M13" tilewidth="8" tileheight="8" tilecount="512" columns="16">
  <image source="tiles/M13.png" trans="ffffff" width="128" height="256"/>
 </tileset>
 <tileset firstgid="5953" name="M10" tilewidth="8" tileheight="8" tilecount="416" columns="16">
  <image source="tiles/M10.png" trans="ffffff" width="128" height="208"/>
 </tileset>
 <tileset firstgid="6369" name="M9" tilewidth="8" tileheight="8" tilecount="416" columns="16">
  <image source="tiles/M9.png" trans="ffffff" width="128" height="208"/>
 </tileset>
 <layer id="1" name="buttom" width="16" height="256">
  <data encoding="csv">
0,0,771,772,773,774,769,770,777,778,779,780,0,0,769,770,
0,0,787,788,789,790,785,786,793,794,795,796,0,0,785,786,
801,802,803,804,805,806,807,808,809,810,811,812,769,770,769,770,
817,818,819,820,821,822,823,824,825,826,827,828,785,786,785,786,
833,834,6243,6244,0,0,2147,2148,6243,6244,769,770,769,770,769,770,
849,850,6259,6260,0,0,2163,2164,6259,6260,785,786,785,786,785,786,
769,770,769,770,769,770,513,514,515,516,517,518,583,584,585,586,
785,786,785,786,785,786,529,530,531,532,533,534,599,600,601,602,
0,0,0,0,0,0,545,546,547,548,549,550,615,616,617,618,
0,0,0,0,0,0,561,562,563,564,565,566,631,632,633,634,
0,0,0,0,0,0,577,578,579,580,581,582,771,772,771,772,
0,0,0,0,0,0,593,594,595,596,597,598,787,788,787,788,
0,0,0,0,0,0,0,0,0,0,0,0,0,0,0,0,
0,0,0,0,0,0,0,0,0,0,0,0,0,0,0,0,
769,770,769,770,6243,6244,5987,5988,0,0,769,770,0,0,0,0,
785,786,785,786,6259,6260,6003,6004,0,0,785,786,0,0,0,0,
769,770,6243,6244,0,0,0,0,0,0,0,0,0,0,0,0,
785,786,6259,6260,0,0,0,0,0,0,0,0,0,0,0,0,
0,0,0,0,0,0,0,0,0,0,0,0,0,0,0,0,
0,0,0,0,0,0,0,0,0,0,0,0,0,0,0,0,
0,0,0,0,0,0,0,0,0,0,0,0,0,0,0,0,
0,0,0,0,0,0,0,0,0,0,0,0,0,0,0,0,
0,0,0,0,0,0,0,0,0,0,0,0,0,0,0,0,
0,0,0,0,0,0,0,0,0,0,0,0,0,0,0,0,
0,0,0,0,0,0,0,0,0,0,0,0,0,0,0,0,
0,0,0,0,0,0,0,0,0,0,0,0,0,0,0,0,
769,770,769,770,769,770,5987,5988,5987,5988,5987,5988,103,104,105,106,
785,786,785,786,785,786,6003,6004,6003,6004,6003,6004,119,120,121,122,
769,770,769,770,769,770,769,770,769,770,769,770,135,136,137,138,
785,786,785,786,785,786,785,786,785,786,785,786,151,152,153,154,
769,770,769,770,769,770,0,0,0,0,0,0,871,872,873,874,
785,786,785,786,785,786,0,0,0,0,0,0,887,888,889,890,
0,0,0,0,0,0,0,0,0,0,0,0,903,904,905,906,
0,0,0,0,0,0,0,0,0,0,0,0,919,920,921,922,
0,0,0,0,0,0,0,0,0,0,0,0,609,610,611,612,
0,0,0,0,0,0,0,0,0,0,0,0,625,626,627,628,
843,844,845,846,847,848,75,76,77,78,79,80,641,642,0,0,
859,860,861,862,863,864,91,92,93,94,95,96,657,658,0,0,
875,876,877,878,879,880,107,108,109,110,111,112,613,614,0,0,
891,892,893,894,895,896,123,124,125,126,127,128,629,630,0,0,
907,908,909,910,911,912,139,140,141,142,143,144,769,770,120,121,
923,924,925,926,927,928,155,156,157,158,159,160,785,786,136,137,
6659,6660,6659,6660,6659,6660,6659,6660,6659,6660,6659,6660,769,770,769,770,
6675,6676,6675,6676,6675,6676,6675,6676,6675,6676,6675,6676,785,786,785,786,
0,0,6659,6659,6659,6659,6659,6660,109,110,109,110,769,770,769,770,
0,0,6675,6675,6675,6675,6675,6676,125,126,125,126,785,786,785,786,
6659,6659,6659,6660,769,770,769,770,109,110,109,110,769,770,769,770,
6675,6675,6675,6676,785,786,785,786,125,126,125,126,785,786,785,786,
6659,6660,6659,6660,0,0,109,110,0,0,0,0,769,770,769,770,
6675,6676,6675,6676,0,0,125,126,0,0,0,0,785,786,785,786,
109,110,109,110,109,110,109,110,0,0,0,0,769,770,769,770,
125,126,125,126,125,126,125,126,0,0,0,0,785,786,785,786,
769,770,769,770,109,110,109,110,5987,5988,5987,5988,0,0,0,0,
785,786,785,786,125,126,125,126,6003,6004,6003,6004,0,0,0,0,
769,770,769,770,109,110,109,110,769,770,769,770,0,0,0,0,
785,786,785,786,125,126,125,126,785,786,785,786,0,0,0,0,
769,770,769,770,109,110,109,110,769,770,769,770,769,770,769,770,
785,786,785,786,125,126,125,126,785,786,785,786,785,786,785,786,
769,770,769,770,109,110,109,110,0,0,0,0,769,770,769,770,
785,786,785,786,125,126,125,126,0,0,0,0,785,786,785,786,
2067,2068,0,0,2067,2068,0,0,0,0,6659,6660,6659,6660,0,0,
2083,2084,0,0,2083,2084,0,0,0,0,6675,6676,6675,6676,0,0,
2067,2068,0,0,2067,2068,0,0,0,0,6659,6660,6659,6660,0,0,
2083,2084,0,0,2083,2084,0,0,0,0,6675,6676,6675,6676,0,0,
2067,2068,0,0,2067,2068,0,0,0,0,6659,6660,6659,6660,0,0,
2083,2084,0,0,2083,2084,0,0,0,0,6675,6676,6675,6676,0,0,
769,770,0,0,769,770,0,0,0,0,6659,6660,6659,6660,0,0,
785,786,0,0,785,786,0,0,0,0,6675,6676,6675,6676,0,0,
0,0,0,0,0,0,769,770,769,770,0,0,0,0,771,772,
0,0,0,0,0,0,785,786,785,786,0,0,0,0,787,788,
769,770,0,0,769,770,769,770,769,770,0,0,0,0,0,0,
785,786,0,0,785,786,785,786,785,786,0,0,0,0,0,0,
0,0,0,0,0,0,0,0,0,0,0,0,0,0,769,770,
0,0,0,0,0,0,0,0,0,0,0,0,0,0,785,786,
0,0,0,0,0,0,2083,2084,2083,2084,2083,2084,2083,2084,769,770,
0,0,0,0,0,0,2099,2100,2099,2100,2099,2100,2099,2100,785,786,
2067,2068,2067,2068,2067,2068,2067,2068,2067,2068,769,770,769,770,0,0,
2083,2084,2083,2084,2083,2084,2083,2084,2083,2084,785,786,785,786,0,0,
2067,2068,2067,2068,2067,2068,2067,2068,2067,2068,769,770,769,770,0,0,
2083,2084,2083,2084,2083,2084,2083,2084,2083,2084,785,786,785,786,0,0,
2067,2068,2067,2067,2068,2067,2068,0,2067,2068,0,0,0,0,0,0,
2083,2084,2083,2083,2084,2083,2084,0,2083,2084,0,0,0,0,0,0,
769,770,769,770,769,770,769,770,769,770,0,0,769,770,769,770,
785,786,785,786,785,786,785,786,785,786,0,0,785,786,785,786,
769,770,769,770,769,770,769,770,769,770,0,0,769,770,769,770,
785,786,785,786,785,786,785,786,785,786,0,0,785,786,785,786,
769,770,769,770,769,770,769,770,769,770,0,0,0,0,0,0,
785,786,785,786,785,786,785,786,785,786,0,0,0,0,0,0,
2067,2068,0,0,2067,2068,0,0,0,0,0,0,0,0,0,0,
2083,2084,0,0,2083,2084,0,0,0,0,0,0,0,0,0,0,
0,0,0,0,0,0,0,0,0,0,0,0,0,0,0,0,
0,0,0,0,0,0,0,0,0,0,0,0,0,0,0,0,
2067,2068,0,0,2067,2068,0,0,0,0,0,0,0,0,0,0,
2083,2084,0,0,2083,2084,0,0,0,0,0,0,0,0,0,0,
0,0,0,0,0,0,0,0,0,0,0,0,0,0,0,0,
0,0,0,0,0,0,0,0,0,0,0,0,0,0,0,0,
0,0,0,0,0,0,0,0,0,0,0,0,0,0,0,0,
0,0,0,0,0,0,0,0,0,0,0,0,0,0,0,0,
0,0,0,0,0,0,0,0,0,0,0,0,0,0,0,0,
0,0,0,0,0,0,0,0,0,0,0,0,0,0,0,0,
0,0,0,0,2529,2530,2533,2534,0,0,0,0,2177,2178,2181,2182,
0,0,0,0,2545,2546,2549,2550,0,0,0,0,2193,2194,2197,2198,
0,0,0,0,0,0,0,0,0,0,0,0,0,0,0,0,
0,0,0,0,0,0,0,0,0,0,0,0,0,0,0,0,
769,770,769,770,0,0,0,0,0,0,0,0,0,0,0,0,
785,786,785,786,0,0,0,0,0,0,0,0,0,0,0,0,
769,770,769,770,2529,2530,2533,2534,0,0,0,0,2625,2626,2629,2630,
785,786,785,786,2545,2546,2549,2550,0,0,0,0,2641,2642,2645,2646,
0,0,0,0,0,0,0,0,0,0,769,770,769,770,769,770,
0,0,0,0,0,0,0,0,0,0,785,786,785,786,785,786,
0,0,0,0,0,0,0,0,0,0,769,770,5987,5988,769,770,
0,0,0,0,0,0,0,0,0,0,785,786,6003,6004,785,786,
5987,5988,5987,5988,0,0,0,0,0,0,769,770,769,770,769,770,
6003,6004,6003,6004,0,0,0,0,0,0,785,786,785,786,785,786,
5987,5988,5987,5988,0,0,0,0,5987,5988,5987,5988,5987,5988,0,0,
6003,6004,6003,6004,0,0,0,0,6003,6004,6003,6004,6003,6004,0,0,
769,770,769,770,0,0,0,0,0,0,0,0,5987,5988,0,0,
785,786,785,786,0,0,0,0,0,0,0,0,6003,6004,0,0,
769,770,769,770,0,0,0,0,0,0,0,0,5987,5988,0,0,
785,786,785,786,0,0,0,0,0,0,0,0,6003,6004,0,0,
769,770,769,770,0,0,0,0,0,0,0,0,0,0,0,0,
785,786,785,786,0,0,0,0,0,0,0,0,0,0,0,0,
0,0,0,0,0,0,0,0,6731,6732,0,0,0,0,0,0,
0,0,0,0,0,0,0,0,6747,6748,0,0,0,0,0,0,
0,0,0,0,0,0,0,0,0,0,0,0,0,0,0,0,
0,0,0,0,0,0,0,0,0,0,0,0,0,0,0,0,
0,0,0,0,0,0,0,0,0,0,769,770,769,770,769,770,
0,0,0,0,0,0,0,0,0,0,785,786,785,786,785,786,
0,0,0,0,0,0,0,0,0,0,769,770,769,770,769,770,
0,0,0,0,0,0,0,0,0,0,785,786,785,786,785,786,
769,770,769,770,769,770,769,770,769,770,769,770,769,770,769,770,
785,786,785,786,785,786,785,786,785,786,785,786,785,786,785,786,
769,770,769,770,0,0,0,0,0,0,0,0,0,0,769,770,
785,786,785,786,0,0,0,0,0,0,0,0,0,0,785,786,
769,770,769,770,0,0,0,0,0,0,0,0,0,0,769,770,
785,786,785,786,0,0,0,0,0,0,0,0,0,0,785,786,
769,770,0,0,0,0,0,0,0,0,0,0,0,0,769,770,
785,786,0,0,0,0,0,0,0,0,0,0,0,0,785,786,
769,770,0,0,0,0,0,0,0,0,0,0,0,0,769,770,
785,786,0,0,0,0,0,0,0,0,0,0,0,0,785,786,
0,0,0,0,0,0,0,0,0,0,0,0,0,0,0,0,
0,0,0,0,0,0,0,0,0,0,0,0,0,0,0,0,
769,770,769,770,769,770,769,770,769,770,769,770,769,770,769,770,
785,786,785,786,785,786,785,786,785,786,785,786,785,786,785,786,
785,786,785,786,785,786,785,786,785,786,785,786,785,786,785,786,
0,0,0,0,0,0,0,0,769,770,769,770,769,770,769,770,
0,0,0,0,0,0,0,0,0,0,0,0,0,0,0,0,
769,770,769,770,769,770,769,770,0,0,0,0,0,0,0,0,
769,770,769,770,769,770,769,770,769,770,769,770,769,770,0,0,
785,786,785,786,785,786,785,786,785,786,785,786,785,786,0,0,
785,786,785,786,785,786,785,786,785,786,785,786,785,786,0,0,
769,770,769,770,769,770,769,770,769,770,769,770,769,770,0,0,
785,786,785,786,785,786,785,786,785,786,785,786,785,786,0,0,
0,0,0,0,0,0,0,0,0,0,0,0,0,0,0,0,
0,0,0,0,0,0,0,0,0,0,0,0,0,0,0,0,
0,0,0,0,0,0,0,0,0,0,0,0,0,0,0,0,
0,0,0,0,0,0,0,0,0,0,0,0,0,0,0,0,
0,0,0,0,0,0,0,0,0,0,0,0,0,0,0,0,
0,0,0,0,0,0,0,0,0,0,0,0,0,0,0,0,
0,0,0,0,0,0,0,0,0,0,0,0,0,0,0,0,
769,770,769,770,769,770,769,770,769,770,769,770,769,770,769,770,
785,786,785,786,785,786,785,786,785,786,785,786,785,786,785,786,
785,786,785,786,785,786,785,786,785,786,769,770,769,770,769,770,
769,770,769,770,769,770,769,770,769,770,785,786,785,786,785,786,
785,786,785,786,785,786,785,786,785,786,5185,5186,5187,5188,5189,5190,
769,770,0,0,0,0,0,0,769,770,5201,5202,5203,5204,5205,5206,
785,786,0,0,0,0,0,0,785,786,5217,5218,5219,5220,5221,5222,
0,0,0,0,0,0,0,0,0,0,5233,5234,5235,5236,5237,5238,
0,0,0,0,0,0,0,0,0,0,5249,5250,5251,5252,5253,5254,
0,0,0,0,0,0,0,0,0,0,5265,5266,5267,5268,5269,5270,
0,0,0,0,0,0,0,0,0,0,5281,5282,5283,5284,5285,5286,
0,0,0,0,0,0,0,0,0,0,5297,5298,5299,5300,5301,5302,
0,0,0,0,0,0,0,0,0,0,5313,5314,5315,5316,5317,5318,
0,0,0,0,0,0,0,0,0,0,5329,5330,5331,5332,5333,5334,
769,770,0,0,0,0,0,0,769,770,5345,5346,5347,5348,5349,5350,
785,786,0,0,0,0,0,0,785,786,5361,5362,5363,5364,5365,5366,
769,770,769,770,769,770,769,770,0,0,0,0,0,0,0,0,
785,786,785,786,785,786,785,786,0,0,0,0,0,0,0,0,
769,770,769,770,769,770,769,770,0,0,0,0,0,0,0,0,
785,786,785,786,785,786,785,786,0,0,0,0,0,0,0,0,
0,0,0,0,0,0,0,0,0,0,0,0,0,0,0,0,
0,0,0,0,0,0,0,0,0,0,0,0,0,0,0,0,
0,0,0,0,0,0,0,0,0,0,0,0,0,0,0,0,
0,0,0,0,0,0,0,0,0,0,0,0,0,0,0,0,
0,0,0,0,0,0,0,0,0,0,0,0,0,0,0,0,
0,0,0,0,0,0,0,0,0,0,0,0,0,0,0,0,
0,0,0,0,0,0,0,0,0,0,0,0,0,0,0,0,
0,0,0,0,0,0,0,0,0,0,0,0,0,0,0,0,
0,0,0,0,0,0,0,0,0,0,0,0,0,0,0,0,
0,0,0,0,0,0,0,0,0,0,0,0,0,0,0,0,
0,0,0,0,0,0,0,0,0,0,0,0,0,0,0,0,
0,0,0,0,0,0,0,0,0,0,0,0,0,0,0,0,
0,0,0,0,0,0,0,0,0,0,0,0,0,0,0,0,
0,0,0,0,0,0,0,0,0,0,0,0,0,0,0,0,
0,0,0,0,0,0,0,0,0,0,0,0,0,0,0,0,
0,0,0,0,0,0,0,0,0,0,0,0,0,0,0,0,
0,0,0,0,0,0,0,0,0,0,0,0,0,0,0,0,
0,0,0,0,0,0,0,0,0,0,0,0,0,0,0,0,
0,0,0,0,0,0,0,0,0,0,0,0,0,0,0,0,
0,0,0,0,0,0,0,0,0,0,0,0,0,0,0,0,
0,0,0,0,0,0,0,0,0,0,0,0,0,0,0,0,
0,0,0,0,0,0,0,0,0,0,0,0,0,0,0,0,
0,0,0,0,0,0,0,0,0,0,0,0,0,0,0,0,
0,0,0,0,0,0,0,0,0,0,0,0,0,0,0,0,
0,0,0,0,0,0,0,0,0,0,0,0,0,0,0,0,
0,0,0,0,0,0,0,0,0,0,0,0,0,0,0,0,
0,0,0,0,0,0,0,0,0,0,0,0,0,0,0,0,
0,0,0,0,0,0,0,0,0,0,0,0,0,0,0,0,
0,0,0,0,0,0,0,0,0,0,0,0,0,0,0,0,
0,0,0,0,0,0,0,0,0,0,0,0,0,0,0,0,
0,0,0,0,0,0,0,0,0,0,0,0,0,0,0,0,
0,0,0,0,0,0,0,0,0,0,0,0,0,0,0,0,
0,0,0,0,0,0,0,0,0,0,0,0,0,0,0,0,
0,0,0,0,0,0,0,0,0,0,0,0,0,0,0,0,
0,0,0,0,0,0,0,0,0,0,0,0,0,0,0,0,
0,0,0,0,0,0,0,0,0,0,0,0,0,0,0,0,
0,0,0,0,0,0,0,0,0,0,0,0,0,0,0,0,
0,0,0,0,0,0,0,0,0,0,0,0,0,0,0,0,
0,0,0,0,0,0,0,0,0,0,0,0,0,0,0,0,
0,0,0,0,0,0,0,0,0,0,0,0,0,0,0,0,
0,0,0,0,0,0,0,0,0,0,0,0,0,0,0,0,
0,0,0,0,0,0,0,0,0,0,0,0,0,0,0,0,
0,0,0,0,0,0,0,0,0,0,0,0,0,0,0,0,
0,0,0,0,0,0,0,0,0,0,0,0,0,0,0,0,
0,0,0,0,0,0,0,0,0,0,0,0,0,0,0,0,
0,0,0,0,0,0,0,0,0,0,0,0,0,0,0,0,
0,0,0,0,0,0,0,0,0,0,0,0,0,0,0,0,
0,0,0,0,0,0,0,0,0,0,0,0,0,0,0,0,
0,0,0,0,0,0,0,0,0,0,0,0,0,0,0,0,
0,0,0,0,0,0,0,0,0,0,0,0,0,0,0,0,
0,0,0,0,0,0,0,0,0,0,0,0,0,0,0,0,
0,0,0,0,0,0,0,0,0,0,0,0,0,0,0,0,
0,0,0,0,0,0,0,0,0,0,0,0,0,0,0,0,
0,0,0,0,0,0,0,0,0,0,0,0,0,0,0,0,
0,0,0,0,0,0,0,0,0,0,0,0,0,0,0,0,
0,0,0,0,0,0,0,0,0,0,0,0,0,0,0,0,
0,0,0,0,0,0,0,0,0,0,0,0,0,0,0,0,
0,0,0,0,0,0,0,0,0,0,0,0,0,0,0,0,
0,0,0,0,0,0,0,0,0,0,0,0,0,0,0,0,
0,0,0,0,0,0,0,0,0,0,0,0,0,0,0,0,
0,0,0,0,0,0,0,0,0,0,0,0,0,0,0,0,
0,0,0,0,0,0,0,0,0,0,0,0,0,0,0,0,
0,0,0,0,0,0,0,0,0,0,0,0,0,0,0,0,
0,0,0,0,0,0,0,0,0,0,0,0,0,0,0,0,
0,0,0,0,0,0,0,0,0,0,0,0,0,0,0,0,
0,0,0,0,0,0,0,0,0,0,0,0,0,0,0,0,
0,0,0,0,0,0,0,0,0,0,0,0,0,0,0,0,
0,0,0,0,0,0,0,0,0,0,0,0,0,0,0,0,
0,0,0,0,0,0,0,0,0,0,0,0,0,0,0,0,
0,0,0,0,0,0,0,0,0,0,0,0,0,0,0,0,
0,0,0,0,0,0,0,0,0,0,0,0,0,0,0,0,
0,0,0,0,0,0,0,0,0,0,0,0,0,0,0,0,
0,0,0,0,0,0,0,0,0,0,0,0,0,0,0,0,
0,0,0,0,0,0,0,0,0,0,0,0,0,0,0,0,
0,0,0,0,0,0,0,0,0,0,0,0,0,0,0,0,
0,0,0,0,0,0,0,0,0,0,0,0,0,0,0,0
</data>
 </layer>
 <layer id="2" name="middle" width="16" height="256">
  <data encoding="csv">
0,0,0,0,0,0,0,0,0,0,0,0,0,0,3495,3496,
0,0,0,0,0,0,0,0,0,0,0,0,0,0,3511,3512,
0,0,0,0,0,0,0,0,0,0,0,0,3535,3536,1419,1420,
0,0,0,0,0,0,0,0,0,0,0,0,3551,3552,1435,1436,
0,0,0,0,2211,2212,1195,1196,1195,1196,1193,1194,1195,1196,1197,1198,
0,0,1211,0,2227,2228,1211,1212,1211,1212,1209,1210,1211,1212,1213,1214,
0,0,0,0,0,0,0,0,0,0,0,0,0,0,0,0,
0,0,0,0,0,0,0,0,0,0,0,0,0,0,0,0,
1185,1186,1187,1188,1189,1190,0,0,0,0,0,0,0,0,0,0,
1201,1202,1203,1204,1205,1206,0,0,0,0,0,0,0,0,0,0,
1217,1218,1219,1220,1221,1222,0,0,0,0,0,0,0,1448,1449,1450,
1233,1234,1235,1236,1237,1238,0,0,0,0,0,0,0,1464,1465,1466,
1249,1250,1251,1252,1253,1254,0,0,0,0,0,0,0,0,0,0,
1265,1266,1267,1268,1269,1270,0,0,0,0,0,0,0,0,0,0,
0,0,1255,1256,0,0,0,0,2211,2212,2209,2210,0,0,0,0,
0,0,1271,1272,0,0,0,0,2227,2228,2225,2226,0,0,0,0,
1255,1256,1255,1256,0,0,0,0,0,0,0,0,0,0,0,0,
1271,1272,1271,1272,0,0,0,0,0,0,0,0,0,0,0,0,
0,0,0,0,0,0,0,0,0,0,0,0,0,0,0,0,
0,0,0,0,0,0,0,0,0,0,0,0,0,0,0,0,
0,0,0,0,0,0,0,0,0,0,0,0,0,0,0,0,
0,0,0,0,0,0,0,0,0,0,0,0,0,0,0,0,
0,0,0,0,0,0,0,0,0,0,0,0,0,0,0,0,
0,0,0,0,0,0,0,0,0,0,0,0,0,0,0,0,
0,0,0,0,0,0,0,0,0,0,0,0,0,0,0,0,
0,0,0,0,0,0,0,0,0,0,0,0,0,0,0,0,
0,0,0,0,0,0,0,0,0,0,0,0,0,0,0,0,
0,0,0,0,0,0,0,0,0,0,0,0,0,0,0,0,
0,0,0,0,0,0,6211,6212,6211,6212,6211,6212,0,0,0,0,
0,0,0,0,0,0,6227,6228,6227,6228,6227,6228,0,0,0,0,
1441,1442,1443,1444,1445,1446,0,0,0,0,0,0,6055,0,0,0,
1457,1458,1459,1460,1461,1462,0,0,0,0,0,0,6071,0,0,0,
0,0,0,0,0,0,0,0,0,0,0,0,6087,0,0,0,
0,0,0,0,0,1372,0,0,0,0,0,0,6103,0,0,0,
0,0,0,0,0,0,0,0,0,0,0,0,0,0,0,0,
0,0,0,0,0,0,0,0,0,0,0,0,0,0,0,0,
6017,6018,6019,6020,6021,6022,0,0,0,0,0,0,0,0,0,0,
6033,6034,6035,6036,6037,6038,0,0,0,0,0,0,0,0,0,0,
6049,6050,0,0,0,0,0,0,0,0,0,0,0,0,0,0,
6065,6066,0,0,0,0,0,0,0,0,0,0,0,0,0,0,
6081,6082,6083,6084,6085,6086,0,0,0,0,0,0,1665,1666,1635,1636,
6097,6098,6099,6100,6101,6102,0,0,0,0,0,0,1681,1682,1651,1652,
1195,1196,2405,2406,2405,2406,2405,2406,2437,2438,2405,2406,1697,1698,1635,1636,
1211,1212,2421,2422,2421,2422,2421,2422,2453,2454,2421,2422,1713,1714,1651,1652,
0,0,2437,2438,2437,2438,2437,2438,1637,1638,1639,1640,1637,1638,1639,1640,
0,0,2453,2454,2453,2454,2453,2454,1653,1654,1655,1656,1653,1654,1655,1656,
1637,1638,1639,1640,6213,6214,6209,6210,1607,1608,1609,1610,1607,1608,1609,1610,
1653,1654,1655,1656,6229,6230,6225,6226,1623,1624,1625,1626,1623,1624,1625,1626,
1607,1608,1609,1610,0,0,3591,3592,2147,2148,2147,2148,1167,1168,1165,1166,
1623,1624,1625,1626,0,0,3607,3608,2163,2164,2163,2164,1183,1184,1181,1182,
3617,3618,3619,3620,3621,3622,3623,3624,6243,6244,6243,6244,6209,6210,6213,6214,
3633,3634,3635,3636,3637,3638,3639,3640,6259,6260,6259,6260,6225,6226,6229,6230,
0,0,0,0,0,0,0,0,0,0,0,0,2211,2212,2211,2212,
0,0,0,0,0,0,0,0,0,0,0,0,2227,2228,2227,2228,
1133,1134,1135,1136,1133,1134,1135,1136,1195,1196,1195,1196,2153,2154,2151,2152,
1149,1150,1151,1152,1149,1150,1151,1152,1211,1212,1211,1212,2169,2170,2167,2168,
1165,1166,1167,1168,1549,1550,1551,1552,1165,1166,1167,1168,2209,2210,2213,2214,
1181,1182,1183,1184,1565,1566,1567,1568,1181,1182,1183,1184,2225,2226,2229,2230,
1165,1166,1167,1168,1549,1550,1551,1552,2147,2148,2147,2148,1255,1256,1255,1256,
1181,1182,1183,1184,1565,1566,1567,1568,2163,2164,2163,2164,1271,1272,1271,1272,
2049,2050,2051,2052,2053,2054,2055,2056,2057,2058,2049,2050,2053,2054,2153,2154,
2065,2066,2067,2068,2069,2070,2071,2072,2073,2074,2065,2066,2069,2070,2169,2170,
2081,2082,2083,2084,2085,2086,2087,2088,2089,2090,2113,2114,2117,2118,2151,2152,
2097,2098,2099,2100,2101,2102,2103,2104,2105,2106,2129,2130,2133,2134,2167,2168,
2113,2114,2115,2116,2117,2118,2119,2120,2121,2122,2145,2146,2149,2150,2153,2154,
2129,2130,2131,2132,2133,2134,2135,2136,2137,2138,2161,2162,2165,2166,2169,2170,
2145,2146,2147,2148,2149,2150,2151,2152,2153,2154,2209,2210,2213,2214,2151,2152,
2161,2162,2163,2164,2165,2166,2167,2168,2169,2170,2225,2226,2229,2230,2167,2168,
2177,2178,2179,2180,2181,2182,2049,2050,2053,2054,0,0,1165,1166,1167,1168,
2193,2194,2195,2196,2197,2198,2065,2066,2069,2070,0,0,1181,1182,1183,1184,
2209,2210,2211,2212,2213,2214,2113,2114,2117,2118,0,0,0,0,0,0,
2225,2226,2227,2228,2229,2230,2129,2130,2133,2134,0,0,0,0,0,0,
2241,2242,2243,2244,2245,2246,2247,2248,2249,2250,2251,2252,2253,2254,2255,2256,
2257,2258,2259,2260,2261,2262,2263,2264,2265,2266,2267,2268,2269,2270,2271,2272,
2273,2274,2275,2276,2277,2278,2279,2280,2281,2282,2283,2284,2285,2286,2287,2288,
2289,2290,2291,2292,2293,2294,2295,2296,2297,2298,2299,2300,2301,2302,2303,2304,
2305,2306,2307,2308,2309,2310,2311,2312,2313,2314,2145,2146,2149,2150,2319,2320,
2321,2322,2323,2324,2325,2326,2327,2328,2329,2330,2161,2162,2165,2166,2335,2336,
2337,2338,2339,2340,2341,2342,2343,2344,2345,2346,2209,2210,2213,2214,2351,2352,
2353,2354,2355,2356,2357,2358,2359,2360,2361,2362,2225,2226,2229,2230,2367,2368,
2369,2370,2371,2372,2373,2374,2375,2376,2377,2378,2379,2380,2381,2382,2383,2384,
2385,2386,2387,2388,2389,2390,2391,2392,2393,2394,2395,2396,2397,2398,2399,2400,
2401,2402,2403,2404,2405,2406,2407,2408,2409,2410,2411,2412,2413,2414,2415,2416,
2417,2418,2419,2420,2421,2422,2423,2424,2425,2426,2427,2460,2461,2462,2463,2464,
2433,2434,2435,2436,2437,2438,2439,2440,2441,2442,2443,2476,2477,2478,2479,2480,
2449,2450,2451,2452,2453,2454,2455,2456,2457,2458,2459,2492,2493,2494,2495,2496,
2465,2466,2467,2468,2469,2470,2471,2472,2473,2474,4289,4290,4291,4292,4293,4294,
2481,2482,2483,2484,2485,2486,2487,2488,2489,2490,4305,4306,4307,4308,4309,4310,
2497,2498,2499,2500,2501,2502,2503,2504,2505,2506,4321,4322,4323,4324,4325,4326,
2513,2514,2515,2516,2517,2518,2519,2520,2521,2522,4337,4338,4339,4340,4341,4342,
2529,2530,2531,2532,2533,2534,2535,2536,2537,2538,4353,4354,4355,4356,4357,4358,
2545,2546,2547,2548,2549,2550,2551,2552,2553,2554,4369,4370,4371,4372,4373,4374,
2561,2562,2563,2564,2565,2566,0,0,0,0,6024,6025,6026,6027,6028,6029,
2577,2578,2579,2580,2581,2582,0,0,0,0,6040,6041,6042,6043,6044,6045,
6631,6632,6633,6634,6635,6636,0,0,0,0,6056,6057,6058,6059,6060,6061,
6647,6648,6649,6650,6651,6652,0,0,0,0,6072,6073,6074,6075,6076,6077,
6663,6664,6665,6666,6667,6668,0,0,0,0,6088,6089,6090,6091,6092,6093,
6679,6680,6681,6682,6683,6684,0,0,0,0,6104,6105,6106,6107,6108,6109,
6695,6696,6697,6698,6699,6700,0,0,0,0,6120,6121,6122,6123,6124,6125,
6711,6712,6713,6714,6715,6716,0,0,0,0,6136,6137,6138,6139,6140,6141,
2689,2690,2691,2692,2693,2694,2695,2696,2697,2698,2699,2700,2701,2702,2703,2704,
2705,2706,2707,2708,2709,2710,2711,2712,2713,2714,2715,2716,2717,2718,2719,2720,
2721,2722,2723,2724,2725,2726,2727,2728,2729,2730,2731,2732,2733,2734,2735,2736,
2737,2738,2739,2740,2741,2742,2743,2744,2745,2746,2747,2748,2749,2750,2751,2752,
2753,2754,2755,2756,2757,2758,2759,2760,0,0,0,0,2765,2766,2767,2768,
2769,2770,2771,2772,2773,2774,2775,2776,0,0,0,0,2781,2782,2783,2784,
2785,2786,2787,2788,2789,2790,2791,2792,0,0,0,0,2797,2798,2799,2800,
2801,2802,2803,2804,2805,2806,2807,2808,0,0,0,0,2813,2814,2815,2816,
0,0,0,0,0,0,0,0,0,0,6145,6146,6147,6148,6149,6150,
0,0,0,0,0,0,0,0,0,0,6161,6162,6163,6164,6165,6166,
0,0,0,0,0,0,0,0,0,0,6177,6178,0,2862,6181,6182,
0,0,0,0,0,0,0,0,0,0,6193,6194,0,2878,6197,6198,
4237,4238,4239,4240,0,0,0,0,0,0,6209,6210,6211,6212,6213,6214,
4253,4254,4255,4256,0,0,0,0,0,0,6225,6226,6227,6228,6229,6230,
4269,4270,4271,4272,0,0,0,0,0,1448,1449,1450,3951,3952,6063,6064,
4285,4286,4287,4288,0,0,0,0,0,1464,1465,1466,3967,3968,6079,6080,
6151,6152,6153,6154,0,0,6375,6376,6377,6378,6379,6380,3983,3984,6095,6096,
6167,6168,6169,6170,0,0,6391,6392,6393,6394,6395,6396,3999,4000,6111,6112,
6183,6184,6185,6186,0,0,6407,6408,6409,6410,6411,6412,4015,4016,6127,6128,
6199,6200,6201,6202,0,0,6423,6424,6425,6426,6427,6428,4031,4032,6143,6144,
6215,6216,6217,6218,6219,6220,6439,6440,6441,6442,6443,6444,0,0,0,0,
6231,6232,6233,6234,6235,6236,6455,6456,6457,6458,6459,6460,0,0,0,0,
0,0,0,0,6727,6728,6729,6730,6725,6726,6731,6732,0,0,0,0,
0,0,0,0,6743,6744,6745,6746,6741,6742,6747,6748,0,0,0,0,
0,0,0,0,6759,6760,6761,6762,0,0,0,0,0,0,0,0,
0,0,0,0,6775,6776,6777,6778,0,0,0,0,0,0,0,0,
0,0,0,0,0,0,0,0,0,0,0,0,0,0,0,0,
0,0,0,0,0,0,0,0,0,0,2999,3000,3057,3058,3059,3060,
0,0,0,0,0,0,0,0,0,0,3015,3016,3073,3074,3075,3076,
0,0,0,0,0,0,0,0,0,0,3031,3032,3089,3090,3091,3092,
4961,4962,4963,4964,4965,4966,4967,4968,4969,4970,4971,4972,4973,4974,4975,0,
4977,4978,4979,4980,4981,4982,4983,4984,4985,4986,4987,4988,4989,4990,4991,0,
4993,4994,4995,4996,4997,4998,4999,5000,5001,5002,5003,5004,5005,5006,5007,0,
5009,5010,5011,5012,5013,5014,5015,5016,5017,5018,5019,5020,5021,5022,5023,0,
5025,5026,5027,5028,5029,5030,5031,5032,5033,5034,5035,5036,5037,5038,5039,0,
5041,5042,5043,5044,5045,5046,5047,5048,5049,5050,5051,5052,5053,5054,5055,0,
5057,5058,5059,5060,5061,5062,5063,5064,5065,5066,5067,5068,5069,5070,5071,0,
5073,5074,5075,5076,5077,5078,5079,5080,5081,5082,5083,5084,5085,5086,5087,0,
5089,5090,5091,5092,5093,5094,5095,5096,5097,5098,5099,5100,5101,5102,5103,0,
5105,5106,5107,5108,5109,5110,5111,5112,5113,5114,5115,5116,5117,5118,5119,0,
0,0,0,0,0,0,0,0,0,0,0,0,0,0,0,0,
0,0,0,0,0,0,0,0,0,0,0,0,0,0,0,0,
2985,2986,2987,2988,2989,2990,2991,2992,2921,2922,2923,2924,2925,2926,2927,2928,
3001,3002,3003,3004,3005,3006,3007,3008,2937,2938,2939,2940,2941,2942,2943,2944,
3017,3018,3019,3020,3021,3022,3023,3024,2953,2954,2955,2956,2957,2958,2959,2960,
3033,3034,3035,3036,3037,3038,3039,3040,2969,2970,2971,2972,2973,2974,2975,2976,
3049,3050,3051,3052,3053,3054,3055,3056,0,0,0,0,0,0,0,0,
3065,3066,3067,3068,3069,3070,3071,3072,0,0,0,0,0,0,0,0,
0,0,0,0,0,0,0,0,0,0,0,0,0,0,0,0,
4465,4466,4467,4468,4469,4470,4471,4472,4473,4474,4475,4476,4477,4478,0,0,
4481,4482,4483,4484,4485,4486,4487,4488,4489,4490,4491,4492,4493,4494,0,0,
4497,4498,4499,4500,4501,4502,4503,4504,4505,4506,4507,4508,4509,4510,0,0,
4513,4514,4515,4516,4517,4518,4519,4520,4521,4522,4523,4524,4525,4526,0,0,
4529,4530,4531,4532,4533,4534,4535,4536,4537,4538,4539,4540,4541,4542,0,0,
4545,4546,4547,4548,4549,4550,4551,4552,4553,4554,4555,4556,4557,4558,0,0,
4561,4562,4563,4564,4565,4566,4567,4568,4569,4570,4571,4572,4573,4574,0,0,
4577,4578,4579,4580,4581,4582,4583,4584,4585,4586,4587,4588,4589,4590,0,0,
4593,4594,4595,4596,4597,4598,4599,4600,4601,4602,4603,4604,4605,4606,0,0,
4609,4610,4611,4612,4613,4614,4615,4616,4617,4618,4619,4620,4621,4622,0,0,
4625,4626,4627,4628,4629,4630,4631,4632,4633,4634,4635,4636,4637,4638,0,0,
0,0,0,0,0,0,0,0,0,0,4651,4652,4653,4654,4655,4656,
4657,4658,4659,4660,4661,4662,4663,4664,4665,4666,4667,4668,4669,4670,4671,4672,
4673,4674,4675,4676,4677,4678,4679,4680,4681,4682,4683,4684,4685,4686,4687,4688,
4689,4690,4691,4692,4693,4694,4695,4696,4697,4698,4699,4700,4701,4702,4703,4704,
4705,4706,4707,4708,4709,4710,4711,4712,4713,4714,0,0,0,0,0,0,
4721,4722,4723,4724,4725,4726,4727,4728,4729,4730,0,0,0,0,0,0,
4737,4738,4739,4740,4741,4742,4743,4744,4745,4746,0,0,0,0,0,0,
4753,4754,4755,4756,4757,4758,4759,4760,4761,4762,0,0,0,0,0,0,
4769,4770,4771,4772,4773,4774,4775,4776,4777,4778,0,0,0,0,0,0,
4785,4786,4787,4788,4789,4790,4791,4792,4793,4794,0,0,0,0,0,0,
4801,4802,4803,4804,4805,4806,4807,4808,4809,4810,0,0,0,0,0,0,
4817,4818,4819,4820,4821,4822,4823,4824,4825,4826,0,0,0,0,0,0,
4833,4834,4835,4836,4837,4838,4839,4840,4841,4842,0,0,0,0,0,0,
4849,4850,4851,4852,4853,4854,4855,4856,4857,4858,0,0,0,0,0,0,
4865,4866,4867,4868,4869,4870,4871,4872,4873,4874,0,0,0,0,0,0,
4881,4882,4883,4884,4885,4886,4887,4888,4889,4890,0,0,0,0,0,0,
4897,4898,4899,4900,4901,4902,4903,4904,0,0,0,0,0,0,0,0,
4913,4914,4915,4916,4917,4918,4919,4920,0,0,0,0,0,0,0,0,
4929,4930,4931,4932,4933,4934,4935,4936,0,0,0,0,0,0,0,0,
4945,4946,4947,4948,4949,4950,4951,4952,0,0,0,0,0,0,0,0,
0,0,0,0,0,0,0,0,0,0,0,0,0,0,0,0,
0,0,0,0,0,0,0,0,0,0,0,0,0,0,0,0,
0,0,0,0,0,0,0,0,0,0,0,0,0,0,0,0,
0,0,0,0,0,0,0,0,0,0,0,0,0,0,0,0,
0,0,0,0,0,0,0,0,0,0,0,0,0,0,0,0,
0,0,0,0,0,0,0,0,0,0,0,0,0,0,0,0,
0,0,0,0,0,0,0,0,0,0,0,0,0,0,0,0,
0,0,0,0,0,0,0,0,0,0,0,0,0,0,0,0,
0,0,0,0,0,0,0,0,0,0,0,0,0,0,0,0,
0,0,0,0,0,0,0,0,0,0,0,0,0,0,0,0,
0,0,0,0,0,0,0,0,0,0,0,0,0,0,0,0,
0,0,0,0,0,0,0,0,0,0,0,0,0,0,0,0,
0,0,0,0,0,0,0,0,0,0,0,0,0,0,0,0,
0,0,0,0,0,0,0,0,0,0,0,0,0,0,0,0,
0,0,0,0,0,0,0,0,0,0,0,0,0,0,0,0,
0,0,0,0,0,0,0,0,0,0,0,0,0,0,0,0,
0,0,0,0,0,0,0,0,0,0,0,0,0,0,0,0,
0,0,0,0,0,0,0,0,0,0,0,0,0,0,0,0,
0,0,0,0,0,0,0,0,0,0,0,0,0,0,0,0,
0,0,0,0,0,0,0,0,0,0,0,0,0,0,0,0,
0,0,0,0,0,0,0,0,0,0,0,0,0,0,0,0,
0,0,0,0,0,0,0,0,0,0,0,0,0,0,0,0,
0,0,0,0,0,0,0,0,0,0,0,0,0,0,0,0,
0,0,0,0,0,0,0,0,0,0,0,0,0,0,0,0,
0,0,0,0,0,0,0,0,0,0,0,0,0,0,0,0,
0,0,0,0,0,0,0,0,0,0,0,0,0,0,0,0,
0,0,0,0,0,0,0,0,0,0,0,0,0,0,0,0,
0,0,0,0,0,0,0,0,0,0,0,0,0,0,0,0,
0,0,0,0,0,0,0,0,0,0,0,0,0,0,0,0,
0,0,0,0,0,0,0,0,0,0,0,0,0,0,0,0,
0,0,0,0,0,0,0,0,0,0,0,0,0,0,0,0,
0,0,0,0,0,0,0,0,0,0,0,0,0,0,0,0,
0,0,0,0,0,0,0,0,0,0,0,0,0,0,0,0,
0,0,0,0,0,0,0,0,0,0,0,0,0,0,0,0,
0,0,0,0,0,0,0,0,0,0,0,0,0,0,0,0,
0,0,0,0,0,0,0,0,0,0,0,0,0,0,0,0,
0,0,0,0,0,0,0,0,0,0,0,0,0,0,0,0,
0,0,0,0,0,0,0,0,0,0,0,0,0,0,0,0,
0,0,0,0,0,0,0,0,0,0,0,0,0,0,0,0,
0,0,0,0,0,0,0,0,0,0,0,0,0,0,0,0,
0,0,0,0,0,0,0,0,0,0,0,0,0,0,0,0,
0,0,0,0,0,0,0,0,0,0,0,0,0,0,0,0,
0,0,0,0,0,0,0,0,0,0,0,0,0,0,0,0,
0,0,0,0,0,0,0,0,0,0,0,0,0,0,0,0,
0,0,0,0,0,0,0,0,0,0,0,0,0,0,0,0,
0,0,0,0,0,0,0,0,0,0,0,0,0,0,0,0,
0,0,0,0,0,0,0,0,0,0,0,0,0,0,0,0,
0,0,0,0,0,0,0,0,0,0,0,0,0,0,0,0,
0,0,0,0,0,0,0,0,0,0,0,0,0,0,0,0,
0,0,0,0,0,0,0,0,0,0,0,0,0,0,0,0,
0,0,0,0,0,0,0,0,0,0,0,0,0,0,0,0,
0,0,0,0,0,0,0,0,0,0,0,0,0,0,0,0,
0,0,0,0,0,0,0,0,0,0,0,0,0,0,0,0,
0,0,0,0,0,0,0,0,0,0,0,0,0,0,0,0,
0,0,0,0,0,0,0,0,0,0,0,0,0,0,0,0,
0,0,0,0,0,0,0,0,0,0,0,0,0,0,0,0,
0,0,0,0,0,0,0,0,0,0,0,0,0,0,0,0,
0,0,0,0,0,0,0,0,0,0,0,0,0,0,0,0,
0,0,0,0,0,0,0,0,0,0,0,0,0,0,0,0,
0,0,0,0,0,0,0,0,0,0,0,0,0,0,0,0,
0,0,0,0,0,0,0,0,0,0,0,0,0,0,0,0,
0,0,0,0,0,0,0,0,0,0,0,0,0,0,0,0,
0,0,0,0,0,0,0,0,0,0,0,0,0,0,0,0,
0,0,0,0,0,0,0,0,0,0,0,0,0,0,0,0,
0,0,0,0,0,0,0,0,0,0,0,0,0,0,0,0,
0,0,0,0,0,0,0,0,0,0,0,0,0,0,0,0,
0,0,0,0,0,0,0,0,0,0,0,0,0,0,0,0,
0,0,0,0,0,0,0,0,0,0,0,0,0,0,0,0,
0,0,0,0,0,0,0,0,0,0,0,0,0,0,0,0,
0,0,0,0,0,0,0,0,0,0,0,0,0,0,0,0,
0,0,0,0,0,0,0,0,0,0,0,0,0,0,0,0,
0,0,0,0,0,0,0,0,0,0,0,0,0,0,0,0,
0,0,0,0,0,0,0,0,0,0,0,0,0,0,0,0,
0,0,0,0,0,0,0,0,0,0,0,0,0,0,0,0,
0,0,0,0,0,0,0,0,0,0,0,0,0,0,0,0,
0,0,0,0,0,0,0,0,0,0,0,0,0,0,0,0
</data>
 </layer>
 <layer id="3" name="top" width="16" height="256">
  <data encoding="csv">
0,0,0,0,0,0,0,0,0,0,0,0,0,0,0,0,
0,0,0,0,0,0,0,0,0,0,0,0,0,0,0,0,
0,0,0,0,0,0,0,0,0,0,0,0,0,0,0,0,
0,0,0,0,0,0,0,0,0,0,0,0,0,0,0,0,
0,0,1153,1154,1153,1154,0,0,0,0,0,0,0,0,0,0,
0,0,1169,1170,1169,1170,0,0,0,0,0,0,0,0,0,0,
1153,1154,1155,1156,1157,1158,0,0,0,0,0,0,0,0,0,0,
1169,1170,1171,1172,1173,1174,0,0,0,0,0,0,0,0,0,0,
0,0,0,0,0,0,0,0,0,0,0,0,0,0,0,0,
0,0,0,0,0,0,0,0,0,0,0,0,0,0,0,0,
0,0,0,0,0,0,0,0,0,0,0,0,0,0,0,0,
0,0,0,0,0,0,0,0,0,0,0,0,0,0,0,0,
0,0,0,0,0,0,0,0,0,0,0,0,0,0,0,0,
0,0,0,0,0,0,0,0,0,0,0,0,0,0,0,0,
1223,1224,1223,1224,1223,1224,1223,1224,1223,1224,1223,1224,0,0,0,0,
1239,1240,1239,1240,1239,1240,1239,1240,1239,1240,1239,1240,0,0,0,0,
0,0,1223,1224,0,0,0,0,0,0,0,0,0,0,0,0,
0,0,1239,1240,0,0,0,0,0,0,0,0,0,0,0,0,
0,0,0,0,0,0,0,0,0,0,0,0,0,0,0,0,
0,0,0,0,0,0,0,0,0,0,0,0,0,0,0,0,
0,0,0,0,0,0,0,0,0,0,0,0,0,0,0,0,
0,0,0,0,0,0,0,0,0,0,0,0,0,0,0,0,
0,0,0,0,0,0,0,0,0,0,0,0,0,0,0,0,
0,0,0,0,0,0,0,0,0,0,0,0,0,0,0,0,
0,0,0,0,0,0,0,0,0,0,0,0,0,0,0,0,
0,0,0,0,0,0,0,0,0,0,0,0,0,0,0,0,
1377,1378,1379,1380,1381,1382,1377,1378,1379,1380,1381,1382,0,0,0,0,
1393,1394,1395,1396,1397,1398,1393,1394,1395,1396,1397,1398,0,0,0,0,
1409,1410,1411,1412,1413,1414,1409,1410,1411,1412,1413,1414,0,0,0,0,
1425,1426,1427,1428,1429,1430,1425,1426,1427,1428,1429,1430,0,0,0,0,
0,0,0,0,0,0,0,0,0,0,0,0,0,0,0,0,
0,0,0,0,0,0,0,0,0,0,0,0,0,0,0,0,
0,0,0,0,0,0,0,0,0,0,0,0,0,0,0,0,
0,0,0,0,0,0,0,0,0,0,0,0,0,0,0,0,
0,0,0,0,0,0,0,0,0,0,0,0,0,0,0,0,
0,0,0,0,0,0,0,0,0,0,0,0,0,0,0,0,
0,0,0,0,0,0,0,0,0,0,0,0,0,0,0,0,
0,0,0,0,0,0,0,0,0,0,0,0,0,0,0,0,
0,0,0,0,0,0,0,0,0,0,0,0,0,0,0,0,
0,0,0,0,0,0,0,0,0,0,0,0,0,0,0,0,
0,0,0,0,0,0,0,0,0,0,0,0,0,0,0,0,
0,0,0,0,0,0,0,0,0,0,0,0,0,0,0,0,
0,0,0,0,0,0,0,0,0,0,0,0,0,0,0,0,
0,0,0,0,0,0,0,0,0,0,0,0,0,0,0,0,
0,0,0,0,0,0,0,0,0,0,0,0,0,0,0,0,
0,0,0,0,0,0,0,0,0,0,0,0,0,0,0,0,
0,0,0,0,1101,1102,1103,1104,0,0,0,0,0,0,0,0,
0,0,0,0,1117,1118,1119,1120,0,0,0,0,0,0,0,0,
0,0,0,0,0,0,0,0,1101,1102,1103,1104,1101,1102,1103,1104,
0,0,0,0,0,0,0,0,1117,1118,1119,1120,1117,1118,1119,1120,
0,0,0,0,0,0,0,0,1101,1102,1103,1104,1101,1102,1103,1104,
0,0,0,0,0,0,0,0,1117,1118,1119,1120,1117,1118,1119,1120,
1101,1102,1103,1104,1101,1102,1103,1104,1101,1102,1103,1104,1101,1102,1103,1104,
1117,1118,1119,1120,1117,1118,1119,1120,1117,1118,1119,1120,1117,1118,1119,1120,
0,0,0,0,0,0,0,0,1101,1102,1103,1104,1101,1102,1103,1104,
0,0,0,0,0,0,0,0,1117,1118,1119,1120,1117,1118,1119,1120,
0,0,0,0,0,0,0,0,1223,1224,1223,1224,1101,1102,1103,1104,
0,0,0,0,0,0,0,0,1239,1240,1239,1240,1117,1118,1119,1120,
1101,1102,1103,1104,1101,1102,1103,1104,1101,1102,1103,1104,1101,1102,1103,1104,
1117,1118,1119,1120,1117,1118,1119,1120,1117,1118,1119,1120,1117,1118,1119,1120,
0,0,0,0,0,0,0,0,0,0,0,0,0,0,1103,1104,
0,0,0,0,0,0,0,0,0,0,0,0,0,0,1119,1120,
0,0,0,0,0,0,0,0,0,0,0,0,0,0,1101,1102,
0,0,0,0,0,0,0,0,0,0,0,0,0,0,1117,1118,
0,0,0,0,0,0,0,0,0,0,0,0,0,0,1101,1102,
0,0,0,0,0,0,0,0,0,0,0,0,0,0,1117,1118,
0,0,0,0,0,0,0,0,0,0,0,0,0,0,1103,1104,
0,0,0,0,0,0,0,0,0,0,0,0,0,0,1119,1120,
0,0,0,0,0,0,0,0,0,0,0,0,1155,1156,1157,1158,
0,0,0,0,0,0,0,0,0,0,0,0,1171,1172,1173,1174,
0,0,0,0,0,0,0,0,0,0,0,0,0,0,0,0,
0,0,0,0,0,0,0,0,0,0,0,0,0,0,0,0,
0,0,0,0,0,0,0,0,0,0,0,0,0,0,0,0,
0,0,0,0,0,0,0,0,0,0,0,0,0,0,0,0,
0,0,0,0,0,0,0,0,0,0,0,0,0,0,0,0,
0,0,0,0,0,0,0,0,0,0,0,0,0,0,0,0,
0,0,0,0,0,0,0,0,0,0,0,0,0,0,0,0,
0,0,0,0,0,0,0,0,0,0,0,0,0,0,0,0,
0,0,0,0,0,0,0,0,0,0,0,0,0,0,0,0,
0,0,0,0,0,0,0,0,0,0,0,0,0,0,0,0,
0,0,0,0,0,0,0,0,0,0,0,0,0,0,0,0,
0,0,0,0,0,0,0,0,0,0,0,0,0,0,0,0,
0,0,0,0,0,0,0,0,0,0,0,0,0,0,0,0,
0,0,0,0,0,0,0,0,0,0,0,0,0,0,0,0,
0,0,0,0,0,0,0,0,0,0,0,0,0,0,0,0,
0,0,0,0,0,0,0,0,0,0,0,0,0,0,0,0,
0,0,0,0,0,0,0,0,0,0,0,0,0,0,0,0,
0,0,0,0,0,0,0,0,0,0,0,0,0,0,0,0,
0,0,0,0,0,0,0,0,0,0,0,0,0,0,0,0,
0,0,0,0,0,0,0,0,0,0,0,0,0,0,0,0,
0,0,0,0,0,0,0,0,0,0,0,0,0,0,0,0,
0,0,0,0,0,0,0,0,0,0,0,0,0,0,0,0,
0,0,0,0,0,0,0,0,0,0,0,0,0,0,0,0,
0,0,0,0,0,0,0,0,0,0,0,0,0,0,0,0,
0,0,0,0,0,0,0,0,0,0,0,0,0,0,0,0,
0,0,0,0,0,0,0,0,0,0,0,0,0,0,0,0,
0,0,0,0,0,0,0,0,0,0,0,0,0,0,0,0,
0,0,0,0,0,0,0,0,0,0,0,0,0,0,0,0,
0,0,0,0,0,0,0,0,0,0,0,0,0,0,0,0,
0,0,0,0,0,0,0,0,0,0,0,0,0,0,0,0,
0,0,0,0,0,0,0,0,0,0,0,0,0,0,0,0,
0,0,0,0,0,0,0,0,0,0,0,0,0,0,0,0,
0,0,0,0,0,0,0,0,0,0,0,0,0,0,0,0,
0,0,0,0,0,0,0,0,0,0,0,0,0,0,0,0,
0,0,0,0,0,0,0,0,0,0,0,0,0,0,0,0,
0,0,0,0,0,0,0,0,0,0,0,0,0,0,0,0,
0,0,0,0,0,0,0,0,0,0,0,0,0,0,0,0,
0,0,0,0,0,0,0,0,0,0,0,0,0,0,0,0,
0,0,0,0,0,0,0,0,0,0,0,0,0,0,0,0,
0,0,0,0,0,0,0,0,0,0,0,0,0,0,0,0,
0,0,0,0,0,0,0,0,0,0,0,0,0,0,0,0,
0,0,0,0,0,0,0,0,0,0,0,0,0,0,0,0,
0,0,0,0,0,0,0,0,0,0,0,0,0,0,0,0,
0,0,0,0,0,0,0,0,0,0,0,0,0,0,0,0,
0,0,0,0,0,0,0,0,0,0,0,0,0,0,0,0,
0,0,0,0,0,0,0,0,0,0,0,0,0,0,0,0,
0,0,0,0,0,0,0,0,0,0,0,0,0,0,0,0,
0,0,0,0,0,0,0,0,0,0,0,0,0,0,0,0,
0,0,0,0,0,0,0,0,0,0,0,0,0,0,0,0,
0,0,0,0,0,0,0,0,0,0,0,0,0,0,0,0,
0,0,0,0,0,0,0,0,0,0,0,0,0,0,0,0,
0,0,0,0,0,0,0,0,0,0,0,0,0,0,0,0,
0,0,0,0,0,0,0,0,0,0,0,0,0,0,0,0,
0,0,0,0,0,0,0,0,0,0,0,0,0,0,0,0,
0,0,0,0,0,0,0,0,0,0,0,0,0,0,0,0,
0,0,0,0,0,0,0,0,0,0,0,0,0,0,0,0,
0,0,0,0,0,0,0,0,0,0,0,0,0,0,0,0,
0,0,0,0,0,0,0,0,0,0,0,0,0,0,0,0,
0,0,0,0,0,0,0,0,0,0,0,0,0,0,0,0,
0,0,0,0,0,0,0,0,0,0,0,0,0,0,0,0,
0,0,0,0,0,0,0,0,0,0,0,0,0,0,0,0,
0,0,0,0,0,0,0,0,0,0,0,0,0,0,0,0,
0,0,0,0,0,0,0,0,0,0,0,0,0,0,0,0,
0,0,0,0,0,0,0,0,0,0,0,0,0,0,0,0,
0,0,0,0,0,0,0,0,0,0,0,0,0,0,0,0,
0,0,0,0,0,0,0,0,0,0,0,0,0,0,0,0,
0,0,0,0,0,0,0,0,0,0,0,0,0,0,0,0,
0,0,0,0,0,0,0,0,0,0,0,0,0,0,0,0,
0,0,0,0,0,0,0,0,0,0,0,0,0,0,0,0,
0,0,0,0,0,0,0,0,0,0,0,0,0,0,0,0,
0,0,0,0,0,0,0,0,0,0,0,0,0,0,0,0,
0,0,0,0,0,0,0,0,0,0,0,0,0,0,0,0,
0,0,0,0,0,0,0,0,0,0,0,0,0,0,0,0,
0,0,0,0,0,0,0,0,0,0,0,0,0,0,0,0,
0,0,0,0,0,0,0,0,0,0,0,0,0,0,0,0,
0,0,0,0,0,0,0,0,0,0,0,0,0,0,0,0,
0,0,0,0,0,0,0,0,0,0,0,0,0,0,0,0,
0,0,0,0,0,0,0,0,0,0,0,0,0,0,0,0,
0,0,0,0,0,0,0,0,0,0,0,0,0,0,0,0,
0,0,0,0,0,0,0,0,0,0,0,0,0,0,0,0,
0,0,0,0,0,0,0,0,0,0,0,0,0,0,0,0,
0,0,0,0,0,0,0,0,0,0,0,0,0,0,0,0,
0,0,0,0,0,0,0,0,0,0,0,0,0,0,0,0,
0,0,0,0,0,0,0,0,0,0,0,0,0,0,0,0,
0,0,0,0,0,0,0,0,0,0,0,0,0,0,0,0,
0,0,0,0,0,0,0,0,0,0,0,0,0,0,0,0,
0,0,0,0,0,0,0,0,0,0,0,0,0,0,0,0,
0,0,0,0,0,0,0,0,0,0,0,0,0,0,0,0,
0,0,0,0,0,0,0,0,0,0,0,0,0,0,0,0,
0,0,0,0,0,0,0,0,0,0,0,0,0,0,0,0,
0,0,0,0,0,0,0,0,0,0,0,0,0,0,0,0,
0,0,0,0,0,0,0,0,0,0,0,0,0,0,0,0,
0,0,0,0,0,0,0,0,0,0,0,0,0,0,0,0,
0,0,0,0,0,0,0,0,0,0,0,0,0,0,0,0,
0,0,0,0,0,0,0,0,0,0,0,0,0,0,0,0,
0,0,0,0,0,0,0,0,0,0,0,0,0,0,0,0,
0,0,0,0,0,0,0,0,0,0,0,0,0,0,0,0,
0,0,0,0,0,0,0,0,0,0,0,0,0,0,0,0,
0,0,0,0,0,0,0,0,0,0,0,0,0,0,0,0,
0,0,0,0,0,0,0,0,0,0,0,0,0,0,0,0,
0,0,0,0,0,0,0,0,0,0,0,0,0,0,0,0,
0,0,0,0,0,0,0,0,0,0,0,0,0,0,0,0,
0,0,0,0,0,0,0,0,0,0,0,0,0,0,0,0,
0,0,0,0,0,0,0,0,0,0,0,0,0,0,0,0,
0,0,0,0,0,0,0,0,0,0,0,0,0,0,0,0,
0,0,0,0,0,0,0,0,0,0,0,0,0,0,0,0,
0,0,0,0,0,0,0,0,0,0,0,0,0,0,0,0,
0,0,0,0,0,0,0,0,0,0,0,0,0,0,0,0,
0,0,0,0,0,0,0,0,0,0,0,0,0,0,0,0,
0,0,0,0,0,0,0,0,0,0,0,0,0,0,0,0,
0,0,0,0,0,0,0,0,0,0,0,0,0,0,0,0,
0,0,0,0,0,0,0,0,0,0,0,0,0,0,0,0,
0,0,0,0,0,0,0,0,0,0,0,0,0,0,0,0,
0,0,0,0,0,0,0,0,0,0,0,0,0,0,0,0,
0,0,0,0,0,0,0,0,0,0,0,0,0,0,0,0,
0,0,0,0,0,0,0,0,0,0,0,0,0,0,0,0,
0,0,0,0,0,0,0,0,0,0,0,0,0,0,0,0,
0,0,0,0,0,0,0,0,0,0,0,0,0,0,0,0,
0,0,0,0,0,0,0,0,0,0,0,0,0,0,0,0,
0,0,0,0,0,0,0,0,0,0,0,0,0,0,0,0,
0,0,0,0,0,0,0,0,0,0,0,0,0,0,0,0,
0,0,0,0,0,0,0,0,0,0,0,0,0,0,0,0,
0,0,0,0,0,0,0,0,0,0,0,0,0,0,0,0,
0,0,0,0,0,0,0,0,0,0,0,0,0,0,0,0,
0,0,0,0,0,0,0,0,0,0,0,0,0,0,0,0,
0,0,0,0,0,0,0,0,0,0,0,0,0,0,0,0,
0,0,0,0,0,0,0,0,0,0,0,0,0,0,0,0,
0,0,0,0,0,0,0,0,0,0,0,0,0,0,0,0,
0,0,0,0,0,0,0,0,0,0,0,0,0,0,0,0,
0,0,0,0,0,0,0,0,0,0,0,0,0,0,0,0,
0,0,0,0,0,0,0,0,0,0,0,0,0,0,0,0,
0,0,0,0,0,0,0,0,0,0,0,0,0,0,0,0,
0,0,0,0,0,0,0,0,0,0,0,0,0,0,0,0,
0,0,0,0,0,0,0,0,0,0,0,0,0,0,0,0,
0,0,0,0,0,0,0,0,0,0,0,0,0,0,0,0,
0,0,0,0,0,0,0,0,0,0,0,0,0,0,0,0,
0,0,0,0,0,0,0,0,0,0,0,0,0,0,0,0,
0,0,0,0,0,0,0,0,0,0,0,0,0,0,0,0,
0,0,0,0,0,0,0,0,0,0,0,0,0,0,0,0,
0,0,0,0,0,0,0,0,0,0,0,0,0,0,0,0,
0,0,0,0,0,0,0,0,0,0,0,0,0,0,0,0,
0,0,0,0,0,0,0,0,0,0,0,0,0,0,0,0,
0,0,0,0,0,0,0,0,0,0,0,0,0,0,0,0,
0,0,0,0,0,0,0,0,0,0,0,0,0,0,0,0,
0,0,0,0,0,0,0,0,0,0,0,0,0,0,0,0,
0,0,0,0,0,0,0,0,0,0,0,0,0,0,0,0,
0,0,0,0,0,0,0,0,0,0,0,0,0,0,0,0,
0,0,0,0,0,0,0,0,0,0,0,0,0,0,0,0,
0,0,0,0,0,0,0,0,0,0,0,0,0,0,0,0,
0,0,0,0,0,0,0,0,0,0,0,0,0,0,0,0,
0,0,0,0,0,0,0,0,0,0,0,0,0,0,0,0,
0,0,0,0,0,0,0,0,0,0,0,0,0,0,0,0,
0,0,0,0,0,0,0,0,0,0,0,0,0,0,0,0,
0,0,0,0,0,0,0,0,0,0,0,0,0,0,0,0,
0,0,0,0,0,0,0,0,0,0,0,0,0,0,0,0,
0,0,0,0,0,0,0,0,0,0,0,0,0,0,0,0,
0,0,0,0,0,0,0,0,0,0,0,0,0,0,0,0,
0,0,0,0,0,0,0,0,0,0,0,0,0,0,0,0,
0,0,0,0,0,0,0,0,0,0,0,0,0,0,0,0,
0,0,0,0,0,0,0,0,0,0,0,0,0,0,0,0,
0,0,0,0,0,0,0,0,0,0,0,0,0,0,0,0,
0,0,0,0,0,0,0,0,0,0,0,0,0,0,0,0,
0,0,0,0,0,0,0,0,0,0,0,0,0,0,0,0,
0,0,0,0,0,0,0,0,0,0,0,0,0,0,0,0,
0,0,0,0,0,0,0,0,0,0,0,0,0,0,0,0,
0,0,0,0,0,0,0,0,0,0,0,0,0,0,0,0,
0,0,0,0,0,0,0,0,0,0,0,0,0,0,0,0,
0,0,0,0,0,0,0,0,0,0,0,0,0,0,0,0,
0,0,0,0,0,0,0,0,0,0,0,0,0,0,0,0,
0,0,0,0,0,0,0,0,0,0,0,0,0,0,0,0,
0,0,0,0,0,0,0,0,0,0,0,0,0,0,0,0,
0,0,0,0,0,0,0,0,0,0,0,0,0,0,0,0,
0,0,0,0,0,0,0,0,0,0,0,0,0,0,0,0,
0,0,0,0,0,0,0,0,0,0,0,0,0,0,0,0,
0,0,0,0,0,0,0,0,0,0,0,0,0,0,0,0,
0,0,0,0,0,0,0,0,0,0,0,0,0,0,0,0,
0,0,0,0,0,0,0,0,0,0,0,0,0,0,0,0,
0,0,0,0,0,0,0,0,0,0,0,0,0,0,0,0,
0,0,0,0,0,0,0,0,0,0,0,0,0,0,0,0,
0,0,0,0,0,0,0,0,0,0,0,0,0,0,0,0,
0,0,0,0,0,0,0,0,0,0,0,0,0,0,0,0,
0,0,0,0,0,0,0,0,0,0,0,0,0,0,0,0,
0,0,0,0,0,0,0,0,0,0,0,0,0,0,0,0,
0,0,0,0,0,0,0,0,0,0,0,0,0,0,0,0,
0,0,0,0,0,0,0,0,0,0,0,0,0,0,0,0,
0,0,0,0,0,0,0,0,0,0,0,0,0,0,0,0
</data>
 </layer>
</map>
