<?xml version="1.0" encoding="UTF-8"?>
<map version="1.10" tiledversion="1.11.0" orientation="orthogonal" renderorder="right-down" width="16" height="256" tilewidth="8" tileheight="8" infinite="0" nextlayerid="4" nextobjectid="1">
 <tileset firstgid="1" name="M2" tilewidth="8" tileheight="8" tilecount="416" columns="16">
  <image source="tiles/M2.png" trans="ffffff" width="128" height="208"/>
 </tileset>
 <tileset firstgid="417" name="M3" tilewidth="8" tileheight="8" tilecount="480" columns="16">
  <image source="tiles/M3.png" trans="ffffff" width="128" height="240"/>
 </tileset>
 <tileset firstgid="897" name="M4" tilewidth="8" tileheight="8" tilecount="256" columns="16">
  <image source="tiles/M4.png" trans="ffffff" width="128" height="128"/>
 </tileset>
 <tileset firstgid="1153" name="M7" tilewidth="8" tileheight="8" tilecount="896" columns="16">
  <image source="tiles/M7.png" trans="ffffff" width="128" height="448"/>
 </tileset>
 <tileset firstgid="2049" name="M8" tilewidth="8" tileheight="8" tilecount="480" columns="16">
  <image source="tiles/M8.png" trans="ffffff" width="128" height="240"/>
 </tileset>
 <tileset firstgid="2529" name="M9" tilewidth="8" tileheight="8" tilecount="416" columns="16">
  <image source="tiles/M9.png" trans="ffffff" width="128" height="208"/>
 </tileset>
 <tileset firstgid="2945" name="3" tilewidth="8" tileheight="8" tilecount="512" columns="16">
  <image source="tiles/3.png" trans="ffffff" width="128" height="256"/>
 </tileset>
 <tileset firstgid="3457" name="2" tilewidth="8" tileheight="8" tilecount="512" columns="16">
  <image source="tiles/2.png" trans="ffffff" width="128" height="256"/>
 </tileset>
 <tileset firstgid="3969" name="1" tilewidth="8" tileheight="8" tilecount="512" columns="16">
  <image source="tiles/1.png" trans="ffffff" width="128" height="256"/>
 </tileset>
 <tileset firstgid="4481" name="M10" tilewidth="8" tileheight="8" tilecount="416" columns="16">
  <image source="tiles/M10.png" trans="ffffff" width="128" height="208"/>
 </tileset>
 <layer id="1" name="bottom" width="16" height="256">
  <data encoding="csv">
0,0,0,0,0,0,0,0,0,0,3713,3714,3713,3714,3713,3714,
0,0,0,0,0,0,0,0,0,0,3729,3730,3729,3730,3729,3730,
3713,3714,3713,3714,3713,3714,3745,3746,3747,3748,3749,3750,3723,3724,3713,3714,
3729,3730,3729,3730,3729,3730,3761,3762,3763,3764,3765,3766,3739,3740,3729,3730,
3713,3714,3713,3714,3713,3714,3777,3778,3751,3752,3753,3754,3755,3756,0,0,
3729,3730,3729,3730,3729,3730,3793,3794,3767,3768,3769,3770,3771,3772,0,0,
3713,3714,3713,3714,3713,3714,0,0,0,0,0,0,3713,3714,3713,3714,
3729,3730,3729,3730,3729,3730,0,0,0,0,0,0,3729,3730,3729,3730,
3713,3714,3713,3714,3713,3714,3713,3714,3713,3714,3713,3714,0,0,0,0,
3729,3730,3729,3730,3729,3730,3729,3730,3729,3730,3729,3730,0,0,0,0,
3713,3714,3713,3714,3713,3714,3713,3714,3713,3714,3713,3714,0,0,0,0,
3729,3730,3729,3730,3729,3730,3729,3730,3729,3730,3729,3730,0,0,0,0,
3713,3714,3713,3714,3713,3714,3713,3714,3713,3714,3713,3714,4077,4078,0,0,
3729,3730,3729,3730,3729,3730,3729,3730,3729,3730,3729,3730,4093,4094,0,0,
0,0,3713,3714,3713,3714,0,0,0,0,0,0,4077,4078,0,0,
0,0,3729,3730,3729,3730,0,0,0,0,0,0,4093,4094,0,0,
3713,3714,3713,3714,0,0,0,0,0,0,0,0,3713,3714,0,0,
3729,3730,3729,3730,0,0,0,0,0,0,0,0,3729,3730,0,0,
3713,3714,3713,3714,3713,3714,3713,3714,0,0,0,0,3713,3714,3713,3714,
3729,3730,3729,3730,3729,3730,3729,3730,0,0,0,0,3729,3730,3729,3730,
3713,3714,3713,3714,3713,3714,3713,3714,0,0,0,0,0,0,0,0,
3729,3730,3729,3730,3729,3730,3729,3730,0,0,0,0,0,0,0,0,
0,0,4077,4078,4077,4078,0,0,0,0,0,0,0,0,0,0,
0,0,4093,4094,4093,4094,0,0,0,0,0,0,0,0,0,0,
4077,4078,4077,4078,0,0,0,0,0,0,0,0,0,0,3713,3714,
4093,4094,4093,4094,0,0,0,0,0,0,0,0,0,0,3729,3730,
4077,4078,4077,4078,4077,4078,4077,4078,0,0,0,0,0,0,0,0,
4093,4094,4093,4094,4093,4094,4093,4094,0,0,0,0,0,0,0,0,
4077,4078,4077,4078,4077,4078,4077,4078,0,0,0,0,3713,3714,0,0,
4093,4094,4093,4094,4093,4094,4093,4094,0,0,0,0,3729,3730,0,0,
0,0,0,0,0,0,0,0,0,0,0,0,3713,3714,3713,3714,
0,0,0,0,0,0,0,0,0,0,0,0,3729,3730,3729,3730,
0,0,0,0,0,0,0,0,3713,3714,3713,3714,0,0,0,0,
0,0,0,0,0,0,0,0,3729,3730,3729,3730,0,0,0,0,
0,0,0,0,0,0,0,0,3713,3714,3713,3714,0,0,0,0,
0,0,0,0,0,0,0,0,3729,3730,3729,3730,0,0,0,0,
0,0,0,0,0,0,0,0,3713,3714,3713,3714,3713,3714,3713,3714,
0,0,0,0,0,0,0,0,3729,3730,3729,3730,3729,3730,3729,3730,
0,0,0,0,0,0,0,0,0,0,0,0,0,0,0,0,
0,0,0,0,0,0,0,0,0,0,0,0,0,0,0,0,
0,0,0,0,0,0,0,0,0,0,0,0,0,0,0,0,
0,0,0,0,0,0,0,0,0,0,0,0,0,0,0,0,
0,0,0,0,0,0,0,0,0,0,0,0,0,0,0,0,
0,0,0,0,0,0,0,0,0,0,0,0,0,0,0,0,
0,0,0,0,0,0,0,0,0,0,0,0,0,0,0,0,
0,0,0,0,0,0,0,0,0,0,0,0,0,0,0,0,
0,0,0,0,0,0,0,0,0,0,0,0,0,0,0,0,
0,0,0,0,0,0,0,0,0,0,0,0,0,0,0,0,
0,0,0,0,0,0,0,0,0,0,0,0,0,0,0,0,
0,0,0,0,0,0,0,0,0,0,0,0,0,0,0,0,
0,0,0,0,0,0,0,0,3713,3714,3713,3714,3713,3714,3713,3714,
0,0,0,0,0,0,0,0,3729,3730,3729,3730,3729,3730,3729,3730,
0,0,0,0,0,0,0,0,3713,3714,3713,3714,0,0,0,0,
0,0,0,0,0,0,0,0,3729,3730,3729,3730,0,0,0,0,
0,0,0,0,0,0,0,0,0,0,0,0,3713,3714,3713,3714,
0,0,0,0,0,0,0,0,0,0,0,0,3729,3730,3729,3730,
0,0,0,0,0,0,0,0,3713,3714,3713,3714,3713,3714,0,0,
0,0,0,0,0,0,0,0,3729,3730,3729,3730,3729,3730,0,0,
0,0,0,0,0,0,0,0,0,0,1795,1796,0,0,4088,4089,
0,0,0,0,0,0,0,0,0,0,1811,1812,0,0,4104,4105,
0,0,1155,1156,3787,3788,3789,3790,3791,3792,1795,1796,3713,3714,0,0,
0,0,1171,1172,3803,3804,3805,3806,3807,3808,1811,1812,3729,3730,0,0,
3713,3714,3713,3714,3819,3820,3821,3822,3823,3824,4515,4516,3713,3714,4077,4078,
3729,3730,3729,3730,3835,3836,3837,3838,3839,3840,4531,4532,3729,3730,4093,4094,
3815,3816,3817,3818,3851,3852,3853,3854,3855,3856,4515,4516,3527,3528,3529,3530,
3831,3832,3833,3834,3867,3868,3869,3870,3871,3872,4531,4532,3543,3544,3545,3546,
3847,3848,3849,3850,3585,3586,3553,3554,3555,3556,3557,3558,3559,3560,3561,3562,
3863,3864,3865,3866,3601,3602,3569,3570,3571,3572,3573,3574,3575,3576,3577,3578,
3969,3970,3971,3972,3973,3974,3457,3458,3459,3460,3461,3462,4007,4008,4009,4010,
3985,3986,3987,3988,3989,3990,3473,3474,3475,3476,3477,3478,4023,4024,4025,4026,
4001,4002,4003,4004,4005,4006,3489,3490,3491,3492,3493,3494,4039,4040,4041,4042,
4017,4018,4019,4020,4021,4022,3505,3506,3507,3508,3509,3510,4055,4056,4057,4058,
4033,4034,4035,4036,4037,4038,3521,3522,3523,3524,3525,3526,4071,4072,4073,4074,
4049,4050,4051,4052,4053,4054,3537,3538,3539,3540,3541,3542,4087,4088,4089,4090,
4043,4044,4045,4046,4047,4048,3713,3714,4515,4516,4515,4516,4103,4104,4105,4106,
4059,4060,4061,4062,4063,4064,3729,3730,4531,4532,4531,4532,4119,4120,4121,4122,
4075,4076,4077,4078,4079,4080,4771,4772,4515,4516,3713,3714,3713,3714,3713,3714,
4091,4092,4093,4094,4095,4096,4787,4788,4531,4532,3729,3730,3729,3730,3729,3730,
4107,4108,4109,4110,4111,4112,0,0,0,0,0,0,0,0,0,0,
4123,4124,4125,4126,4127,4128,0,0,0,0,0,0,0,0,0,0,
3713,3714,3713,3714,3713,3714,0,0,0,0,3713,3714,3713,3714,3713,3714,
3729,3730,3729,3730,3729,3730,0,0,0,0,3729,3730,3729,3730,3729,3730,
3713,3714,0,0,3713,3714,0,0,0,0,3713,3714,0,0,3713,3714,
3729,3730,0,0,3729,3730,0,0,0,0,3729,3730,0,0,3729,3730,
3713,3714,3713,3714,3713,3714,0,0,0,0,3713,3714,0,0,3713,3714,
3729,3730,3729,3730,3729,3730,0,0,0,0,3729,3730,0,0,3729,3730,
0,0,0,0,0,0,0,0,0,0,0,0,0,0,0,0,
0,0,0,0,0,0,0,0,0,0,0,0,0,0,0,0,
1197,1198,1197,1198,1197,1198,0,0,0,0,3713,3714,0,0,0,0,
1213,1214,1213,1214,1213,1214,0,0,0,0,3729,3730,0,0,0,0,
1197,1198,1197,1198,0,0,0,0,0,0,3713,3714,0,0,0,0,
1213,1214,1213,1214,0,0,0,0,0,0,3729,3730,0,0,0,0,
1197,1198,1197,1198,1197,1198,3713,3714,0,0,0,0,0,0,3713,3714,
1213,1214,1213,1214,1213,1214,3729,3730,0,0,0,0,0,0,3729,3730,
1197,1198,1197,1198,1197,1198,3713,3714,0,0,0,0,0,0,3713,3714,
1213,1214,1213,1214,1213,1214,3729,3730,0,0,0,0,0,0,3729,3730,
0,0,0,0,1197,1198,0,0,1197,1198,0,0,1197,1198,3713,3714,
0,0,0,0,1213,1214,0,0,1213,1214,0,0,1213,1214,3729,3730,
1181,1182,3713,3714,1197,1198,0,0,0,0,0,0,0,0,0,0,
1197,1198,3729,3730,1213,1214,0,0,0,0,0,0,0,0,0,0,
0,0,0,0,0,0,0,0,0,0,0,0,0,0,0,0,
0,0,0,0,0,0,0,0,0,0,0,0,0,0,0,0,
0,0,0,0,0,0,0,0,0,0,0,0,0,0,0,0,
0,0,0,0,0,0,0,0,0,0,0,0,0,0,0,0,
3713,3714,3713,3714,3713,3714,0,0,0,0,0,0,0,0,0,0,
3729,3730,3729,3730,3729,3730,0,0,0,0,0,0,0,0,0,0,
3713,3714,3713,3714,3713,3714,0,0,0,0,0,0,0,0,0,0,
3729,3730,3729,3730,3729,3730,0,0,0,0,0,0,0,0,0,0,
3713,3714,3713,3714,3713,3714,0,0,0,0,0,0,0,0,0,0,
3729,3730,3729,3730,3729,3730,0,0,0,0,0,0,0,0,0,0,
3713,3714,3713,3714,3713,3714,0,0,1181,1182,1181,1182,1181,1182,1181,1182,
3729,3730,3729,3730,3729,3730,0,0,1197,1198,1197,1198,1197,1198,1197,1198,
3713,3714,3713,3714,3713,3714,4515,1197,1198,4516,1197,1198,1197,1198,1197,1198,
3729,4532,4531,4532,4531,3729,4531,1213,1214,4532,1213,1214,1213,1214,1213,1214,
3713,4516,4515,4516,4515,3729,4515,1197,1198,4516,1197,1198,4515,4516,1197,1198,
3713,4532,4531,4532,4531,3713,4531,1213,1214,4532,1213,1214,4531,4532,1213,1214,
3713,3714,3713,3714,3713,3714,0,0,4747,4748,1197,1198,1197,1198,1197,1198,
0,0,0,0,0,0,0,0,4763,4764,1213,1214,1213,1214,1213,1214,
4515,3713,3714,4516,3713,3714,3713,3714,3713,3714,3713,3714,3713,3714,3713,3714,
4531,3729,3730,4532,3729,3730,3729,3730,3729,3730,3729,3730,3729,3730,3729,3730,
4515,3713,3714,4516,3713,3714,3713,3714,3713,3714,3713,3714,3713,3714,1197,1198,
4531,3729,3730,4532,3729,3730,3729,3730,3729,3730,3729,3730,3729,3730,1213,1214,
4515,4516,4515,4516,3713,3714,3713,3714,3713,3714,3713,3714,3713,3714,4655,4656,
4531,4532,4531,4532,3729,3730,3729,3730,3729,3730,3729,3730,3729,3730,4671,4672,
3713,3714,1197,1198,3713,3714,3713,3714,3713,3714,3713,3714,3713,3714,0,0,
3729,3730,1213,1214,3729,3730,3729,3730,3729,3730,3729,3730,3729,3730,0,0,
3713,3714,1197,1198,0,0,0,0,0,0,0,0,0,0,0,0,
3729,3730,1213,1214,0,0,0,0,0,0,0,0,0,0,0,0,
3713,3714,3713,3714,0,0,0,0,0,0,0,0,0,0,3713,3714,
3729,3730,3729,3730,0,0,0,0,0,0,0,0,0,0,3729,3730,
3713,3714,0,0,0,0,0,0,0,0,0,0,0,0,3713,3714,
3729,3730,0,0,0,0,0,0,0,0,0,0,0,0,3729,3730,
3713,3714,0,0,0,0,0,0,0,0,0,0,0,0,3713,3714,
3729,3730,0,0,0,0,0,0,0,0,0,0,0,0,3729,3730,
3713,3714,3713,3714,3713,3714,3713,3714,3713,3714,3713,3714,3713,3714,3713,3714,
3729,3730,3729,3730,3729,3730,3729,3730,3729,3730,3729,3730,3729,3730,3729,3730,
0,0,0,0,0,0,0,0,0,0,0,0,0,0,3713,3714,
0,0,0,0,0,0,0,0,0,0,0,0,0,0,3729,3730,
0,0,0,0,0,0,0,0,0,0,3713,3714,3713,3714,3713,3714,
0,0,0,0,0,0,0,0,0,0,3729,3730,3729,3730,3729,3730,
0,0,0,0,0,0,0,0,0,0,3713,3714,3713,3714,3713,3714,
0,0,0,0,0,0,0,0,0,0,3729,3730,3729,3730,3729,3730,
0,0,0,0,0,0,0,0,0,0,3713,3714,3713,3714,3713,3714,
3713,3714,3713,3714,0,0,3713,3714,3713,3714,3729,3730,3729,3730,3729,3730,
3729,3730,3729,3730,0,0,3729,3730,3729,3730,3713,3714,3713,3714,3713,3714,
3713,3714,3713,3714,3713,3714,3713,3714,3713,3714,3729,3730,3729,3730,3729,3730,
3713,3714,3713,3714,3713,3714,3729,3730,3729,3730,3713,3714,3713,3714,3713,3714,
3729,3730,3729,3730,3729,3730,3713,3714,3713,3714,3729,3730,3729,3730,3729,3730,
0,0,0,0,0,0,3729,3730,3713,3714,3713,3714,3713,3714,3713,3714,
0,0,0,0,0,0,3713,3714,3729,3730,3729,3730,3729,3730,3729,3730,
0,0,0,0,0,0,3729,3730,0,0,3713,3714,0,0,0,0,
0,0,0,0,0,0,3713,3714,0,0,3729,3730,0,0,0,0,
0,0,0,0,0,0,3713,3714,3713,3714,3713,3714,0,0,0,0,
0,0,0,0,0,0,3729,3730,3729,3730,3729,3730,0,0,0,0,
0,0,0,0,0,0,4515,4516,4515,4516,0,0,0,0,0,0,
0,0,0,0,0,0,4531,4532,4531,4532,0,0,0,0,0,0,
0,0,0,0,0,0,4515,4516,4515,4516,0,0,0,0,0,0,
0,0,0,0,0,0,4531,4532,4531,4532,0,0,0,0,0,0,
0,0,0,0,0,0,3713,3714,3713,3714,3713,3714,0,0,0,0,
0,0,0,0,0,0,3729,3730,3729,3730,3729,3730,0,0,0,0,
0,0,0,0,0,0,0,0,0,0,0,0,0,0,0,0,
0,0,0,0,0,0,0,0,0,0,0,0,0,0,0,0,
0,0,0,0,0,0,0,0,0,0,0,0,0,0,0,0,
0,0,0,0,0,0,0,0,0,0,0,0,0,0,0,0,
0,0,0,0,0,0,0,0,0,0,0,0,2575,2576,2575,2576,
0,0,0,0,0,0,0,0,0,0,0,0,2591,2592,2591,2592,
0,0,2575,2576,0,0,0,0,3713,3714,0,0,2575,2576,2575,2576,
0,0,2591,2592,0,0,0,0,3729,3730,0,0,2591,2592,2591,2592,
0,0,2575,2576,0,0,0,0,3713,3714,0,0,0,0,0,0,
0,0,2591,2592,0,0,0,0,3729,3730,0,0,0,0,0,0,
2575,2576,2575,2576,0,0,0,0,0,0,2575,2576,0,0,0,0,
2591,2592,2591,2592,0,0,0,0,0,0,2591,2592,0,0,0,0,
0,0,0,0,0,0,1229,1230,0,0,1229,1230,2575,2576,2575,2576,
0,0,0,0,0,0,1245,1246,0,0,1245,1246,2591,2592,2591,2592,
3713,3714,3713,3714,0,0,1229,1230,0,0,1229,1230,2575,2576,2575,2576,
3729,3730,3729,3730,0,0,1245,1246,0,0,1245,1246,2591,2592,2591,2592,
3713,3714,3713,3714,0,0,1229,1230,0,0,1229,1230,0,0,0,0,
3729,3730,3729,3730,0,0,1245,1246,0,0,1245,1246,0,0,0,0,
0,0,0,0,0,0,4579,4580,4516,4515,4579,4580,0,0,0,0,
0,0,0,0,0,0,4595,4596,4532,4531,4595,4596,0,0,0,0,
3713,3714,3713,3714,3713,3714,0,0,0,0,0,0,1155,1156,1155,1156,
3729,3730,3729,3730,3729,3730,0,0,0,0,0,0,1171,1172,1171,1172,
3713,3714,3713,3714,3713,3714,0,0,0,0,0,0,0,0,0,0,
3729,3730,3729,3730,3729,3730,0,0,0,0,0,0,0,0,0,0,
0,0,0,0,0,0,0,0,0,0,0,0,0,0,0,0,
0,0,0,0,0,0,0,0,0,0,0,0,0,0,0,0,
0,0,0,0,0,0,0,0,0,0,0,0,0,0,0,0,
0,0,0,0,0,0,0,0,0,0,0,0,0,0,0,0,
0,0,0,0,0,0,0,0,0,0,0,0,0,0,0,0,
0,0,0,0,0,0,0,0,0,0,0,0,0,0,0,0,
0,0,0,0,0,0,0,0,0,0,0,0,0,0,0,0,
0,0,0,0,0,0,0,0,0,0,0,0,0,0,0,0,
0,0,0,0,0,0,0,0,0,0,0,0,0,0,0,0,
0,0,0,0,0,0,0,0,0,0,0,0,0,0,0,0,
3713,3714,3713,3714,3713,3714,3713,3714,3713,3714,3713,3714,0,0,0,0,
3729,3730,3729,3730,3729,3730,3729,3730,3729,3730,3729,3730,0,0,0,0,
0,0,0,0,0,0,0,0,0,0,0,0,0,0,0,0,
0,0,0,0,0,0,0,0,0,0,0,0,0,0,0,0,
0,0,0,0,0,0,0,0,0,0,0,0,0,0,0,0,
0,0,0,0,0,0,0,0,0,0,0,0,0,0,0,0,
3713,3714,3713,3714,3713,3714,3713,3714,3713,3714,3713,3714,0,0,0,0,
3729,3730,3729,3730,3729,3730,3729,3730,3729,3730,3729,3730,0,0,0,0,
0,0,0,0,0,0,0,0,0,0,0,0,0,0,0,0,
0,0,0,0,0,0,0,0,0,0,0,0,0,0,0,0,
0,0,0,0,0,0,0,0,0,0,0,0,0,0,0,0,
0,0,0,0,0,0,0,0,0,0,0,0,0,0,0,0,
0,0,0,0,0,0,3713,3714,3713,3714,3713,3714,0,0,0,0,
0,0,0,0,0,0,3729,3730,3729,3730,3729,3730,0,0,0,0,
0,0,0,0,0,0,3713,3714,3713,3714,3713,3714,0,0,0,0,
0,0,0,0,0,0,3729,3730,3729,3730,3729,3730,0,0,0,0,
0,0,0,0,0,0,0,0,0,0,0,0,0,0,0,0,
0,0,0,0,0,0,0,0,0,0,0,0,0,0,0,0,
0,0,0,0,0,0,0,0,0,0,0,0,0,0,0,0,
0,0,0,0,0,0,0,0,0,0,0,0,0,0,0,0,
0,0,0,0,0,0,0,0,0,0,0,0,0,0,0,0,
0,0,0,0,0,0,0,0,0,0,0,0,0,0,0,0,
0,0,0,0,0,0,0,0,0,0,0,0,0,0,0,0,
0,0,0,0,0,0,0,0,0,0,0,0,0,0,0,0,
0,0,0,0,0,0,0,0,0,0,0,0,0,0,0,0,
0,0,0,0,0,0,0,0,0,0,0,0,0,0,0,0,
0,0,0,0,0,0,0,0,0,0,0,0,0,0,0,0,
0,0,0,0,0,0,0,0,0,0,0,0,0,0,0,0,
0,0,0,0,0,0,0,0,0,0,0,0,0,0,0,0,
0,0,0,0,0,0,0,0,0,0,0,0,0,0,0,0,
0,0,0,0,0,0,0,0,0,0,0,0,0,0,0,0,
0,0,0,0,0,0,0,0,0,0,0,0,0,0,0,0,
0,0,0,0,0,0,0,0,0,0,0,0,0,0,0,0,
0,0,0,0,0,0,0,0,0,0,0,0,0,0,0,0,
0,0,0,0,0,0,0,0,0,0,0,0,0,0,0,0,
0,0,0,0,0,0,0,0,0,0,0,0,0,0,0,0,
0,0,0,0,0,0,0,0,0,0,0,0,0,0,0,0,
0,0,0,0,0,0,0,0,0,0,0,0,0,0,0,0,
0,0,0,0,0,0,0,0,0,0,0,0,0,0,0,0,
0,0,0,0,0,0,0,0,0,0,0,0,0,0,0,0,
0,0,0,0,0,0,0,0,0,0,0,0,0,0,0,0,
0,0,0,0,0,0,0,0,0,0,0,0,0,0,0,0,
0,0,0,0,0,0,0,0,0,0,0,0,0,0,0,0,
0,0,0,0,0,0,0,0,0,0,0,0,0,0,0,0,
0,0,0,0,0,0,0,0,0,0,0,0,0,0,0,0,
0,0,0,0,0,0,0,0,0,0,0,0,0,0,0,0,
0,0,0,0,0,0,0,0,0,0,0,0,0,0,0,0,
0,0,0,0,0,0,0,0,0,0,0,0,0,0,0,0,
0,0,0,0,0,0,0,0,0,0,0,0,0,0,0,0,
0,0,0,0,0,0,0,0,0,0,0,0,0,0,0,0,
0,0,0,0,0,0,0,0,0,0,0,0,0,0,0,0,
0,0,0,0,0,0,0,0,0,0,0,0,0,0,0,0,
0,0,0,0,0,0,0,0,0,0,0,0,0,0,0,0,
0,0,0,0,0,0,0,0,0,0,0,0,0,0,0,0,
0,0,0,0,0,0,0,0,0,0,0,0,0,0,0,0,
0,0,0,0,0,0,0,0,0,0,0,0,0,0,0,0,
0,0,0,0,0,0,0,0,0,0,0,0,0,0,0,0,
0,0,0,0,0,0,0,0,0,0,0,0,0,0,0,0,
0,0,0,0,0,0,0,0,0,0,0,0,0,0,0,0,
0,0,0,0,0,0,0,0,0,0,0,0,0,0,0,0,
0,0,0,0,0,0,0,0,0,0,0,0,0,0,0,0,
0,0,0,0,0,0,0,0,0,0,0,0,0,0,0,0
</data>
 </layer>
 <layer id="2" name="middle" width="16" height="256">
  <data encoding="csv">
0,0,3713,3714,3715,3716,3717,3718,3719,3720,3115,3116,3113,3114,3339,3340,
0,0,3729,3730,3731,3732,3733,3734,3735,3736,3131,3132,3129,3130,3355,3356,
0,0,0,0,0,0,0,0,0,0,0,0,0,0,3117,3118,
0,0,0,0,0,0,0,0,0,0,0,0,0,0,3133,3134,
0,0,0,0,0,0,0,0,0,0,0,0,0,0,0,0,
0,0,0,0,0,0,0,0,0,0,0,0,0,0,0,0,
3361,3362,3363,3364,3365,3366,0,0,0,0,0,0,1025,1026,1027,1028,
3377,3378,3379,3380,3381,3382,0,0,0,0,0,0,1041,1042,1043,1044,
0,0,0,0,0,0,0,0,0,0,0,0,0,0,0,0,
0,0,0,0,0,0,0,0,0,0,0,0,0,0,0,0,
0,0,0,0,0,0,0,0,0,0,0,0,0,0,0,0,
0,0,0,0,0,0,0,0,0,0,0,0,0,0,0,0,
3361,3362,3363,3364,3365,3366,3361,3362,3363,3364,3365,3366,1669,1670,0,0,
3377,3378,3379,3380,3381,3382,3377,3378,3379,3380,3381,3382,1685,1686,0,0,
4225,4226,4227,4228,4229,4230,4231,4232,0,0,0,0,1701,1702,0,0,
4241,4242,4243,4244,4245,4246,4247,4248,0,0,0,0,1717,1718,0,0,
4257,4258,4259,4260,4261,4262,4263,4264,0,0,0,0,0,0,0,0,
4273,4274,4275,4276,4277,4278,4279,4280,0,0,0,0,0,0,0,0,
4289,4290,4291,4292,4293,4294,4295,4296,0,0,0,0,3175,3176,3175,3176,
4305,4306,4307,4308,4309,4310,4311,4312,0,0,0,0,3191,3192,3191,3192,
4321,4322,4323,4324,4325,4326,4327,4328,0,0,0,0,0,0,0,0,
4337,4338,4339,4340,4341,4342,4343,4344,0,0,0,0,0,0,0,0,
4225,4226,4227,4228,4229,4230,4231,4232,0,0,0,0,0,0,0,0,
4241,4242,4243,4244,4245,4246,4247,4248,0,0,0,0,0,0,0,0,
4257,4258,4259,4260,4261,4262,4263,4264,0,0,0,0,0,0,3088,3085,
4273,4274,4275,4276,4277,4278,4279,4280,0,0,0,0,0,0,3104,3101,
4289,4290,4291,4292,4293,4294,4295,4296,0,0,0,0,0,0,0,0,
4305,4306,4307,4308,4309,4310,4311,4312,0,0,0,0,0,0,0,0,
4321,4322,4323,4324,4325,4326,4327,4328,0,0,0,0,0,0,0,0,
4337,4338,4339,4340,4341,4342,4343,4344,0,0,0,0,0,0,0,0,
0,0,0,0,0,0,0,0,0,0,0,0,2145,2146,2145,2146,
0,0,0,0,0,0,0,0,0,0,0,0,2161,2162,2161,2162,
0,0,0,0,0,0,0,0,0,0,0,0,0,0,0,0,
0,0,0,0,0,0,0,0,0,0,0,0,0,0,0,0,
0,0,0,0,0,0,0,0,3053,3054,3055,3056,0,0,0,0,
0,0,0,0,0,0,0,0,3069,3070,3071,3072,0,0,0,0,
0,0,0,0,0,0,0,0,3085,3086,3087,3088,3085,3086,3087,3088,
0,0,0,0,0,0,0,0,3101,3102,3103,3104,3101,3102,3103,3104,
0,0,0,0,0,0,0,0,0,0,0,0,0,0,0,0,
0,0,0,0,0,0,0,0,0,0,0,0,0,0,0,0,
0,0,0,0,0,0,0,0,0,0,0,0,0,0,0,0,
0,0,0,0,0,0,0,0,0,0,0,0,0,0,0,0,
0,0,0,0,0,0,0,0,0,0,0,0,0,0,0,0,
0,0,0,0,0,0,0,0,0,0,0,0,0,0,0,0,
0,0,0,0,0,0,0,0,0,0,0,0,0,0,0,0,
0,0,0,0,0,0,0,0,0,0,0,0,0,0,0,0,
0,0,0,0,0,0,0,0,0,0,0,0,0,0,0,0,
0,0,0,0,0,0,0,0,0,0,0,0,0,0,0,0,
0,0,0,0,0,0,0,0,0,0,0,0,0,0,0,0,
0,0,0,0,0,0,0,0,0,0,0,0,0,0,0,0,
0,0,0,0,0,0,0,0,3087,3088,3085,3086,3115,3116,3115,3116,
0,0,0,0,0,0,0,0,3103,3104,3101,3102,3131,3132,3131,3132,
0,0,0,0,0,0,0,0,3175,3176,3175,3176,1219,1220,1219,1220,
0,0,0,0,0,0,0,0,3191,3192,3191,3192,1235,1236,1235,1236,
0,0,0,0,0,0,0,0,0,0,0,0,3115,3116,3115,3116,
0,0,0,0,0,0,0,0,0,0,0,0,3131,3132,3131,3132,
0,0,0,0,0,0,0,0,3087,3088,3085,3086,2945,2946,0,0,
0,0,0,0,0,0,0,0,3103,3104,3101,3102,2961,2962,0,0,
0,0,0,0,0,0,0,0,0,0,3175,3176,0,0,1637,1638,
0,0,0,0,0,0,0,0,0,0,3191,3192,0,0,1653,1654,
1155,1156,3115,3116,0,0,0,0,0,0,3175,3176,1029,1030,0,0,
1171,1172,3131,3132,0,0,0,0,0,0,3191,3192,1045,1046,0,0,
4737,4738,4741,4742,0,0,0,0,0,0,1737,1738,4705,4706,1029,1030,
4753,4754,4757,4758,0,0,0,0,0,0,1753,1754,4721,4722,1045,1046,
0,0,0,0,0,0,0,0,0,0,1735,1736,0,0,0,0,
0,0,0,0,0,0,0,0,0,0,1751,1752,0,0,0,0,
0,0,0,0,0,0,0,0,0,0,0,0,0,0,0,0,
0,0,0,0,0,0,0,0,0,0,0,0,0,0,0,0,
0,0,0,0,0,0,0,0,0,0,0,0,0,0,0,0,
0,0,0,0,0,0,0,0,0,0,0,0,0,0,0,0,
0,0,0,0,0,0,0,0,0,0,0,0,0,0,0,0,
0,0,0,0,0,0,0,0,0,0,0,0,0,0,0,0,
0,0,0,0,0,0,0,0,0,0,0,0,0,0,0,0,
0,0,0,0,0,0,0,0,0,0,0,0,0,0,0,0,
0,0,0,0,0,0,4739,4740,3367,3368,3369,3370,0,0,0,0,
0,0,0,0,0,0,1811,1812,3383,3384,3385,3386,0,0,0,0,
0,0,0,0,0,0,4739,4740,0,0,4709,4710,4739,4740,3115,3116,
0,0,0,0,0,0,1811,1812,0,0,4725,4726,1811,1812,3131,3132,
0,0,0,0,0,0,1229,1230,1229,1230,1165,1166,1165,1166,1165,1166,
0,0,0,0,0,0,1245,1246,1245,1246,1739,1740,1741,1742,1743,1744,
1153,1154,1155,1156,1157,1158,1159,1160,1161,1162,1163,1164,1165,1166,1167,1168,
1169,1170,1171,1172,1173,1174,1175,1176,1177,1178,1179,1180,1181,1182,1183,1184,
1185,1186,1187,1188,1189,1190,1191,1192,1193,1194,1195,1196,1197,1198,1199,1200,
1201,1202,1203,1204,1205,1206,1207,1208,1209,1210,1211,1212,1213,1214,1215,1216,
1217,1218,1219,1220,1221,1222,1223,1224,1225,1226,1227,1228,1229,1230,1231,1232,
1233,1234,1235,1236,1237,1238,1239,1240,1241,1242,1243,1244,1245,1246,1247,1248,
1249,1250,1251,1252,1253,1254,1255,1256,1257,1258,1259,1260,1261,1262,1263,1264,
1265,1266,1267,1268,1269,1270,1271,1272,1273,1274,1275,1276,1277,1278,1279,1280,
1163,1164,1167,1168,1383,1384,1287,1288,1289,1290,1291,1292,1293,1294,1295,1296,
1179,1180,1183,1184,1399,1400,1303,1304,1305,1306,1307,1308,1309,1310,1311,1312,
1227,1228,1231,1232,0,0,1319,1320,1321,1322,1323,1324,1325,1326,1327,1328,
1243,1244,1247,1248,0,0,1335,1336,1337,1338,1339,1340,1341,1342,1343,1344,
1153,1154,1157,1158,1391,1392,1351,1352,1353,1354,1355,1356,1357,1358,1359,1360,
1169,1170,1173,1174,1407,1408,1367,1368,1369,1370,1371,1372,1373,1374,1375,1376,
1217,1218,1221,1222,1423,1424,1383,1384,1385,1386,1387,1388,1389,1390,1391,1392,
1233,1234,1237,1238,1439,1440,1399,1400,1401,1402,1403,1404,1405,1406,1407,1408,
0,0,0,0,1291,1292,0,0,1417,1418,1419,1420,1421,1422,1423,1424,
0,0,0,0,1307,1308,0,0,1433,1434,1435,1436,1437,1438,1439,1440,
1665,1666,1665,1666,1323,1324,1447,1448,1449,1450,0,0,1453,1454,1455,1456,
1681,1682,1681,1682,1339,1340,1463,1464,1465,1466,0,0,1469,1470,1471,1472,
0,0,0,0,0,0,0,0,1481,1482,0,0,1485,1486,1487,1488,
0,0,0,0,0,0,0,0,1497,1498,0,0,1501,1502,0,0,
0,0,0,0,0,0,0,0,1513,1514,1515,1516,1517,1518,0,0,
0,0,0,0,0,0,0,0,1529,1530,1531,1532,1533,1534,1535,1536,
0,0,0,0,0,0,0,0,1545,1546,1547,1548,1549,1550,1551,1552,
0,0,0,0,0,0,0,0,1561,1562,1563,1564,1565,1566,1567,1568,
0,0,0,0,0,0,0,0,1577,1578,1579,1580,1581,1582,1583,1584,
0,0,0,0,0,0,0,0,1593,1594,1595,1596,1597,1598,1599,1600,
2049,2050,2051,2052,2053,2054,0,0,1609,1610,1611,1612,1613,1614,1615,1616,
2065,2066,2067,2068,2069,2070,0,0,1625,1626,1627,1628,1629,1630,1631,1632,
2081,2082,2083,2084,2085,2086,0,0,1641,1642,1643,1644,1645,1646,1647,1648,
2097,2098,2099,2100,2101,2102,0,0,1657,1658,1659,1660,1661,1662,1663,1664,
4673,4674,4675,4676,4677,4678,4679,4680,4681,4682,4673,4674,4675,4676,4677,4678,
4689,4690,4691,4692,4693,4694,4695,4696,4697,4698,4689,4690,4691,4692,4693,4694,
4705,4706,4707,4708,4709,4710,4711,4712,4713,4714,4705,4706,4707,4708,4709,4710,
4721,4722,4723,4724,4725,4726,4727,4728,4729,4730,4721,4722,4723,4724,4725,4726,
4737,4738,4739,4740,4741,4742,0,0,0,0,4737,4738,4739,4740,4741,4742,
1809,1810,1811,1812,1813,1814,0,0,0,0,1819,1820,1821,1822,1823,1824,
4679,4680,4681,4682,1829,1830,1831,1832,1833,1834,1835,1836,1837,1838,4683,4684,
4695,4696,4697,4698,1845,1846,1847,1848,1849,1850,1851,1852,1853,1854,4699,4700,
4711,4712,4713,4714,1861,1862,1863,1864,1865,1866,1867,1868,1869,1870,4715,4716,
4727,4728,4729,4730,1877,1878,1879,1880,1881,1882,1883,1884,1885,1886,4731,4732,
1889,1890,1891,1892,1893,1894,1895,1896,1897,1898,1899,1900,1901,1902,0,0,
1905,1906,1907,1908,1909,1910,1911,1912,1913,1914,1915,1916,1917,1918,0,0,
4743,4744,4743,4744,421,422,423,424,425,426,427,428,429,430,431,432,
4759,4760,4759,4760,0,0,0,0,0,0,0,0,0,0,447,448,
4745,4746,4745,4746,0,0,0,0,0,0,0,0,0,0,463,464,
4761,4762,4761,4762,469,470,471,472,473,474,475,476,477,478,479,480,
481,482,483,484,485,486,487,488,489,490,491,492,493,494,495,496,
497,498,499,500,501,502,503,504,505,506,507,508,509,510,511,512,
513,514,515,516,517,518,519,520,521,522,523,524,525,526,527,528,
529,530,531,532,533,534,535,536,537,538,539,540,541,542,543,544,
545,546,547,548,549,550,551,552,553,554,555,556,557,558,559,560,
561,562,563,564,565,566,567,568,569,570,571,572,573,574,575,576,
0,0,0,0,0,0,0,0,0,0,237,238,239,240,0,0,
0,0,0,0,0,0,0,0,0,0,253,254,255,256,31,32,
209,210,211,212,213,214,215,216,217,218,269,270,271,272,47,48,
209,210,211,212,213,214,215,216,217,218,285,286,287,288,63,64,
225,226,227,228,229,230,231,232,233,234,301,302,303,304,0,0,
241,242,243,244,245,246,247,248,249,250,317,318,319,320,0,0,
257,258,259,260,261,262,263,264,265,266,171,172,173,174,175,176,
273,274,275,276,277,278,279,280,281,282,187,188,189,190,191,192,
289,290,291,292,293,294,295,296,297,298,203,204,205,206,207,208,
305,306,307,308,309,310,311,312,313,314,219,220,221,222,223,224,
321,322,323,324,325,326,327,328,329,330,0,0,4359,4360,4361,4362,
337,338,339,340,341,342,343,344,345,346,19,20,4375,4376,4377,4378,
0,0,0,0,0,0,0,0,0,0,35,36,4391,4392,4393,4394,
0,0,0,0,0,0,0,0,0,0,51,52,4407,4408,4409,4410,
641,642,643,644,645,646,4353,4354,4355,4356,4357,4358,4423,4424,4425,4426,
657,658,659,660,661,662,4369,4370,4371,4372,4373,4374,4439,4440,4441,4442,
673,674,675,676,677,678,4385,4386,4387,4388,4389,4390,0,0,0,0,
689,690,691,692,693,694,4401,4402,4403,4404,4405,4406,0,0,0,0,
705,706,707,708,709,710,4417,4418,4419,4420,4421,4422,0,0,0,0,
721,722,723,724,725,726,4433,4434,4435,4436,4437,4438,0,0,0,0,
737,738,739,740,741,742,1153,1154,1157,1158,0,0,0,0,0,0,
753,754,755,756,757,758,1169,1170,1173,1174,0,0,0,0,0,0,
769,770,771,772,773,774,1217,1218,1221,1222,0,0,0,0,0,0,
785,786,787,788,789,790,1233,1234,1237,1238,0,0,0,0,0,0,
801,802,803,804,805,806,3085,3086,3087,3088,2145,2146,0,0,0,0,
817,818,819,820,821,822,3101,3102,3103,3104,2161,2162,0,0,0,0,
0,0,0,0,0,0,0,0,0,0,0,0,2541,2542,2543,2544,
0,0,0,0,0,0,0,0,0,0,0,0,2557,2558,2559,2560,
0,0,0,0,0,0,0,0,0,0,0,0,0,0,2575,2576,
0,0,0,0,0,0,0,0,0,0,0,0,0,0,2591,2592,
0,0,0,0,0,0,0,0,0,0,0,0,2605,2606,2607,2608,
0,0,0,0,0,0,0,0,0,0,0,0,2621,2622,2623,2624,
2625,2626,2627,2628,0,0,0,0,2633,2634,0,0,2637,2638,2639,2640,
2641,2642,2643,2644,0,0,0,0,2649,2650,0,0,2653,2654,2655,2656,
2657,2658,2659,2660,0,0,0,0,2665,2666,0,0,2669,2670,2671,2672,
2673,2674,2675,2676,0,0,0,0,2681,2682,0,0,2685,2686,2687,2688,
2689,2690,2691,2692,0,0,0,0,2697,2698,2699,2700,2701,2702,2703,2704,
2705,2706,2707,2708,0,0,0,0,2713,2714,2715,2716,2717,2718,2719,2720,
2721,2722,2723,2724,0,0,4552,4553,4554,4555,4556,4557,2733,2734,2735,2736,
2737,2738,2739,2740,0,0,4568,4569,4570,4571,4572,4573,2749,2750,2751,2752,
2753,2754,2755,2756,0,0,4584,4585,4586,4587,4588,4589,2765,2766,2767,2768,
2769,2770,2771,2772,0,0,4600,4601,4602,4603,4604,4605,2781,2782,2783,2784,
2785,2786,2787,2788,0,0,4616,4617,4618,4619,4620,4621,2797,2798,2799,2800,
2801,2802,2803,2804,0,0,4632,4633,4634,4635,4636,4637,2813,2814,2815,2816,
0,0,0,0,0,0,4648,4649,4650,4651,4652,4653,1155,1156,1155,1156,
0,0,0,0,0,0,4664,4665,4666,4667,4668,4669,1171,1172,1171,1172,
0,0,0,0,0,0,0,0,0,0,0,0,3053,3054,3055,3056,
0,0,0,0,0,0,0,0,0,0,0,0,3069,3070,3071,3072,
0,0,0,0,0,0,0,0,0,0,0,0,0,0,0,0,
0,0,0,0,0,0,0,0,0,0,0,0,0,0,0,0,
0,0,0,0,0,0,0,0,0,0,0,0,0,0,0,0,
0,0,0,0,0,0,0,0,0,0,0,0,0,0,0,0,
0,0,0,0,0,0,0,0,0,0,0,0,0,0,0,0,
0,0,0,0,0,0,0,0,0,0,0,0,0,0,0,0,
0,0,0,0,0,0,0,0,0,0,0,0,0,0,0,0,
0,0,0,0,0,0,0,0,0,0,0,0,0,0,0,0,
0,0,0,0,0,0,0,0,0,0,0,0,0,0,0,0,
0,0,0,0,0,0,0,0,0,0,0,0,0,0,0,0,
0,0,0,0,0,0,0,0,0,0,0,0,0,0,0,0,
0,0,0,0,0,0,0,0,0,0,0,0,0,0,0,0,
897,0,0,0,0,0,0,0,0,0,0,902,0,0,0,0,
0,0,0,0,0,0,0,0,0,0,0,0,0,0,0,0,
0,0,0,0,0,0,0,0,0,0,0,0,0,0,0,0,
0,0,0,0,0,0,0,0,0,0,0,0,0,0,0,0,
0,0,0,0,0,0,0,0,0,0,0,0,0,0,0,0,
0,0,0,0,0,0,0,0,0,0,0,0,0,0,0,0,
0,0,0,0,0,0,0,0,0,0,0,0,0,0,0,0,
0,0,0,0,0,0,0,0,0,0,0,0,0,0,0,0,
0,0,0,0,0,0,0,0,0,0,0,0,0,0,0,0,
0,0,0,0,0,0,0,0,0,0,0,0,0,0,0,0,
0,0,0,0,0,0,0,0,0,0,0,0,0,0,0,0,
0,0,0,0,0,0,0,0,0,0,0,0,0,0,0,0,
0,0,0,0,0,0,0,0,0,0,0,0,0,0,0,0,
0,0,0,0,0,0,0,0,0,0,0,0,0,0,0,0,
0,0,0,0,0,0,593,594,595,596,597,598,0,0,0,0,
0,0,0,0,0,0,609,610,611,612,613,614,0,0,0,0,
1155,1156,1155,1156,1155,1156,0,0,0,0,0,0,0,0,0,0,
1171,1172,1171,1172,1171,1172,0,0,0,0,0,0,0,0,0,0,
0,0,0,0,0,0,0,0,0,0,0,0,0,0,0,0,
0,0,0,0,0,0,0,0,0,0,0,0,0,0,0,0,
0,0,0,0,0,0,0,0,0,0,0,0,0,0,0,0,
0,0,0,0,0,0,0,0,0,0,0,0,0,0,0,0,
0,0,0,0,0,0,0,0,0,0,0,0,0,0,0,0,
0,0,0,0,0,0,0,0,0,0,0,0,0,0,0,0,
0,0,0,0,0,0,0,0,0,0,0,0,0,0,0,0,
0,0,0,0,0,0,0,0,0,0,0,0,0,0,0,0,
0,0,0,0,0,0,0,0,0,0,0,0,0,0,0,0,
0,0,0,0,0,0,0,0,0,0,0,0,0,0,0,0,
0,0,0,0,0,0,0,0,0,0,0,0,0,0,0,0,
0,0,0,0,0,0,0,0,0,0,0,0,0,0,0,0,
0,0,0,0,0,0,0,0,0,0,0,0,0,0,0,0,
0,0,0,0,0,0,0,0,0,0,0,0,0,0,0,0,
0,0,0,0,0,0,0,0,0,0,0,0,0,0,0,0,
0,0,0,0,0,0,0,0,0,0,0,0,0,0,0,0,
0,0,0,0,0,0,0,0,0,0,0,0,0,0,0,0,
0,0,0,0,0,0,0,0,0,0,0,0,0,0,0,0,
0,0,0,0,0,0,0,0,0,0,0,0,0,0,0,0,
0,0,0,0,0,0,0,0,0,0,0,0,0,0,0,0,
0,0,0,0,0,0,0,0,0,0,0,0,0,0,0,0,
0,0,0,0,0,0,0,0,0,0,0,0,0,0,0,0,
0,0,0,0,0,0,0,0,0,0,0,0,0,0,0,0,
0,0,0,0,0,0,0,0,0,0,0,0,0,0,0,0,
0,0,0,0,0,0,0,0,0,0,0,0,0,0,0,0,
0,0,0,0,0,0,0,0,0,0,0,0,0,0,0,0,
0,0,0,0,0,0,0,0,0,0,0,0,0,0,0,0,
0,0,0,0,0,0,0,0,0,0,0,0,0,0,0,0,
0,0,0,0,0,0,0,0,0,0,0,0,0,0,0,0,
0,0,0,0,0,0,0,0,0,0,0,0,0,0,0,0,
0,0,0,0,0,0,0,0,0,0,0,0,0,0,0,0,
0,0,0,0,0,0,0,0,0,0,0,0,0,0,0,0,
0,0,0,0,0,0,0,0,0,0,0,0,0,0,0,0,
0,0,0,0,0,0,0,0,0,0,0,0,0,0,0,0,
0,0,0,0,0,0,0,0,0,0,0,0,0,0,0,0,
0,0,0,0,0,0,0,0,0,0,0,0,0,0,0,0,
0,0,0,0,0,0,0,0,0,0,0,0,0,0,0,0,
0,0,0,0,0,0,0,0,0,0,0,0,0,0,0,0,
0,0,0,0,0,0,0,0,0,0,0,0,0,0,0,0,
0,0,0,0,0,0,0,0,0,0,0,0,0,0,0,0,
0,0,0,0,0,0,0,0,0,0,0,0,0,0,0,0,
0,0,0,0,0,0,0,0,0,0,0,0,0,0,0,0,
0,0,0,0,0,0,0,0,0,0,0,0,0,0,0,0,
0,0,0,0,0,0,0,0,0,0,0,0,0,0,0,0
</data>
 </layer>
 <layer id="3" name="top" width="16" height="256">
  <data encoding="csv">
0,0,0,0,0,0,0,0,0,0,0,0,0,0,0,0,
0,0,0,0,0,0,0,0,0,0,0,0,0,0,0,0,
961,962,963,964,965,966,0,0,0,0,0,0,0,0,0,0,
977,978,979,980,981,982,0,0,0,0,0,0,0,0,0,0,
993,994,995,996,997,998,0,0,0,0,0,0,0,0,0,0,
1009,1010,1011,1012,1013,1014,0,0,0,0,0,0,0,0,0,0,
0,0,0,0,0,0,0,0,0,0,0,0,0,0,0,0,
0,0,0,0,0,0,0,0,0,0,0,0,0,0,0,0,
3297,3298,3299,3300,3301,3302,897,898,899,900,901,902,0,0,0,0,
3313,3314,3315,3316,3317,3318,913,914,915,916,917,918,0,0,0,0,
3329,3330,3331,3332,3333,3334,929,930,931,932,933,934,0,0,0,0,
3345,3346,3347,3348,3349,3350,945,946,947,948,949,950,0,0,0,0,
0,0,0,0,0,0,0,0,0,0,0,0,0,0,0,0,
0,0,0,0,0,0,0,0,0,0,0,0,0,0,0,0,
0,0,0,0,0,0,0,0,0,0,0,0,0,0,0,0,
0,0,0,0,0,0,0,0,0,0,0,0,0,0,0,0,
0,0,0,0,0,0,0,0,0,0,0,0,3143,3144,0,0,
0,0,0,0,0,0,0,0,0,0,0,0,3159,3160,0,0,
0,0,0,0,0,0,0,0,0,0,0,0,0,0,3143,3144,
0,0,0,0,0,0,0,0,0,0,0,0,0,0,3159,3160,
0,0,0,0,0,0,0,0,0,0,0,0,0,0,0,0,
0,0,0,0,0,0,0,0,0,0,0,0,0,0,0,0,
0,0,0,0,0,0,0,0,0,0,0,0,0,0,0,0,
0,0,0,0,0,0,0,0,0,0,0,0,0,0,0,0,
0,0,0,0,0,0,0,0,0,0,0,0,0,0,3143,3144,
0,0,0,0,0,0,0,0,0,0,0,0,0,0,3159,3160,
0,0,0,0,0,0,0,0,0,0,0,0,0,0,0,0,
0,0,0,0,0,0,0,0,0,0,0,0,0,0,0,0,
0,0,0,0,0,0,0,0,0,0,0,0,2113,2114,0,0,
0,0,0,0,0,0,0,0,0,0,0,0,2129,2130,0,0,
0,0,0,0,0,0,0,0,0,0,0,0,0,0,2113,2114,
0,0,0,0,0,0,0,0,0,0,0,0,0,0,2129,2130,
0,0,0,0,0,0,0,0,3021,3022,3023,3024,0,0,0,0,
0,0,0,0,0,0,0,0,3037,3038,3039,3040,0,0,0,0,
0,0,0,0,0,0,0,0,0,0,0,0,0,0,0,0,
0,0,0,0,0,0,0,0,0,0,0,0,0,0,0,0,
0,0,0,0,0,0,0,0,0,0,0,0,3021,3022,3023,3024,
0,0,0,0,0,0,0,0,0,0,0,0,3037,3038,3039,3040,
0,0,0,0,0,0,0,0,0,0,0,0,0,0,0,0,
0,0,0,0,0,0,0,0,0,0,0,0,0,0,0,0,
0,0,0,0,0,0,0,0,0,0,0,0,0,0,0,0,
0,0,0,0,0,0,0,0,0,0,0,0,0,0,0,0,
0,0,0,0,0,0,0,0,0,0,0,0,0,0,0,0,
0,0,0,0,0,0,0,0,0,0,0,0,0,0,0,0,
0,0,0,0,0,0,0,0,0,0,0,0,0,0,0,0,
0,0,0,0,0,0,0,0,0,0,0,0,0,0,0,0,
0,0,0,0,0,0,0,0,0,0,0,0,0,0,0,0,
0,0,0,0,0,0,0,0,0,0,0,0,0,0,0,0,
0,0,0,0,0,0,0,0,0,0,0,0,0,0,0,0,
0,0,0,0,0,0,0,0,0,0,0,0,0,0,0,0,
0,0,0,0,0,0,0,0,3021,3022,3023,3024,0,0,0,0,
0,0,0,0,0,0,0,0,3037,3038,3039,3040,0,0,0,0,
0,0,0,0,0,0,0,0,3021,3022,3023,3024,3021,3022,3023,3024,
0,0,0,0,0,0,0,0,3037,3038,3039,3040,3037,3038,3039,3040,
0,0,0,0,0,0,0,0,0,0,0,0,3021,3022,3023,3024,
0,0,0,0,0,0,0,0,0,0,0,0,3037,3038,3039,3040,
0,0,0,0,0,0,0,0,3143,3144,3143,3144,0,0,0,0,
0,0,0,0,0,0,0,0,3159,3160,3159,3160,0,0,0,0,
0,0,0,0,0,0,0,0,0,0,3143,3144,0,0,0,0,
0,0,0,0,0,0,0,0,0,0,3159,3160,0,0,0,0,
3143,3144,0,0,0,0,0,0,0,0,0,0,0,0,0,0,
3159,3160,0,0,0,0,0,0,0,0,0,0,0,0,0,0,
3143,3144,3143,3144,0,0,0,0,0,0,3143,3144,3143,3144,0,0,
3159,3160,3159,3160,0,0,0,0,0,0,3159,3160,3159,3160,0,0,
0,0,0,0,0,0,0,0,0,0,3143,3144,0,0,0,0,
0,0,0,0,0,0,0,0,0,0,3159,3160,0,0,0,0,
0,0,0,0,0,0,0,0,0,0,0,0,0,0,0,0,
0,0,0,0,0,0,0,0,0,0,0,0,0,0,0,0,
0,0,0,0,0,0,0,0,0,0,0,0,0,0,0,0,
0,0,0,0,0,0,0,0,0,0,0,0,0,0,0,0,
0,0,0,0,0,0,0,0,0,0,0,0,0,0,0,0,
0,0,0,0,0,0,0,0,0,0,0,0,0,0,0,0,
0,0,0,0,0,0,0,0,0,0,0,0,0,0,0,0,
0,0,0,0,0,0,0,0,0,0,0,0,0,0,0,0,
0,0,0,0,0,0,2113,2114,0,0,0,0,0,0,0,0,
0,0,0,0,0,0,2129,2130,0,0,0,0,0,0,0,0,
0,0,0,0,0,0,3115,3116,3143,3144,3143,3144,3143,3144,3143,3144,
0,0,0,0,0,0,3131,3132,3159,3160,3159,3160,3159,3160,3159,3160,
0,0,0,0,0,0,3021,3022,3023,3024,0,0,0,0,0,0,
0,0,0,0,0,0,3037,3038,3039,3040,0,0,0,0,0,0,
0,0,0,0,0,0,0,0,0,0,0,0,0,0,0,0,
0,0,0,0,0,0,0,0,0,0,0,0,0,0,0,0,
0,0,0,0,0,0,0,0,0,0,0,0,0,0,0,0,
0,0,0,0,0,0,0,0,0,0,0,0,0,0,0,0,
0,0,0,0,0,0,0,0,0,0,0,0,0,0,0,0,
0,0,0,0,0,0,0,0,0,0,0,0,0,0,0,0,
0,0,0,0,0,0,0,0,0,0,0,0,0,0,0,0,
0,0,0,0,0,0,0,0,0,0,0,0,0,0,0,0,
0,0,0,0,0,0,0,0,0,0,0,0,0,0,0,0,
0,0,0,0,0,0,0,0,0,0,0,0,0,0,0,0,
0,0,0,0,0,0,0,0,0,0,0,0,0,0,0,0,
0,0,0,0,0,0,0,0,0,0,0,0,0,0,0,0,
0,0,0,0,0,0,0,0,0,0,0,0,0,0,0,0,
0,0,0,0,0,0,0,0,0,0,0,0,0,0,0,0,
0,0,0,0,0,0,0,0,0,0,0,0,0,0,0,0,
0,0,0,0,0,0,0,0,0,0,0,0,0,0,0,0,
0,0,0,0,0,0,0,0,0,0,0,0,0,0,0,0,
0,0,0,0,0,0,0,0,0,0,0,0,0,0,0,0,
0,0,0,0,0,0,0,0,0,0,0,0,0,0,0,0,
0,0,0,0,0,0,0,0,0,0,0,0,0,0,0,0,
0,0,0,0,0,0,0,0,0,0,0,0,0,0,0,0,
0,0,0,0,0,0,0,0,0,0,0,0,0,0,0,0,
0,0,0,0,0,0,0,0,0,0,0,0,0,0,0,0,
0,0,0,0,0,0,0,0,0,0,0,0,0,0,0,0,
2055,2056,2057,2058,2059,2060,0,0,0,0,0,0,0,0,0,0,
2071,2072,2073,2074,2075,2076,0,0,0,0,0,0,0,0,0,0,
2087,2088,2089,2090,2091,2092,0,0,0,0,0,0,0,0,0,0,
2103,2104,2105,2106,2107,2108,0,0,0,0,0,0,0,0,0,0,
2119,2120,2121,2122,2123,2124,0,0,0,0,0,0,0,0,0,0,
2135,2136,2137,2138,2139,2140,0,0,0,0,0,0,0,0,0,0,
2151,2152,2153,2154,2155,2156,0,0,0,0,0,0,0,0,0,0,
2167,2168,2169,2170,2171,2172,0,0,0,0,0,0,0,0,0,0,
0,0,0,0,0,0,0,0,0,0,0,0,0,0,0,0,
0,0,0,0,0,0,0,0,0,0,0,0,0,0,0,0,
0,0,0,0,0,0,0,0,0,0,0,0,0,0,0,0,
0,0,0,0,0,0,0,0,0,0,0,0,0,0,0,0,
0,0,0,0,0,0,0,0,0,0,0,0,0,0,0,0,
0,0,0,0,0,0,0,0,0,0,0,0,0,0,0,0,
0,0,0,0,0,0,0,0,0,0,0,0,0,0,0,0,
0,0,0,0,0,0,0,0,0,0,0,0,0,0,0,0,
0,0,0,0,0,0,0,0,0,0,0,0,0,0,0,0,
0,0,0,0,0,0,0,0,0,0,0,0,0,0,0,0,
0,0,0,0,0,0,0,0,0,0,0,0,0,0,0,0,
0,0,0,0,0,0,0,0,0,0,0,0,0,0,0,0,
0,0,0,0,0,0,0,0,0,0,0,0,0,0,0,0,
0,0,0,0,437,438,439,440,441,442,443,444,445,446,0,0,
0,0,0,0,453,454,455,456,457,458,459,460,461,462,0,0,
0,0,0,0,0,0,0,0,0,0,0,0,0,0,0,0,
0,0,0,0,0,0,0,0,0,0,0,0,0,0,0,0,
0,0,0,0,0,0,0,0,0,0,0,0,0,0,0,0,
0,0,0,0,0,0,0,0,0,0,0,0,0,0,0,0,
0,0,0,0,0,0,0,0,0,0,0,0,0,0,0,0,
0,0,0,0,0,0,0,0,0,0,0,0,0,0,0,0,
0,0,0,0,0,0,0,0,0,0,0,0,0,0,0,0,
0,0,0,0,0,0,0,0,0,0,0,0,0,0,0,0,
177,178,179,180,181,182,183,184,185,186,0,0,0,0,0,0,
193,194,195,196,197,198,199,200,201,202,0,0,0,0,0,0,
0,0,0,0,0,0,0,0,0,0,0,0,0,0,0,0,
0,0,0,0,0,0,0,0,0,0,0,0,0,0,0,0,
0,0,0,0,0,0,0,0,0,0,0,0,0,0,0,0,
0,0,0,0,0,0,0,0,0,0,0,0,0,0,0,0,
0,0,0,0,0,0,0,0,0,0,0,0,0,0,0,0,
0,0,0,0,0,0,0,0,0,0,0,0,0,0,0,0,
0,0,0,0,0,0,0,0,0,0,0,0,0,0,0,0,
0,0,0,0,0,0,0,0,0,0,0,0,0,0,0,0,
0,0,0,0,0,0,0,0,0,0,0,0,0,0,0,0,
0,0,0,0,0,0,0,0,0,0,0,0,0,0,0,0,
0,0,0,0,0,0,0,0,0,0,0,0,0,0,0,0,
0,0,0,0,0,0,0,0,0,0,0,0,0,0,0,0,
0,0,0,0,0,0,0,0,0,0,0,0,0,0,0,0,
0,0,0,0,0,0,0,0,0,0,0,0,0,0,0,0,
0,0,0,0,0,0,0,0,0,0,0,0,0,0,0,0,
0,0,0,0,0,0,0,0,0,0,0,0,0,0,0,0,
0,0,0,0,0,0,0,0,0,0,0,0,0,0,0,0,
0,0,0,0,0,0,0,0,0,0,0,0,0,0,0,0,
0,0,0,0,0,0,0,0,0,0,0,0,0,0,0,0,
0,0,0,0,0,0,0,0,0,0,0,0,0,0,0,0,
0,0,0,0,0,0,0,0,0,0,0,0,0,0,0,0,
0,0,0,0,0,0,2113,2114,2113,2114,3143,3144,0,0,0,0,
0,0,0,0,0,0,2129,2130,2129,2130,3159,3160,0,0,0,0,
0,0,0,0,0,0,0,0,0,0,0,0,0,0,0,0,
0,0,0,0,0,0,0,0,0,0,0,0,0,0,0,0,
0,0,0,0,0,0,0,0,0,0,0,0,0,0,0,0,
0,0,0,0,0,0,0,0,0,0,0,0,0,0,0,0,
0,0,0,0,0,0,0,0,0,0,0,0,0,0,0,0,
0,0,0,0,0,0,0,0,0,0,0,0,0,0,0,0,
0,0,0,0,0,0,0,0,0,0,0,0,0,0,0,0,
0,0,0,0,0,0,0,0,0,0,0,0,0,0,0,0,
0,0,0,0,0,0,0,0,0,0,0,0,0,0,0,0,
0,0,0,0,0,0,0,0,0,0,0,0,0,0,0,0,
0,0,0,0,0,0,0,0,0,0,0,0,0,0,0,0,
0,0,0,0,0,0,0,0,0,0,0,0,0,0,0,0,
0,0,0,0,0,0,0,0,0,0,0,0,0,0,0,0,
0,0,0,0,0,0,0,0,0,0,0,0,0,0,0,0,
0,0,0,0,0,0,0,0,0,0,0,0,0,0,0,0,
0,0,0,0,0,0,0,0,0,0,0,0,0,0,0,0,
0,0,0,0,0,0,0,0,0,0,0,0,0,0,0,0,
0,0,0,0,0,0,0,0,0,0,0,0,0,0,0,0,
0,0,0,0,0,0,0,0,0,0,0,0,3021,3022,3023,3024,
0,0,0,0,0,0,0,0,0,0,0,0,3037,3038,3039,3040,
897,898,899,900,901,902,0,0,0,0,0,0,0,0,0,0,
913,914,915,916,917,918,0,0,0,0,0,0,0,0,0,0,
961,962,963,964,965,966,0,0,0,0,0,0,0,0,0,0,
977,978,979,980,981,982,0,0,0,0,0,0,0,0,0,0,
0,0,0,0,0,0,0,0,0,0,0,0,0,0,0,0,
0,0,0,0,0,0,0,0,0,0,0,0,0,0,0,0,
0,0,0,0,0,0,0,0,0,0,0,0,0,0,0,0,
0,0,0,0,0,0,0,0,0,0,0,0,0,0,0,0,
0,0,0,0,0,0,0,0,0,0,0,0,0,0,0,0,
0,0,0,0,0,0,0,0,0,0,0,0,0,0,0,0,
0,0,0,0,0,0,0,0,0,0,0,0,0,0,0,0,
0,0,0,0,0,0,0,0,0,0,0,0,0,0,0,0,
0,0,0,0,0,0,0,0,0,0,0,0,0,0,0,0,
0,0,0,0,0,0,0,0,0,0,0,0,0,0,0,0,
897,898,899,900,901,902,897,898,899,900,901,902,0,0,0,0,
913,914,915,916,917,918,913,914,915,916,917,918,0,0,0,0,
0,0,0,0,0,0,0,0,0,0,0,0,0,0,0,0,
0,0,0,0,0,0,0,0,0,0,0,0,0,0,0,0,
0,0,0,0,0,0,0,0,0,0,0,0,0,0,0,0,
0,0,0,0,0,0,0,0,0,0,0,0,0,0,0,0,
961,962,963,964,965,966,961,962,963,964,965,966,0,0,0,0,
977,978,979,980,981,982,977,978,979,980,981,982,0,0,0,0,
0,0,0,0,0,0,0,0,0,0,0,0,0,0,0,0,
0,0,0,0,0,0,0,0,0,0,0,0,0,0,0,0,
0,0,0,0,0,0,0,0,0,0,0,0,0,0,0,0,
0,0,0,0,0,0,0,0,0,0,0,0,0,0,0,0,
0,0,0,0,0,0,0,0,0,0,0,0,0,0,0,0,
0,0,0,0,0,0,577,578,579,580,581,582,0,0,0,0,
0,0,0,0,0,0,0,0,0,0,0,0,0,0,0,0,
0,0,0,0,0,0,0,0,0,0,0,0,0,0,0,0,
3297,3298,3299,3300,3301,3302,0,0,0,0,0,0,0,0,0,0,
3313,3314,3315,3316,3317,3318,0,0,0,0,0,0,0,0,0,0,
0,0,0,0,0,0,0,0,0,0,0,0,0,0,0,0,
0,0,0,0,0,0,0,0,0,0,0,0,0,0,0,0,
0,0,0,0,0,0,0,0,0,0,0,0,0,0,0,0,
0,0,0,0,0,0,0,0,0,0,0,0,0,0,0,0,
0,0,0,0,0,0,0,0,0,0,0,0,0,0,0,0,
0,0,0,0,0,0,0,0,0,0,0,0,0,0,0,0,
0,0,0,0,0,0,0,0,0,0,0,0,0,0,0,0,
0,0,0,0,0,0,0,0,0,0,0,0,0,0,0,0,
0,0,0,0,0,0,0,0,0,0,0,0,0,0,0,0,
0,0,0,0,0,0,0,0,0,0,0,0,0,0,0,0,
0,0,0,0,0,0,0,0,0,0,0,0,0,0,0,0,
0,0,0,0,0,0,0,0,0,0,0,0,0,0,0,0,
0,0,0,0,0,0,0,0,0,0,0,0,0,0,0,0,
0,0,0,0,0,0,0,0,0,0,0,0,0,0,0,0,
0,0,0,0,0,0,0,0,0,0,0,0,0,0,0,0,
0,0,0,0,0,0,0,0,0,0,0,0,0,0,0,0,
0,0,0,0,0,0,0,0,0,0,0,0,0,0,0,0,
0,0,0,0,0,0,0,0,0,0,0,0,0,0,0,0,
0,0,0,0,0,0,0,0,0,0,0,0,0,0,0,0,
0,0,0,0,0,0,0,0,0,0,0,0,0,0,0,0,
0,0,0,0,0,0,0,0,0,0,0,0,0,0,0,0,
0,0,0,0,0,0,0,0,0,0,0,0,0,0,0,0,
0,0,0,0,0,0,0,0,0,0,0,0,0,0,0,0,
0,0,0,0,0,0,0,0,0,0,0,0,0,0,0,0,
0,0,0,0,0,0,0,0,0,0,0,0,0,0,0,0,
0,0,0,0,0,0,0,0,0,0,0,0,0,0,0,0,
0,0,0,0,0,0,0,0,0,0,0,0,0,0,0,0,
0,0,0,0,0,0,0,0,0,0,0,0,0,0,0,0,
0,0,0,0,0,0,0,0,0,0,0,0,0,0,0,0,
0,0,0,0,0,0,0,0,0,0,0,0,0,0,0,0,
0,0,0,0,0,0,0,0,0,0,0,0,0,0,0,0,
0,0,0,0,0,0,0,0,0,0,0,0,0,0,0,0,
0,0,0,0,0,0,0,0,0,0,0,0,0,0,0,0,
0,0,0,0,0,0,0,0,0,0,0,0,0,0,0,0,
0,0,0,0,0,0,0,0,0,0,0,0,0,0,0,0,
0,0,0,0,0,0,0,0,0,0,0,0,0,0,0,0,
0,0,0,0,0,0,0,0,0,0,0,0,0,0,0,0,
0,0,0,0,0,0,0,0,0,0,0,0,0,0,0,0,
0,0,0,0,0,0,0,0,0,0,0,0,0,0,0,0,
0,0,0,0,0,0,0,0,0,0,0,0,0,0,0,0,
0,0,0,0,0,0,0,0,0,0,0,0,0,0,0,0,
0,0,0,0,0,0,0,0,0,0,0,0,0,0,0,0,
0,0,0,0,0,0,0,0,0,0,0,0,0,0,0,0,
0,0,0,0,0,0,0,0,0,0,0,0,0,0,0,0
</data>
 </layer>
</map>
