<?xml version="1.0" encoding="UTF-8"?>
<map version="1.10" tiledversion="1.11.0" orientation="orthogonal" renderorder="right-down" width="16" height="256" tilewidth="8" tileheight="8" infinite="0" nextlayerid="4" nextobjectid="1">
 <tileset firstgid="1" name="M2" tilewidth="8" tileheight="8" tilecount="416" columns="16">
  <image source="tiles/M2.png" trans="ffffff" width="128" height="208"/>
 </tileset>
 <tileset firstgid="417" name="M3" tilewidth="8" tileheight="8" tilecount="480" columns="16">
  <image source="tiles/M3.png" trans="ffffff" width="128" height="240"/>
 </tileset>
 <tileset firstgid="897" name="M4" tilewidth="8" tileheight="8" tilecount="256" columns="16">
  <image source="tiles/M4.png" trans="ffffff" width="128" height="128"/>
 </tileset>
 <tileset firstgid="1153" name="M7" tilewidth="8" tileheight="8" tilecount="896" columns="16">
  <image source="tiles/M7.png" trans="ffffff" width="128" height="448"/>
 </tileset>
 <tileset firstgid="2049" name="M8" tilewidth="8" tileheight="8" tilecount="480" columns="16">
  <image source="tiles/M8.png" trans="ffffff" width="128" height="240"/>
 </tileset>
 <tileset firstgid="2529" name="M9" tilewidth="8" tileheight="8" tilecount="416" columns="16">
  <image source="tiles/M9.png" trans="ffffff" width="128" height="208"/>
 </tileset>
 <tileset firstgid="2945" name="M13" tilewidth="8" tileheight="8" tilecount="512" columns="16">
  <image source="tiles/M13.png" trans="ffffff" width="128" height="256"/>
 </tileset>
 <tileset firstgid="3457" name="3" tilewidth="8" tileheight="8" tilecount="512" columns="16">
  <image source="tiles/3.png" trans="ffffff" width="128" height="256"/>
 </tileset>
 <tileset firstgid="3969" name="2" tilewidth="8" tileheight="8" tilecount="512" columns="16">
  <image source="tiles/2.png" trans="ffffff" width="128" height="256"/>
 </tileset>
 <tileset firstgid="4481" name="1" tilewidth="8" tileheight="8" tilecount="512" columns="16">
  <image source="tiles/1.png" trans="ffffff" width="128" height="256"/>
 </tileset>
 <tileset firstgid="4993" name="M12" tilewidth="8" tileheight="8" tilecount="1024" columns="16">
  <image source="tiles/M12.png" trans="ffffff" width="128" height="512"/>
 </tileset>
 <layer id="1" name="bottom" width="16" height="256">
  <data encoding="csv">
0,0,0,0,0,0,0,0,0,0,4225,4226,4225,4226,4225,4226,
0,0,0,0,0,0,0,0,0,0,4241,4242,4241,4242,4241,4242,
4225,4226,4225,4226,4225,4226,4257,4258,4259,4260,4261,4262,4235,4236,4225,4226,
4241,4242,4241,4242,4241,4242,4273,4274,4275,4276,4277,4278,4251,4252,4241,4242,
4225,4226,4225,4226,4225,4226,4289,4290,4263,4264,4265,4266,4267,4268,0,0,
4241,4242,4241,4242,4241,4242,4305,4306,4279,4280,4281,4282,4283,4284,0,0,
4225,4226,4225,4226,4225,4226,0,0,0,0,0,0,4225,4226,4225,4226,
4241,4242,4241,4242,4241,4242,0,0,0,0,0,0,4241,4242,4241,4242,
4225,4226,4225,4226,4225,4226,4225,4226,4225,4226,4225,4226,1001,1002,1031,1032,
4241,4242,4241,4242,4241,4242,4241,4242,4241,4242,4241,4242,1017,1018,1047,1048,
4225,4226,4225,4226,4225,4226,4225,4226,4225,4226,4225,4226,0,0,0,0,
4241,4242,4241,4242,4241,4242,4241,4242,4241,4242,4241,4242,0,0,0,0,
4225,4226,4225,4226,4225,4226,4225,4226,4225,4226,4225,4226,4589,4590,0,0,
4241,4242,4241,4242,4241,4242,4241,4242,4241,4242,4241,4242,4605,4606,0,0,
0,0,0,0,0,0,0,0,0,0,0,0,4589,4590,0,0,
0,0,0,0,0,0,0,0,0,0,0,0,4605,4606,0,0,
0,0,0,0,0,0,0,0,0,0,0,0,4225,4226,0,0,
0,0,0,0,0,0,0,0,0,0,0,0,4241,4242,0,0,
0,0,0,0,0,0,0,0,0,0,0,0,4225,4226,4225,4226,
0,0,0,0,0,0,0,0,0,0,0,0,4241,4242,4241,4242,
0,0,0,0,0,0,0,0,0,0,0,0,0,0,0,0,
0,0,0,0,0,0,0,0,0,0,0,0,0,0,0,0,
0,0,0,0,0,0,0,0,0,0,0,0,0,0,0,0,
0,0,0,0,0,0,0,0,0,0,0,0,0,0,0,0,
0,0,0,0,0,0,0,0,0,0,0,0,0,0,4225,4226,
0,0,0,0,0,0,0,0,0,0,0,0,0,0,4241,4242,
0,0,0,0,0,0,0,0,0,0,0,0,0,0,0,0,
0,0,0,0,0,0,0,0,0,0,0,0,0,0,0,0,
0,0,0,0,0,0,0,0,0,0,0,0,4225,4226,0,0,
0,0,0,0,0,0,0,0,0,0,0,0,4241,4242,0,0,
0,0,0,0,0,0,0,0,0,0,0,0,4225,4226,4225,4226,
0,0,0,0,0,0,0,0,0,0,0,0,4241,4242,4241,4242,
0,0,0,0,0,0,0,0,4225,4226,4225,4226,0,0,0,0,
0,0,0,0,0,0,0,0,4241,4242,4241,4242,0,0,0,0,
0,0,0,0,0,0,0,0,4225,4226,4225,4226,0,0,0,0,
0,0,0,0,0,0,0,0,4241,4242,4241,4242,0,0,0,0,
0,0,0,0,0,0,0,0,4225,4226,4225,4226,4225,4226,4225,4226,
0,0,0,0,0,0,0,0,4241,4242,4241,4242,4241,4242,4241,4242,
0,0,0,0,0,0,0,0,0,0,0,0,0,0,0,0,
0,0,0,0,0,0,0,0,0,0,0,0,0,0,0,0,
0,0,0,0,0,0,0,0,0,0,0,0,0,0,0,0,
0,0,0,0,0,0,0,0,0,0,0,0,0,0,0,0,
0,0,0,0,0,0,0,0,0,0,0,0,0,0,0,0,
0,0,0,0,0,0,0,0,0,0,0,0,0,0,0,0,
0,0,0,0,0,0,0,0,0,0,0,0,0,0,0,0,
0,0,0,0,0,0,0,0,0,0,0,0,0,0,0,0,
0,0,0,0,0,0,0,0,0,0,0,0,0,0,0,0,
0,0,0,0,0,0,0,0,0,0,0,0,0,0,0,0,
0,0,0,0,0,0,0,0,0,0,0,0,0,0,0,0,
0,0,0,0,0,0,0,0,0,0,0,0,0,0,0,0,
0,0,0,0,0,0,0,0,4225,4226,4225,4226,4225,4226,4225,4226,
0,0,0,0,0,0,0,0,4241,4242,4241,4242,4241,4242,4241,4242,
0,0,0,0,0,0,0,0,0,0,0,0,0,0,0,0,
0,0,0,0,0,0,0,0,0,0,0,0,0,0,0,0,
0,0,0,0,0,0,0,0,0,0,0,0,4225,4226,4225,4226,
0,0,0,0,0,0,0,0,0,0,0,0,4241,4242,4241,4242,
0,0,0,0,0,0,0,0,4225,4226,4225,4226,4225,4226,0,0,
0,0,0,0,0,0,0,0,4241,4242,4241,4242,4241,4242,0,0,
0,0,0,0,0,0,0,0,0,0,1795,1796,0,0,4600,4601,
0,0,0,0,0,0,0,0,0,0,1811,1812,0,0,4616,4617,
0,0,0,0,4299,4300,4301,4302,4303,4304,1795,1796,4225,4226,0,0,
0,0,0,0,4315,4316,4317,4318,4319,4320,1811,1812,4241,4242,0,0,
0,0,0,0,4331,4332,4333,4334,4335,4336,5027,5028,5027,5028,4589,4590,
0,0,0,0,4347,4348,4349,4350,4351,4352,5043,5044,5043,5044,4605,4606,
4327,4328,4329,4330,4363,4364,4365,4366,4367,4368,5027,5028,4039,4040,4041,4042,
4343,4344,4345,4346,4379,4380,4381,4382,4383,4384,5043,5044,4055,4056,4057,4058,
4359,4360,4361,4362,4097,4098,4065,4066,4067,4068,4069,4070,4071,4072,4073,4074,
4375,4376,4377,4378,4113,4114,4081,4082,4083,4084,4085,4086,4087,4088,4089,4090,
4481,4482,4483,4484,4485,4486,3969,3970,3971,3972,3973,3974,4519,4520,4521,4522,
4497,4498,4499,4500,4501,4502,3985,3986,3987,3988,3989,3990,4535,4536,4537,4538,
4513,4514,4515,4516,4517,4518,4001,4002,4003,4004,4005,4006,4551,4552,4553,4554,
4529,4530,4531,4532,4533,4534,4017,4018,4019,4020,4021,4022,4567,4568,4569,4570,
4545,4546,4547,4548,4549,4550,4033,4034,4035,4036,4037,4038,4583,4584,4585,4586,
4561,4562,4563,4564,4565,4566,4049,4050,4051,4052,4053,4054,4599,4600,4601,4602,
4555,4556,4557,4558,4559,4560,0,0,5027,5028,5027,5028,4615,4616,4617,4618,
4571,4572,4573,4574,4575,4576,0,0,5043,5044,5043,5044,4631,4632,4633,4634,
4587,4588,4589,4590,4591,4592,1795,1796,5027,5028,5027,5028,0,0,4225,4226,
4603,4604,4605,4606,4607,4608,1811,1812,5043,5044,5043,5044,0,0,4241,4242,
4619,4620,4621,4622,4623,4624,0,0,0,0,0,0,0,0,0,0,
4635,4636,4637,4638,4639,4640,0,0,0,0,0,0,0,0,0,0,
4225,4226,4225,4226,4225,4226,0,0,0,0,4225,4226,4225,4226,4225,4226,
4241,4242,4241,4242,4241,4242,0,0,0,0,4241,4242,4241,4242,4241,4242,
4225,4226,0,0,4225,4226,0,0,0,0,4225,4226,0,0,4225,4226,
4241,4242,0,0,4241,4242,0,0,0,0,4241,4242,0,0,4241,4242,
4225,4226,4225,4226,4225,4226,0,0,0,0,4225,4226,0,0,4225,4226,
4241,4242,4241,4242,4241,4242,0,0,0,0,4241,4242,0,0,4241,4242,
0,0,0,0,0,0,0,0,0,0,0,0,0,0,0,0,
0,0,0,0,0,0,0,0,0,0,0,0,0,0,0,0,
1197,1198,1197,1198,1197,1198,0,0,0,0,4225,4226,0,0,0,0,
1213,1214,1213,1214,1213,1214,0,0,0,0,4241,4242,0,0,0,0,
1197,1198,1197,1198,0,0,0,0,0,0,4225,4226,0,0,0,0,
1213,1214,1213,1214,0,0,0,0,0,0,4241,4242,0,0,0,0,
1197,1198,1197,1198,1197,1198,4225,4226,0,0,0,0,0,0,4225,4226,
1213,1214,1213,1214,1213,1214,4241,4242,0,0,0,0,0,0,4241,4242,
1197,1198,1197,1198,1197,1198,4225,4226,0,0,0,0,0,0,4225,4226,
1213,1214,1213,1214,1213,1214,4241,4242,0,0,0,0,0,0,4241,4242,
0,0,0,0,1197,1198,0,0,1197,1198,0,0,1197,1198,4225,4226,
0,0,0,0,1213,1214,0,0,1213,1214,0,0,1213,1214,4241,4242,
1181,1182,4225,4226,1197,1198,0,0,0,0,0,0,0,0,0,0,
1197,1198,4241,4242,1213,1214,0,0,0,0,0,0,0,0,0,0,
0,0,0,0,0,0,0,0,0,0,0,0,0,0,0,0,
0,0,0,0,0,0,0,0,0,0,0,0,0,0,0,0,
0,0,0,0,0,0,0,0,0,0,0,0,0,0,0,0,
0,0,0,0,0,0,0,0,0,0,0,0,0,0,0,0,
4225,4226,4225,4226,4225,4226,0,0,0,0,0,0,0,0,0,0,
4241,4242,4241,4242,4241,4242,0,0,0,0,0,0,0,0,0,0,
4225,4226,4225,4226,4225,4226,0,0,0,0,0,0,0,0,0,0,
4241,4242,4241,4242,4241,4242,0,0,0,0,0,0,0,0,0,0,
4225,4226,4225,4226,4225,4226,0,0,0,0,0,0,0,0,0,0,
4241,4242,4241,4242,4241,4242,0,0,0,0,0,0,0,0,0,0,
4225,4226,4225,4226,4225,4226,0,0,1181,1182,1181,1182,1181,1182,1181,1182,
4241,4242,4241,4242,4241,4242,0,0,1197,1198,1197,1198,1197,1198,1197,1198,
5027,5028,5027,5028,5027,5028,0,0,0,0,0,0,0,0,0,0,
5043,5044,5043,5044,5043,5044,0,0,0,0,0,0,0,0,0,0,
5027,5028,5027,5028,5027,5028,0,0,0,0,0,0,0,0,0,0,
5043,5044,5043,5044,5043,5044,0,0,0,0,0,0,0,0,0,0,
0,0,0,0,0,0,0,0,0,0,0,0,0,0,0,0,
0,0,0,0,0,0,0,0,0,0,0,0,0,0,0,0,
0,0,0,0,4225,4226,4225,4226,4225,4226,4225,4226,4225,4226,0,0,
0,0,0,0,4241,4242,4241,4242,4241,4242,4241,4242,4241,4242,0,0,
0,0,0,0,4225,4226,4225,4226,4225,4226,4225,4226,4225,4226,0,0,
0,0,0,0,4241,4242,4241,4242,4241,4242,4241,4242,4241,4242,0,0,
0,0,0,0,4225,4226,4225,4226,4225,4226,4225,4226,4225,4226,0,0,
0,0,0,0,4241,4242,4241,4242,4241,4242,4241,4242,4241,4242,0,0,
0,0,0,0,4225,4226,4225,4226,4225,4226,4225,4226,4225,4226,0,0,
0,0,0,0,4241,4242,4241,4242,4241,4242,4241,4242,4241,4242,0,0,
0,0,0,0,0,0,0,0,0,0,0,0,0,0,0,0,
0,0,0,0,0,0,0,0,0,0,0,0,0,0,0,0,
4225,4226,4225,4226,0,0,0,0,0,0,0,0,0,0,4225,4226,
4241,4242,4241,4242,0,0,0,0,0,0,0,0,0,0,4241,4242,
4225,4226,0,0,0,0,0,0,0,0,0,0,0,0,4225,4226,
4241,4242,0,0,0,0,0,0,0,0,0,0,0,0,4241,4242,
4225,4226,0,0,0,0,0,0,0,0,0,0,0,0,4225,4226,
4241,4242,0,0,0,0,0,0,0,0,0,0,0,0,4241,4242,
4225,4226,4225,4226,4225,4226,4225,4226,4225,4226,4225,4226,4225,4226,4225,4226,
4241,4242,4241,4242,4241,4242,4241,4242,4241,4242,4241,4242,4241,4242,4241,4242,
0,0,0,0,0,0,0,0,0,0,0,0,0,0,4225,4226,
0,0,0,0,0,0,0,0,0,0,0,0,0,0,4241,4242,
0,0,0,0,0,0,0,0,0,0,4225,4226,4225,4226,4225,4226,
0,0,0,0,0,0,0,0,0,0,4241,4242,4241,4242,4241,4242,
0,0,0,0,0,0,0,0,0,0,4225,4226,4225,4226,4225,4226,
0,0,0,0,0,0,0,0,0,0,4241,4242,4241,4242,4241,4242,
0,0,0,0,0,0,0,0,0,0,4225,4226,4225,4226,4225,4226,
4225,4226,4225,4226,0,0,4225,4226,4225,4226,4241,4242,4241,4242,4241,4242,
4241,4242,4241,4242,0,0,4241,4242,4241,4242,4225,4226,4225,4226,4225,4226,
4225,4226,4225,4226,4225,4226,4225,4226,4225,4226,4241,4242,4241,4242,4241,4242,
4225,4226,4225,4226,4225,4226,4241,4242,4241,4242,4225,4226,4225,4226,4225,4226,
4241,4242,4241,4242,4241,4242,4225,4226,4225,4226,4241,4242,4241,4242,4241,4242,
0,0,0,0,0,0,4241,4242,4225,4226,4225,4226,4225,4226,4225,4226,
0,0,0,0,0,0,4225,4226,4241,4242,4241,4242,4241,4242,4241,4242,
0,0,0,0,0,0,4241,4242,0,0,4225,4226,0,0,0,0,
0,0,0,0,0,0,4225,4226,0,0,4241,4242,0,0,0,0,
0,0,0,0,0,0,4225,4226,4225,4226,4225,4226,0,0,0,0,
0,0,0,0,0,0,4241,4242,4241,4242,4241,4242,0,0,0,0,
0,0,0,0,0,0,0,0,0,0,0,0,0,0,0,0,
0,0,0,0,0,0,0,0,0,0,0,0,0,0,0,0,
0,0,0,0,0,0,0,0,0,0,0,0,0,0,0,0,
0,0,0,0,0,0,0,0,0,0,0,0,0,0,0,0,
0,0,0,0,0,0,4225,4226,4225,4226,4225,4226,0,0,0,0,
0,0,0,0,0,0,4241,4242,4241,4242,4241,4242,0,0,0,0,
0,0,0,0,0,0,0,0,0,0,0,0,0,0,0,0,
0,0,0,0,0,0,0,0,0,0,0,0,0,0,0,0,
0,0,0,0,0,0,0,0,0,0,0,0,0,0,0,0,
0,0,0,0,0,0,0,0,0,0,0,0,0,0,0,0,
0,0,0,0,0,0,0,0,0,0,0,0,2575,2576,2575,2576,
0,0,0,0,0,0,0,0,0,0,0,0,2591,2592,2591,2592,
0,0,2575,2576,0,0,0,0,4225,4226,5027,5028,2575,2576,2575,2576,
0,0,2591,2592,0,0,0,0,4241,4242,5043,5044,2591,2592,2591,2592,
0,0,2575,2576,0,0,0,0,4225,4226,5027,5028,0,0,0,0,
0,0,2591,2592,0,0,0,0,4241,4242,5043,5044,0,0,0,0,
2575,2576,2575,2576,0,0,0,0,0,0,2575,2576,0,0,0,0,
2591,2592,2591,2592,0,0,0,0,0,0,2591,2592,0,0,0,0,
0,0,0,0,5027,5028,5027,5028,0,0,0,0,2575,2576,2575,2576,
0,0,0,0,5043,5044,5043,5044,0,0,0,0,2591,2592,2591,2592,
4225,4226,4225,4226,5027,5028,5027,5028,0,0,0,0,2575,2576,2575,2576,
4241,4242,4241,4242,5043,5044,5043,5044,0,0,0,0,2591,2592,2591,2592,
4225,4226,4225,4226,0,0,0,0,0,0,0,0,0,0,0,0,
4241,4242,4241,4242,0,0,0,0,0,0,0,0,0,0,0,0,
0,0,0,0,0,0,0,0,0,0,0,0,0,0,0,0,
0,0,0,0,0,0,0,0,0,0,0,0,0,0,0,0,
4225,4226,4225,4226,4225,4226,0,0,0,0,0,0,1155,1156,1155,1156,
4241,4242,4241,4242,4241,4242,0,0,0,0,0,0,1171,1172,1171,1172,
4225,4226,4225,4226,4225,4226,0,0,0,0,0,0,0,0,0,0,
4241,4242,4241,4242,4241,4242,0,0,0,0,0,0,0,0,0,0,
0,0,0,0,0,0,0,0,0,0,0,0,0,0,0,0,
0,0,0,0,0,0,0,0,0,0,0,0,0,0,0,0,
0,0,0,0,0,0,0,0,0,0,0,0,0,0,0,0,
0,0,0,0,0,0,0,0,0,0,0,0,0,0,0,0,
0,0,0,0,0,0,0,0,0,0,0,0,0,0,0,0,
0,0,0,0,0,0,0,0,0,0,0,0,0,0,0,0,
0,0,0,0,0,0,0,0,0,0,0,0,0,0,0,0,
0,0,0,0,0,0,0,0,0,0,0,0,0,0,0,0,
0,0,0,0,0,0,0,0,0,0,0,0,0,0,0,0,
0,0,0,0,0,0,0,0,0,0,0,0,0,0,0,0,
4225,4226,4225,4226,4225,4226,4225,4226,4225,4226,4225,4226,0,0,0,0,
4241,4242,4241,4242,4241,4242,4241,4242,4241,4242,4241,4242,0,0,0,0,
0,0,0,0,0,0,0,0,0,0,0,0,0,0,0,0,
0,0,0,0,0,0,0,0,0,0,0,0,0,0,0,0,
0,0,0,0,0,0,0,0,0,0,0,0,0,0,0,0,
0,0,0,0,0,0,0,0,0,0,0,0,0,0,0,0,
4225,4226,4225,4226,4225,4226,4225,4226,4225,4226,4225,4226,0,0,0,0,
4241,4242,4241,4242,4241,4242,4241,4242,4241,4242,4241,4242,0,0,0,0,
0,0,0,0,0,0,0,0,0,0,0,0,0,0,0,0,
0,0,0,0,0,0,0,0,0,0,0,0,0,0,0,0,
0,0,0,0,0,0,0,0,0,0,0,0,0,0,0,0,
0,0,0,0,0,0,0,0,0,0,0,0,0,0,0,0,
0,0,0,0,0,0,4225,4226,4225,4226,4225,4226,0,0,0,0,
0,0,0,0,0,0,4241,4242,4241,4242,4241,4242,0,0,0,0,
0,0,0,0,0,0,4225,4226,4225,4226,4225,4226,0,0,0,0,
0,0,0,0,0,0,4241,4242,4241,4242,4241,4242,0,0,0,0,
0,0,0,0,0,0,0,0,0,0,0,0,0,0,0,0,
0,0,0,0,0,0,0,0,0,0,0,0,0,0,0,0,
0,0,0,0,4225,4226,4225,4226,4225,4226,4225,4226,4225,4226,0,0,
0,0,0,0,4241,4242,4241,4242,4241,4242,4241,4242,4241,4242,0,0,
0,0,0,0,4225,4226,0,0,0,0,0,0,4225,4226,0,0,
0,0,0,0,4241,4242,0,0,0,0,0,0,4241,4242,0,0,
4225,4226,4225,4226,0,0,0,0,0,0,0,0,0,0,4225,4226,
4241,4242,4241,4242,0,0,0,0,0,0,0,0,0,0,4241,4242,
4225,4226,0,0,0,0,0,0,0,0,0,0,0,0,0,0,
4241,4242,0,0,0,0,0,0,0,0,0,0,0,0,0,0,
0,0,0,0,4225,4226,0,0,0,0,0,0,0,0,0,0,
0,0,0,0,4241,4242,0,0,0,0,0,0,0,0,0,0,
0,0,0,0,4225,4225,4226,0,0,0,0,0,0,0,0,0,
0,0,0,0,4241,4241,4242,0,0,0,0,0,0,0,0,0,
0,0,0,0,0,0,0,0,0,0,0,0,0,0,0,0,
0,0,0,0,0,0,0,0,0,0,0,0,0,0,0,0,
0,0,0,0,0,0,0,0,0,0,0,0,0,0,0,0,
0,0,0,0,0,0,0,0,0,0,0,0,0,0,0,0,
0,0,0,0,0,0,0,0,0,0,0,0,0,0,0,0,
0,0,0,0,0,0,0,0,0,0,0,0,0,0,0,0,
4225,4226,4225,4226,0,0,0,0,0,0,0,0,0,0,4225,4226,
4241,4242,4241,4242,0,0,0,0,0,0,0,0,0,0,4241,4242,
4225,4226,4225,4226,0,0,0,0,0,0,0,0,0,0,4225,4226,
4241,4242,4241,4242,0,0,0,0,0,0,0,0,0,0,4241,4242,
4225,4226,4225,4226,0,0,0,0,0,0,0,0,0,0,0,0,
4241,4242,4241,4242,0,0,0,0,0,0,0,0,0,0,0,0,
0,0,0,0,0,0,0,0,0,0,0,0,0,0,0,0,
0,0,0,0,0,0,0,0,0,0,0,0,0,0,0,0,
4225,4226,0,0,0,0,0,0,0,0,0,0,0,0,0,0,
4241,4242,0,0,0,0,0,0,0,0,0,0,0,0,0,0,
0,0,0,0,0,0,0,0,0,0,0,0,0,0,4225,4226,
0,0,0,0,0,0,0,0,0,0,0,0,0,0,4241,4242,
0,0,0,0,0,0,0,0,0,0,0,0,0,0,4225,4226,
0,0,0,0,0,0,0,0,0,0,0,0,0,0,4241,4242,
0,0,0,0,0,0,0,0,0,0,0,0,0,0,0,0,
0,0,0,0,0,0,0,0,0,0,0,0,0,0,0,0,
0,0,0,0,0,0,0,0,0,0,0,0,0,0,0,0,
0,0,0,0,0,0,0,0,0,0,0,0,0,0,0,0,
0,0,0,0,0,0,0,0,0,0,0,0,0,0,0,0,
0,0,0,0,0,0,0,0,0,0,0,0,0,0,0,0,
0,0,0,0,0,0,0,0,0,0,0,0,0,0,0,0,
0,0,0,0,0,0,0,0,0,0,0,0,0,0,0,0,
0,0,0,0,0,0,0,0,0,0,0,0,0,0,0,0,
0,0,0,0,0,0,0,0,0,0,0,0,0,0,0,0,
0,0,0,0,0,0,0,0,0,0,0,0,0,0,0,0,
0,0,0,0,0,0,0,0,0,0,0,0,0,0,0,0
</data>
 </layer>
 <layer id="2" name="middle" width="16" height="256">
  <data encoding="csv">
0,0,4225,4226,4227,4228,4229,4230,4231,4232,3627,3628,3625,3626,3851,3852,
0,0,4241,4242,4243,4244,4245,4246,4247,4248,3643,3644,3641,3642,3867,3868,
0,0,0,0,0,0,0,0,0,0,0,0,0,0,3629,3630,
0,0,0,0,0,0,0,0,0,0,0,0,0,0,3645,3646,
0,0,0,0,0,0,0,0,0,0,0,0,0,0,0,0,
0,0,0,0,0,0,0,0,0,0,0,0,0,0,0,0,
3873,3874,3875,3876,3877,3878,0,0,0,0,0,0,1025,1026,1027,1028,
3889,3890,3891,3892,3893,3894,0,0,0,0,0,0,1041,1042,1043,1044,
0,0,0,0,0,0,0,0,0,0,0,0,0,0,0,0,
0,0,0,0,0,0,0,0,0,0,0,0,0,0,0,0,
0,0,0,0,0,0,0,0,0,0,0,0,0,0,0,0,
0,0,0,0,0,0,0,0,0,0,0,0,0,0,0,0,
3873,3874,3875,3876,3877,3878,3873,3874,3875,3876,3877,3878,1669,1670,0,0,
3889,3890,3891,3892,3893,3894,3889,3890,3891,3892,3893,3894,1685,1686,0,0,
0,0,0,0,0,0,0,0,0,0,0,0,1701,1702,0,0,
0,0,0,0,0,0,0,0,0,0,0,0,1717,1718,0,0,
0,0,0,0,0,0,0,0,0,0,0,0,0,0,0,0,
0,0,0,0,0,0,0,0,0,0,0,0,0,0,0,0,
0,0,0,0,0,0,0,0,0,0,0,0,3687,3688,3687,3688,
0,0,0,0,0,0,0,0,0,0,0,0,3703,3704,3703,3704,
0,0,0,0,0,0,0,0,0,0,0,0,0,0,0,0,
0,0,0,0,0,0,0,0,0,0,0,0,0,0,0,0,
0,0,0,0,0,0,0,0,0,0,0,0,0,0,0,0,
0,0,0,0,0,0,0,0,0,0,0,0,0,0,0,0,
0,0,0,0,0,0,0,0,0,0,0,0,0,0,3600,3597,
0,0,0,0,0,0,0,0,0,0,0,0,0,0,3616,3613,
0,0,0,0,0,0,0,0,0,0,0,0,0,0,0,0,
0,0,0,0,0,0,0,0,0,0,0,0,0,0,0,0,
0,0,0,0,0,0,0,0,0,0,0,0,0,0,0,0,
0,0,0,0,0,0,0,0,0,0,0,0,0,0,0,0,
0,0,0,0,0,0,0,0,0,0,0,0,2145,2146,2145,2146,
0,0,0,0,0,0,0,0,0,0,0,0,2161,2162,2161,2162,
0,0,0,0,0,0,0,0,0,0,0,0,0,0,0,0,
0,0,0,0,0,0,0,0,0,0,0,0,0,0,0,0,
0,0,0,0,0,0,0,0,3565,3566,3567,3568,0,0,0,0,
0,0,0,0,0,0,0,0,3581,3582,3583,3584,0,0,0,0,
0,0,0,0,0,0,0,0,3597,3598,3599,3600,3597,3598,3599,3600,
0,0,0,0,0,0,0,0,3613,3614,3615,3616,3613,3614,3615,3616,
0,0,0,0,0,0,0,0,0,0,0,0,0,0,0,0,
0,0,0,0,0,0,0,0,0,0,0,0,0,0,0,0,
0,0,0,0,0,0,0,0,0,0,0,0,0,0,0,0,
0,0,0,0,0,0,0,0,0,0,0,0,0,0,0,0,
0,0,0,0,0,0,0,0,0,0,0,0,0,0,0,0,
0,0,0,0,0,0,0,0,0,0,0,0,0,0,0,0,
0,0,0,0,0,0,0,0,0,0,0,0,0,0,0,0,
0,0,0,0,0,0,0,0,0,0,0,0,0,0,0,0,
0,0,0,0,0,0,0,0,0,0,0,0,0,0,0,0,
0,0,0,0,0,0,0,0,0,0,0,0,0,0,0,0,
0,0,0,0,0,0,0,0,0,0,0,0,0,0,0,0,
0,0,0,0,0,0,0,0,0,0,0,0,0,0,0,0,
0,0,0,0,0,0,0,0,3599,3600,3597,3598,3627,3628,3627,3628,
0,0,0,0,0,0,0,0,3615,3616,3613,3614,3643,3644,3643,3644,
0,0,0,0,0,0,0,0,0,0,0,0,0,0,0,0,
0,0,0,0,0,0,0,0,0,0,0,0,0,0,0,0,
0,0,0,0,0,0,0,0,0,0,0,0,3627,3628,3627,3628,
0,0,0,0,0,0,0,0,0,0,0,0,3643,3644,3643,3644,
0,0,0,0,0,0,0,0,3599,3600,3597,3598,3457,3458,0,0,
0,0,0,0,0,0,0,0,3615,3616,3613,3614,3473,3474,0,0,
0,0,0,0,0,0,0,0,0,0,3687,3688,0,0,1637,1638,
0,0,0,0,0,0,0,0,0,0,3703,3704,0,0,1653,1654,
0,0,0,0,0,0,0,0,0,0,3687,3688,1029,1030,0,0,
0,0,0,0,0,0,0,0,0,0,3703,3704,1045,1046,0,0,
0,0,0,0,0,0,0,0,0,0,1737,1738,1761,1762,1029,1030,
0,0,0,0,0,0,0,0,0,0,1753,1754,1777,1778,1045,1046,
0,0,0,0,0,0,0,0,0,0,1735,1736,0,0,0,0,
0,0,0,0,0,0,0,0,0,0,1751,1752,0,0,0,0,
0,0,0,0,0,0,0,0,0,0,0,0,0,0,0,0,
0,0,0,0,0,0,0,0,0,0,0,0,0,0,0,0,
0,0,0,0,0,0,0,0,0,0,0,0,0,0,0,0,
0,0,0,0,0,0,0,0,0,0,0,0,0,0,0,0,
0,0,0,0,0,0,0,0,0,0,0,0,0,0,0,0,
0,0,0,0,0,0,0,0,0,0,0,0,0,0,0,0,
0,0,0,0,0,0,0,0,0,0,0,0,0,0,0,0,
0,0,0,0,0,0,0,0,0,0,0,0,0,0,0,0,
0,0,0,0,0,0,1795,1796,3879,3880,3881,3882,0,0,0,0,
0,0,0,0,0,0,1811,1812,3895,3896,3897,3898,0,0,0,0,
0,0,0,0,0,0,3627,3628,0,0,1765,1766,1795,1796,3627,3628,
0,0,0,0,0,0,3643,3644,0,0,1781,1782,1811,1812,3643,3644,
0,0,0,0,0,0,1229,1230,1229,1230,1165,1166,1165,1166,1165,1166,
0,0,0,0,0,0,1245,1246,1245,1246,1739,1740,1741,1742,1743,1744,
1153,1154,1155,1156,1157,1158,1159,1160,1161,1162,1163,1164,1165,1166,1167,1168,
1169,1170,1171,1172,1173,1174,1175,1176,1177,1178,1179,1180,1181,1182,1183,1184,
1185,1186,1187,1188,1189,1190,1191,1192,1193,1194,1195,1196,1197,1198,1199,1200,
1201,1202,1203,1204,1205,1206,1207,1208,1209,1210,1211,1212,1213,1214,1215,1216,
1217,1218,1219,1220,1221,1222,1223,1224,1225,1226,1227,1228,1229,1230,1231,1232,
1233,1234,1235,1236,1237,1238,1239,1240,1241,1242,1243,1244,1245,1246,1247,1248,
1249,1250,1251,1252,1253,1254,1255,1256,1257,1258,1259,1260,1261,1262,1263,1264,
1265,1266,1267,1268,1269,1270,1271,1272,1273,1274,1275,1276,1277,1278,1279,1280,
1163,1164,1167,1168,1383,1384,1287,1288,1289,1290,1291,1292,1293,1294,1295,1296,
1179,1180,1183,1184,1399,1400,1303,1304,1305,1306,1307,1308,1309,1310,1311,1312,
1227,1228,1231,1232,0,0,1319,1320,1321,1322,1323,1324,1325,1326,1327,1328,
1243,1244,1247,1248,0,0,1335,1336,1337,1338,1339,1340,1341,1342,1343,1344,
1153,1154,1157,1158,1391,1392,1351,1352,1353,1354,1355,1356,1357,1358,1359,1360,
1169,1170,1173,1174,1407,1408,1367,1368,1369,1370,1371,1372,1373,1374,1375,1376,
1217,1218,1221,1222,1423,1424,1383,1384,1385,1386,1387,1388,1389,1390,1391,1392,
1233,1234,1237,1238,1439,1440,1399,1400,1401,1402,1403,1404,1405,1406,1407,1408,
0,0,0,0,1291,1292,0,0,1417,1418,1419,1420,1421,1422,1423,1424,
0,0,0,0,1307,1308,0,0,1433,1434,1435,1436,1437,1438,1439,1440,
1665,1666,1665,1666,1323,1324,1447,1448,1449,1450,0,0,1453,1454,1455,1456,
1681,1682,1681,1682,1339,1340,1463,1464,1465,1466,0,0,1469,1470,1471,1472,
0,0,0,0,0,0,0,0,1481,1482,0,0,1485,1486,1487,1488,
0,0,0,0,0,0,0,0,1497,1498,0,0,1501,1502,0,0,
0,0,0,0,0,0,0,0,1513,1514,1515,1516,1517,1518,0,0,
0,0,0,0,0,0,0,0,1529,1530,1531,1532,1533,1534,1535,1536,
0,0,0,0,0,0,0,0,1545,1546,1547,1548,1549,1550,1551,1552,
0,0,0,0,0,0,0,0,1561,1562,1563,1564,1565,1566,1567,1568,
0,0,0,0,0,0,0,0,1577,1578,1579,1580,1581,1582,1583,1584,
0,0,0,0,0,0,0,0,1593,1594,1595,1596,1597,1598,1599,1600,
2049,2050,2051,2052,2053,2054,0,0,1609,1610,1611,1612,1613,1614,1615,1616,
2065,2066,2067,2068,2069,2070,0,0,1625,1626,1627,1628,1629,1630,1631,1632,
2081,2082,2083,2084,2085,2086,0,0,1641,1642,1643,1644,1645,1646,1647,1648,
2097,2098,2099,2100,2101,2102,0,0,1657,1658,1659,1660,1661,1662,1663,1664,
5671,5672,5673,5674,5675,5676,5699,5700,5731,5732,5665,5666,5667,5668,5669,5670,
5687,5688,5689,5690,5691,5692,5715,5716,5747,5748,5681,5682,5683,5684,5685,5686,
5703,5704,1763,1764,5707,5708,5733,5734,5729,5730,5697,5698,0,0,5701,5702,
5719,5720,1779,1780,5723,5724,5749,5750,5745,5746,5713,5714,0,0,5717,5718,
1793,1794,1795,1796,1797,1798,0,0,0,0,1803,1804,1805,1806,1807,1808,
1809,1810,1811,1812,1813,1814,0,0,0,0,1819,1820,1821,1822,1823,1824,
5705,5706,5737,5738,1829,1830,1831,1832,1833,1834,1835,1836,1837,1838,5443,5444,
5721,5722,5753,5754,1845,1846,1847,1848,1849,1850,1851,1852,1853,1854,5459,5460,
5739,5740,5735,5736,1861,1862,1863,1864,1865,1866,1867,1868,1869,1870,5441,5442,
5755,5756,5751,5752,1877,1878,1879,1880,1881,1882,1883,1884,1885,1886,5457,5458,
0,0,0,0,1893,1894,1895,1896,1897,1898,1899,1900,1901,1902,5445,5446,
0,0,0,0,1909,1910,1911,1912,1913,1914,1915,1916,1917,1918,5461,5462,
0,0,419,420,421,422,423,424,425,426,427,428,429,430,431,432,
0,0,0,0,0,0,0,0,0,0,0,0,0,0,447,448,
0,0,0,0,0,0,0,0,0,0,0,0,0,0,463,464,
0,0,0,0,469,470,471,472,473,474,475,476,477,478,479,480,
481,482,483,484,485,486,487,488,489,490,491,492,493,494,495,496,
497,498,499,500,501,502,503,504,505,506,507,508,509,510,511,512,
513,514,515,516,517,518,519,520,521,522,523,524,525,526,527,528,
529,530,531,532,533,534,535,536,537,538,539,540,541,542,543,544,
545,546,547,548,549,550,551,552,553,554,555,556,557,558,559,560,
561,562,563,564,565,566,567,568,569,570,571,572,573,574,575,576,
0,0,0,0,0,0,0,0,0,0,237,238,239,240,0,0,
0,0,0,0,0,0,0,0,0,0,253,254,255,256,31,32,
209,210,211,212,213,214,215,216,217,218,269,270,271,272,47,48,
209,210,211,212,213,214,215,216,217,218,285,286,287,288,63,64,
225,226,227,228,229,230,231,232,233,234,301,302,303,304,0,0,
241,242,243,244,245,246,247,248,249,250,317,318,319,320,0,0,
257,258,259,260,261,262,263,264,265,266,171,172,173,174,175,176,
273,274,275,276,277,278,279,280,281,282,187,188,189,190,191,192,
289,290,291,292,293,294,295,296,297,298,203,204,205,206,207,208,
305,306,307,308,309,310,311,312,313,314,219,220,221,222,223,224,
321,322,323,324,325,326,327,328,329,330,0,0,4871,4872,4873,4874,
337,338,339,340,341,342,343,344,345,346,19,20,4887,4888,4889,4890,
0,0,0,0,0,0,0,0,0,0,35,36,4903,4904,4905,4906,
0,0,0,0,0,0,0,0,0,0,51,52,4919,4920,4921,4922,
641,642,643,644,645,646,4865,4866,4867,4868,4869,4870,4935,4936,4937,4938,
657,658,659,660,661,662,4881,4882,4883,4884,4885,4886,4951,4952,4953,4954,
673,674,675,676,677,678,4897,4898,4899,4900,4901,4902,0,0,0,0,
689,690,691,692,693,694,4913,4914,4915,4916,4917,4918,0,0,0,0,
705,706,707,708,709,710,4929,4930,4931,4932,4933,4934,0,0,0,0,
721,722,723,724,725,726,4945,4946,4947,4948,4949,4950,0,0,0,0,
737,738,739,740,741,742,0,0,0,0,0,0,0,0,0,0,
753,754,755,756,757,758,0,0,0,0,0,0,0,0,0,0,
769,770,771,772,773,774,0,0,0,0,0,0,0,0,0,0,
785,786,787,788,789,790,0,0,0,0,0,0,0,0,0,0,
801,802,803,804,805,806,3597,3598,3599,3600,2145,2146,0,0,0,0,
817,818,819,820,821,822,3613,3614,3615,3616,2161,2162,0,0,0,0,
4993,4994,4995,4996,4997,4998,0,0,0,0,0,0,2541,2542,2543,2544,
5009,5010,5011,5012,5013,5014,0,0,0,0,0,0,2557,2558,2559,2560,
5025,5026,5027,5028,5029,5030,0,0,0,0,0,0,0,0,2575,2576,
5041,5042,5043,5044,5045,5046,0,0,0,0,0,0,0,0,2591,2592,
5057,5058,5059,5060,5061,5062,0,0,0,0,0,0,2605,2606,2607,2608,
5073,5074,5075,5076,5077,5078,0,0,0,0,0,0,2621,2622,2623,2624,
2625,2626,2627,2628,4999,5000,5001,5002,2633,2634,5165,5166,2637,2638,2639,2640,
2641,2642,2643,2644,5015,5016,5017,5018,2649,2650,5181,5182,2653,2654,2655,2656,
2657,2658,2659,2660,5031,5032,5033,5034,2665,2666,5163,5164,2669,2670,2671,2672,
2673,2674,2675,2676,5047,5048,5049,5050,2681,2682,5179,5180,2685,2686,2687,2688,
2689,2690,2691,2692,0,0,0,0,2697,2698,2699,2700,2701,2702,2703,2704,
2705,2706,2707,2708,0,0,0,0,2713,2714,2715,2716,2717,2718,2719,2720,
2721,2722,2723,2724,5003,5004,5005,5006,0,0,0,0,2733,2734,2735,2736,
2737,2738,2739,2740,5019,5020,5021,5022,0,0,0,0,2749,2750,2751,2752,
2753,2754,2755,2756,5035,5036,5037,5038,0,0,0,0,2765,2766,2767,2768,
2769,2770,2771,2772,5051,5052,5053,5054,0,0,0,0,2781,2782,2783,2784,
2785,2786,2787,2788,0,0,0,0,0,0,2795,2796,2797,2798,2799,2800,
2801,2802,2803,2804,0,0,0,0,0,0,2811,2812,2813,2814,2815,2816,
0,0,0,0,0,0,0,0,0,0,0,0,1155,1156,1155,1156,
0,0,0,0,0,0,0,0,0,0,0,0,1171,1172,1171,1172,
0,0,0,0,0,0,0,0,0,0,0,0,3565,3566,3567,3568,
0,0,0,0,0,0,0,0,0,0,0,0,3581,3582,3583,3584,
0,0,0,0,0,0,0,0,0,0,0,0,0,0,0,0,
0,0,0,0,0,0,0,0,0,0,0,0,0,0,0,0,
0,0,0,0,0,0,0,0,0,0,0,0,0,0,0,0,
0,0,0,0,0,0,0,0,0,0,0,0,0,0,0,0,
0,0,0,0,0,0,0,0,0,0,0,0,0,0,0,0,
0,0,0,0,0,0,0,0,0,0,0,0,0,0,0,0,
0,0,0,0,0,0,0,0,0,0,0,0,0,0,0,0,
0,0,0,0,0,0,0,0,0,0,0,0,0,0,0,0,
0,0,0,0,0,0,0,0,0,0,0,0,0,0,0,0,
0,0,0,0,0,0,0,0,0,0,0,0,0,0,0,0,
0,0,0,0,0,0,0,0,0,0,0,0,0,0,0,0,
0,0,0,0,0,0,0,0,0,0,0,0,0,0,0,0,
897,0,0,0,0,0,0,0,0,0,0,902,0,0,0,0,
0,0,0,0,0,0,0,0,0,0,0,0,0,0,0,0,
0,0,0,0,0,0,0,0,0,0,0,0,0,0,0,0,
0,0,0,0,0,0,0,0,0,0,0,0,0,0,0,0,
0,0,0,0,0,0,0,0,0,0,0,0,0,0,0,0,
0,0,0,0,0,0,0,0,0,0,0,0,0,0,0,0,
0,0,0,0,0,0,0,0,0,0,0,0,0,0,0,0,
0,0,0,0,0,0,0,0,0,0,0,0,0,0,0,0,
0,0,0,0,0,0,0,0,0,0,0,0,0,0,0,0,
0,0,0,0,0,0,0,0,0,0,0,0,0,0,0,0,
0,0,0,0,0,0,0,0,0,0,0,0,0,0,0,0,
0,0,0,0,0,0,0,0,0,0,0,0,0,0,0,0,
0,0,0,0,0,0,0,0,0,0,0,0,0,0,0,0,
0,0,0,0,0,0,0,0,0,0,0,0,0,0,0,0,
0,0,0,0,0,0,593,594,595,596,597,598,0,0,0,0,
0,0,0,0,0,0,609,610,611,612,613,614,0,0,0,0,
1155,1156,1155,1156,1155,1156,0,0,0,0,0,0,0,0,0,0,
1171,1172,1171,1172,1171,1172,0,0,0,0,0,0,0,0,0,0,
2945,2946,2947,2948,2949,2950,2951,2952,2953,2954,2955,2956,2957,2958,2959,2960,
2961,2962,2963,2964,2965,2966,2967,2968,2969,2970,2971,2972,2973,2974,2975,2976,
2977,2978,2979,2980,2981,2982,2983,2984,2985,2986,2987,2988,2989,2990,2991,2992,
2993,2994,2995,2996,2997,2998,2999,3000,3001,3002,3003,3004,3005,3006,3007,3008,
3009,3010,3011,3012,3013,3014,3015,3016,3017,3018,3019,3020,3021,3022,3023,3024,
3025,3026,3027,3028,3029,3030,3031,3032,3033,3034,3035,3036,3037,3038,3039,3040,
3041,3042,3043,3044,3045,3046,3047,3048,3049,3050,3051,3052,3053,3054,3055,3056,
3057,3058,3059,3060,3061,3062,3063,3064,3065,3066,3067,3068,3069,3070,3071,3072,
3073,3074,3075,3076,3077,3078,3079,3080,3081,3082,3083,3084,3085,3086,3087,3088,
3089,3090,3091,3092,3093,3094,3095,3096,3097,3098,3099,3100,3101,3102,3103,3104,
3105,3106,3107,3108,3109,3110,3111,3112,3113,3114,3115,3116,3117,3118,3119,3120,
3121,3122,3123,3124,3125,3126,3127,3128,3129,3130,3131,3132,3133,3134,3135,3136,
3137,3138,3139,3140,3141,3142,3143,3144,3145,3146,3147,3148,3149,3150,3151,3152,
3153,3154,3155,3156,3157,3158,3159,3160,3161,3162,3163,3164,3165,3166,3167,3168,
3169,3170,3171,3172,3173,3174,3175,3176,3177,3178,3179,3180,3181,3182,3183,3184,
3185,3186,3187,3188,3189,3190,3191,3192,3193,3194,3195,3196,3197,3198,3199,3200,
3201,3202,3203,3204,3205,3206,3207,3208,3209,3210,3211,3212,3213,3214,3215,3216,
3217,3218,3219,3220,3221,3222,3223,3224,3225,3226,3227,3228,3229,3230,3231,3232,
3233,3234,3235,3236,3237,3238,3239,3240,3241,3242,3243,3244,3245,3246,3247,3248,
3249,3250,3251,3252,3253,3254,3255,3256,3257,3258,3259,3260,3261,3262,3263,3264,
3265,3266,3267,3268,3269,3270,3271,3272,3273,3274,3275,3276,3277,3278,3279,3280,
3281,3282,3283,3284,3285,3286,3287,3288,3289,3290,3291,3292,3293,3294,3295,3296,
3297,3298,3299,3300,3301,3302,3303,3304,3305,3306,3307,3308,3309,3310,3311,3312,
3313,3314,3315,3316,3317,3318,3319,3320,3321,3322,3323,3324,3325,3326,3327,3328,
3329,3330,3331,3332,3333,3334,3335,3336,3337,3338,3339,3340,3341,3342,3343,3344,
3345,3346,3347,3348,3349,3350,3351,3352,3353,3354,3355,3356,3357,3358,3359,3360,
3361,3362,3363,3364,3365,3366,3367,3368,3369,3370,3371,3372,3373,3374,3375,3376,
3377,3378,3379,3380,3381,3382,3383,3384,3385,3386,3387,3388,3389,3390,3391,3392,
3393,3394,3395,3396,3397,3398,3399,3400,3401,3402,3403,3404,3405,3406,3407,3408,
3409,3410,3411,3412,3413,3414,3415,3416,3417,3418,3419,3420,3421,3422,3423,3424,
3425,3426,3427,3428,3429,3430,3431,3432,3433,3434,3435,3436,3437,3438,3439,3440,
3441,3442,3443,3444,3445,3446,3447,3448,3449,3450,3451,3452,3453,3454,3455,3456,
0,0,0,0,0,0,0,0,0,0,0,0,0,0,0,0,
0,0,0,0,0,0,0,0,0,0,0,0,0,0,0,0,
0,0,0,0,0,0,0,0,0,0,0,0,0,0,0,0,
0,0,0,0,0,0,0,0,0,0,0,0,0,0,0,0,
0,0,0,0,0,0,0,0,0,0,0,0,0,0,0,0,
0,0,0,0,0,0,0,0,0,0,0,0,0,0,0,0,
0,0,0,0,0,0,0,0,0,0,0,0,0,0,0,0,
0,0,0,0,0,0,0,0,0,0,0,0,0,0,0,0,
0,0,0,0,0,0,0,0,0,0,0,0,0,0,0,0,
0,0,0,0,0,0,0,0,0,0,0,0,0,0,0,0,
0,0,0,0,0,0,0,0,0,0,0,0,0,0,0,0,
0,0,0,0,0,0,0,0,0,0,0,0,0,0,0,0
</data>
 </layer>
 <layer id="3" name="top" width="16" height="256">
  <data encoding="csv">
0,0,0,0,0,0,0,0,0,0,0,0,0,0,0,0,
0,0,0,0,0,0,0,0,0,0,0,0,0,0,0,0,
961,962,963,964,965,966,0,0,0,0,0,0,0,0,0,0,
977,978,979,980,981,982,0,0,0,0,0,0,0,0,0,0,
993,994,995,996,997,998,0,0,0,0,0,0,0,0,0,0,
1009,1010,1011,1012,1013,1014,0,0,0,0,0,0,0,0,0,0,
0,0,0,0,0,0,0,0,0,0,0,0,0,0,0,0,
0,0,0,0,0,0,0,0,0,0,0,0,0,0,0,0,
3809,3810,3811,3812,3813,3814,897,898,899,900,901,902,0,0,0,0,
3825,3826,3827,3828,3829,3830,913,914,915,916,917,918,0,0,0,0,
3841,3842,3843,3844,3845,3846,929,930,931,932,933,934,0,0,0,0,
3857,3858,3859,3860,3861,3862,945,946,947,948,949,950,0,0,0,0,
0,0,0,0,0,0,0,0,0,0,0,0,0,0,0,0,
0,0,0,0,0,0,0,0,0,0,0,0,0,0,0,0,
0,0,0,0,0,0,0,0,0,0,0,0,0,0,0,0,
0,0,0,0,0,0,0,0,0,0,0,0,0,0,0,0,
0,0,0,0,0,0,0,0,0,0,0,0,3655,3656,0,0,
0,0,0,0,0,0,0,0,0,0,0,0,3671,3672,0,0,
0,0,0,0,0,0,0,0,0,0,0,0,0,0,3655,3656,
0,0,0,0,0,0,0,0,0,0,0,0,0,0,3671,3672,
0,0,0,0,0,0,0,0,0,0,0,0,0,0,0,0,
0,0,0,0,0,0,0,0,0,0,0,0,0,0,0,0,
0,0,0,0,0,0,0,0,0,0,0,0,0,0,0,0,
0,0,0,0,0,0,0,0,0,0,0,0,0,0,0,0,
0,0,0,0,0,0,0,0,0,0,0,0,0,0,3655,3656,
0,0,0,0,0,0,0,0,0,0,0,0,0,0,3671,3672,
0,0,0,0,0,0,0,0,0,0,0,0,0,0,0,0,
0,0,0,0,0,0,0,0,0,0,0,0,0,0,0,0,
0,0,0,0,0,0,0,0,0,0,0,0,2113,2114,0,0,
0,0,0,0,0,0,0,0,0,0,0,0,2129,2130,0,0,
0,0,0,0,0,0,0,0,0,0,0,0,0,0,2113,2114,
0,0,0,0,0,0,0,0,0,0,0,0,0,0,2129,2130,
0,0,0,0,0,0,0,0,3533,3534,3535,3536,0,0,0,0,
0,0,0,0,0,0,0,0,3549,3550,3551,3552,0,0,0,0,
0,0,0,0,0,0,0,0,0,0,0,0,0,0,0,0,
0,0,0,0,0,0,0,0,0,0,0,0,0,0,0,0,
0,0,0,0,0,0,0,0,0,0,0,0,3533,3534,3535,3536,
0,0,0,0,0,0,0,0,0,0,0,0,3549,3550,3551,3552,
0,0,0,0,0,0,0,0,0,0,0,0,0,0,0,0,
0,0,0,0,0,0,0,0,0,0,0,0,0,0,0,0,
0,0,0,0,0,0,0,0,0,0,0,0,0,0,0,0,
0,0,0,0,0,0,0,0,0,0,0,0,0,0,0,0,
0,0,0,0,0,0,0,0,0,0,0,0,0,0,0,0,
0,0,0,0,0,0,0,0,0,0,0,0,0,0,0,0,
0,0,0,0,0,0,0,0,0,0,0,0,0,0,0,0,
0,0,0,0,0,0,0,0,0,0,0,0,0,0,0,0,
0,0,0,0,0,0,0,0,0,0,0,0,0,0,0,0,
0,0,0,0,0,0,0,0,0,0,0,0,0,0,0,0,
0,0,0,0,0,0,0,0,0,0,0,0,0,0,0,0,
0,0,0,0,0,0,0,0,0,0,0,0,0,0,0,0,
0,0,0,0,0,0,0,0,3533,3534,3535,3536,0,0,0,0,
0,0,0,0,0,0,0,0,3549,3550,3551,3552,0,0,0,0,
0,0,0,0,0,0,0,0,0,0,0,0,0,0,0,0,
0,0,0,0,0,0,0,0,0,0,0,0,0,0,0,0,
0,0,0,0,0,0,0,0,0,0,0,0,3533,3534,3535,3536,
0,0,0,0,0,0,0,0,0,0,0,0,3549,3550,3551,3552,
0,0,0,0,0,0,0,0,3655,3656,3655,3656,0,0,0,0,
0,0,0,0,0,0,0,0,3671,3672,3671,3672,0,0,0,0,
0,0,0,0,0,0,0,0,0,0,3655,3656,0,0,0,0,
0,0,0,0,0,0,0,0,0,0,3671,3672,0,0,0,0,
0,0,0,0,0,0,0,0,0,0,0,0,0,0,0,0,
0,0,0,0,0,0,0,0,0,0,0,0,0,0,0,0,
0,0,0,0,0,0,0,0,0,0,3655,3656,3655,3656,0,0,
0,0,0,0,0,0,0,0,0,0,3671,3672,3671,3672,0,0,
0,0,0,0,0,0,0,0,0,0,3655,3656,0,0,0,0,
0,0,0,0,0,0,0,0,0,0,3671,3672,0,0,0,0,
0,0,0,0,0,0,0,0,0,0,0,0,0,0,0,0,
0,0,0,0,0,0,0,0,0,0,0,0,0,0,0,0,
0,0,0,0,0,0,0,0,0,0,0,0,0,0,0,0,
0,0,0,0,0,0,0,0,0,0,0,0,0,0,0,0,
0,0,0,0,0,0,0,0,0,0,0,0,0,0,0,0,
0,0,0,0,0,0,0,0,0,0,0,0,0,0,0,0,
0,0,0,0,0,0,0,0,0,0,0,0,0,0,0,0,
0,0,0,0,0,0,0,0,0,0,0,0,0,0,0,0,
0,0,0,0,0,0,2113,2114,0,0,0,0,0,0,0,0,
0,0,0,0,0,0,2129,2130,0,0,0,0,0,0,0,0,
0,0,0,0,0,0,0,0,3655,3656,3655,3656,3655,3656,3655,3656,
0,0,0,0,0,0,0,0,3671,3672,3671,3672,3671,3672,3671,3672,
0,0,0,0,0,0,3533,3534,3535,3536,0,0,0,0,0,0,
0,0,0,0,0,0,3549,3550,3551,3552,0,0,0,0,0,0,
0,0,0,0,0,0,0,0,0,0,0,0,0,0,0,0,
0,0,0,0,0,0,0,0,0,0,0,0,0,0,0,0,
0,0,0,0,0,0,0,0,0,0,0,0,0,0,0,0,
0,0,0,0,0,0,0,0,0,0,0,0,0,0,0,0,
0,0,0,0,0,0,0,0,0,0,0,0,0,0,0,0,
0,0,0,0,0,0,0,0,0,0,0,0,0,0,0,0,
0,0,0,0,0,0,0,0,0,0,0,0,0,0,0,0,
0,0,0,0,0,0,0,0,0,0,0,0,0,0,0,0,
0,0,0,0,0,0,0,0,0,0,0,0,0,0,0,0,
0,0,0,0,0,0,0,0,0,0,0,0,0,0,0,0,
0,0,0,0,0,0,0,0,0,0,0,0,0,0,0,0,
0,0,0,0,0,0,0,0,0,0,0,0,0,0,0,0,
0,0,0,0,0,0,0,0,0,0,0,0,0,0,0,0,
0,0,0,0,0,0,0,0,0,0,0,0,0,0,0,0,
0,0,0,0,0,0,0,0,0,0,0,0,0,0,0,0,
0,0,0,0,0,0,0,0,0,0,0,0,0,0,0,0,
0,0,0,0,0,0,0,0,0,0,0,0,0,0,0,0,
0,0,0,0,0,0,0,0,0,0,0,0,0,0,0,0,
0,0,0,0,0,0,0,0,0,0,0,0,0,0,0,0,
0,0,0,0,0,0,0,0,0,0,0,0,0,0,0,0,
0,0,0,0,0,0,0,0,0,0,0,0,0,0,0,0,
0,0,0,0,0,0,0,0,0,0,0,0,0,0,0,0,
0,0,0,0,0,0,0,0,0,0,0,0,0,0,0,0,
0,0,0,0,0,0,0,0,0,0,0,0,0,0,0,0,
2055,2056,2057,2058,2059,2060,0,0,0,0,0,0,0,0,0,0,
2071,2072,2073,2074,2075,2076,0,0,0,0,0,0,0,0,0,0,
2087,2088,2089,2090,2091,2092,0,0,0,0,0,0,0,0,0,0,
2103,2104,2105,2106,2107,2108,0,0,0,0,0,0,0,0,0,0,
2119,2120,2121,2122,2123,2124,0,0,0,0,0,0,0,0,0,0,
2135,2136,2137,2138,2139,2140,0,0,0,0,0,0,0,0,0,0,
2151,2152,2153,2154,2155,2156,0,0,0,0,0,0,0,0,0,0,
2167,2168,2169,2170,2171,2172,0,0,0,0,0,0,0,0,0,0,
0,0,0,0,0,0,0,0,0,0,0,0,0,0,0,0,
0,0,0,0,0,0,0,0,0,0,0,0,0,0,0,0,
0,0,0,0,0,0,0,0,0,0,0,0,0,0,0,0,
0,0,0,0,0,0,0,0,0,0,0,0,0,0,0,0,
0,0,0,0,0,0,0,0,0,0,0,0,0,0,0,0,
0,0,0,0,0,0,0,0,0,0,0,0,0,0,0,0,
0,0,0,0,0,0,0,0,0,0,0,0,0,0,0,0,
0,0,0,0,0,0,0,0,0,0,0,0,0,0,0,0,
0,0,0,0,0,0,0,0,0,0,0,0,0,0,0,0,
0,0,0,0,0,0,0,0,0,0,0,0,0,0,0,0,
0,0,0,0,0,0,0,0,0,0,0,0,0,0,0,0,
0,0,0,0,0,0,0,0,0,0,0,0,0,0,0,0,
0,0,0,0,0,0,0,0,0,0,0,0,0,0,0,0,
0,0,0,0,437,438,439,440,441,442,443,444,445,446,0,0,
0,0,0,0,453,454,455,456,457,458,459,460,461,462,0,0,
0,0,0,0,0,0,0,0,0,0,0,0,0,0,0,0,
0,0,0,0,0,0,0,0,0,0,0,0,0,0,0,0,
0,0,0,0,0,0,0,0,0,0,0,0,0,0,0,0,
0,0,0,0,0,0,0,0,0,0,0,0,0,0,0,0,
0,0,0,0,0,0,0,0,0,0,0,0,0,0,0,0,
0,0,0,0,0,0,0,0,0,0,0,0,0,0,0,0,
0,0,0,0,0,0,0,0,0,0,0,0,0,0,0,0,
0,0,0,0,0,0,0,0,0,0,0,0,0,0,0,0,
177,178,179,180,181,182,183,184,185,186,0,0,0,0,0,0,
193,194,195,196,197,198,199,200,201,202,0,0,0,0,0,0,
0,0,0,0,0,0,0,0,0,0,0,0,0,0,0,0,
0,0,0,0,0,0,0,0,0,0,0,0,0,0,0,0,
0,0,0,0,0,0,0,0,0,0,0,0,0,0,0,0,
0,0,0,0,0,0,0,0,0,0,0,0,0,0,0,0,
0,0,0,0,0,0,0,0,0,0,0,0,0,0,0,0,
0,0,0,0,0,0,0,0,0,0,0,0,0,0,0,0,
0,0,0,0,0,0,0,0,0,0,0,0,0,0,0,0,
0,0,0,0,0,0,0,0,0,0,0,0,0,0,0,0,
0,0,0,0,0,0,0,0,0,0,0,0,0,0,0,0,
0,0,0,0,0,0,0,0,0,0,0,0,0,0,0,0,
0,0,0,0,0,0,0,0,0,0,0,0,0,0,0,0,
0,0,0,0,0,0,0,0,0,0,0,0,0,0,0,0,
0,0,0,0,0,0,0,0,0,0,0,0,0,0,0,0,
0,0,0,0,0,0,0,0,0,0,0,0,0,0,0,0,
0,0,0,0,0,0,0,0,0,0,0,0,0,0,0,0,
0,0,0,0,0,0,0,0,0,0,0,0,0,0,0,0,
0,0,0,0,0,0,0,0,0,0,0,0,0,0,0,0,
0,0,0,0,0,0,0,0,0,0,0,0,0,0,0,0,
0,0,0,0,0,0,0,0,0,0,0,0,0,0,0,0,
0,0,0,0,0,0,0,0,0,0,0,0,0,0,0,0,
0,0,0,0,0,0,0,0,0,0,0,0,0,0,0,0,
0,0,0,0,0,0,2113,2114,2113,2114,3655,3656,0,0,0,0,
0,0,0,0,0,0,2129,2130,2129,2130,3671,3672,0,0,0,0,
0,0,0,0,0,0,0,0,0,0,0,0,0,0,0,0,
0,0,0,0,0,0,0,0,0,0,0,0,0,0,0,0,
0,0,0,0,0,0,0,0,0,0,0,0,0,0,0,0,
0,0,0,0,0,0,0,0,0,0,0,0,0,0,0,0,
0,0,0,0,0,0,0,0,0,0,0,0,0,0,0,0,
0,0,0,0,0,0,0,0,0,0,0,0,0,0,0,0,
0,0,0,0,0,0,0,0,0,0,0,0,0,0,0,0,
0,0,0,0,0,0,0,0,0,0,0,0,0,0,0,0,
0,0,0,0,0,0,0,0,0,0,0,0,0,0,0,0,
0,0,0,0,0,0,0,0,0,0,0,0,0,0,0,0,
0,0,0,0,0,0,0,0,0,0,0,0,0,0,0,0,
0,0,0,0,0,0,0,0,0,0,0,0,0,0,0,0,
0,0,0,0,0,0,0,0,0,0,0,0,0,0,0,0,
0,0,0,0,0,0,0,0,0,0,0,0,0,0,0,0,
0,0,0,0,0,0,0,0,0,0,0,0,0,0,0,0,
0,0,0,0,0,0,0,0,0,0,0,0,0,0,0,0,
0,0,0,0,0,0,0,0,0,0,0,0,0,0,0,0,
0,0,0,0,0,0,0,0,0,0,0,0,0,0,0,0,
0,0,0,0,0,0,0,0,0,0,0,0,3533,3534,3535,3536,
0,0,0,0,0,0,0,0,0,0,0,0,3549,3550,3551,3552,
897,898,899,900,901,902,0,0,0,0,0,0,0,0,0,0,
913,914,915,916,917,918,0,0,0,0,0,0,0,0,0,0,
961,962,963,964,965,966,0,0,0,0,0,0,0,0,0,0,
977,978,979,980,981,982,0,0,0,0,0,0,0,0,0,0,
0,0,0,0,0,0,0,0,0,0,0,0,0,0,0,0,
0,0,0,0,0,0,0,0,0,0,0,0,0,0,0,0,
0,0,0,0,0,0,0,0,0,0,0,0,0,0,0,0,
0,0,0,0,0,0,0,0,0,0,0,0,0,0,0,0,
0,0,0,0,0,0,0,0,0,0,0,0,0,0,0,0,
0,0,0,0,0,0,0,0,0,0,0,0,0,0,0,0,
0,0,0,0,0,0,0,0,0,0,0,0,0,0,0,0,
0,0,0,0,0,0,0,0,0,0,0,0,0,0,0,0,
0,0,0,0,0,0,0,0,0,0,0,0,0,0,0,0,
0,0,0,0,0,0,0,0,0,0,0,0,0,0,0,0,
897,898,899,900,901,902,897,898,899,900,901,902,0,0,0,0,
913,914,915,916,917,918,913,914,915,916,917,918,0,0,0,0,
0,0,0,0,0,0,0,0,0,0,0,0,0,0,0,0,
0,0,0,0,0,0,0,0,0,0,0,0,0,0,0,0,
0,0,0,0,0,0,0,0,0,0,0,0,0,0,0,0,
0,0,0,0,0,0,0,0,0,0,0,0,0,0,0,0,
961,962,963,964,965,966,961,962,963,964,965,966,0,0,0,0,
977,978,979,980,981,982,977,978,979,980,981,982,0,0,0,0,
0,0,0,0,0,0,0,0,0,0,0,0,0,0,0,0,
0,0,0,0,0,0,0,0,0,0,0,0,0,0,0,0,
0,0,0,0,0,0,0,0,0,0,0,0,0,0,0,0,
0,0,0,0,0,0,0,0,0,0,0,0,0,0,0,0,
0,0,0,0,0,0,0,0,0,0,0,0,0,0,0,0,
0,0,0,0,0,0,577,578,579,580,581,582,0,0,0,0,
0,0,0,0,0,0,0,0,0,0,0,0,0,0,0,0,
0,0,0,0,0,0,0,0,0,0,0,0,0,0,0,0,
3809,3810,3811,3812,3813,3814,0,0,0,0,0,0,0,0,0,0,
3825,3826,3827,3828,3829,3830,0,0,0,0,0,0,0,0,0,0,
0,0,0,0,0,0,0,0,0,0,0,0,0,0,0,0,
0,0,0,0,0,0,0,0,0,0,0,0,0,0,0,0,
0,0,0,0,0,0,0,0,0,0,0,0,0,0,0,0,
0,0,0,0,0,0,0,0,0,0,0,0,0,0,0,0,
0,0,0,0,0,0,0,0,0,0,0,0,0,0,0,0,
0,0,0,0,0,0,0,0,0,0,0,0,0,0,0,0,
0,0,0,0,0,0,0,0,0,0,0,0,0,0,0,0,
0,0,0,0,0,0,0,0,0,0,0,0,0,0,0,0,
0,0,0,0,0,0,0,0,0,0,0,0,0,0,0,0,
0,0,0,0,0,0,0,0,0,0,0,0,0,0,0,0,
0,0,0,0,0,0,0,0,0,0,0,0,0,0,0,0,
0,0,0,0,0,0,0,0,0,0,0,0,0,0,0,0,
0,0,0,0,0,0,0,0,0,0,0,0,0,0,0,0,
0,0,0,0,0,0,0,0,0,0,0,0,0,0,0,0,
0,0,0,0,0,0,0,0,0,0,0,0,0,0,0,0,
0,0,0,0,0,0,0,0,0,0,0,0,0,0,0,0,
0,0,0,0,0,0,0,0,0,0,0,0,0,0,0,0,
0,0,0,0,0,0,0,0,0,0,0,0,0,0,0,0,
0,0,0,0,0,0,0,0,0,0,0,0,0,0,0,0,
0,0,0,0,0,0,0,0,0,0,0,0,0,0,0,0,
0,0,0,0,0,0,0,0,0,0,0,0,0,0,0,0,
0,0,0,0,0,0,0,0,0,0,0,0,0,0,0,0,
0,0,0,0,0,0,0,0,0,0,0,0,0,0,0,0,
0,0,0,0,0,0,0,0,0,0,0,0,0,0,0,0,
0,0,0,0,0,0,0,0,0,0,0,0,0,0,0,0,
0,0,0,0,0,0,0,0,0,0,0,0,0,0,0,0,
0,0,0,0,0,0,0,0,0,0,0,0,0,0,0,0,
0,0,0,0,0,0,0,0,0,0,0,0,0,0,0,0,
0,0,0,0,0,0,0,0,0,0,0,0,0,0,0,0,
0,0,0,0,0,0,0,0,0,0,0,0,0,0,0,0,
0,0,0,0,0,0,0,0,0,0,0,0,0,0,0,0,
0,0,0,0,0,0,0,0,0,0,0,0,0,0,0,0,
0,0,0,0,0,0,0,0,0,0,0,0,0,0,0,0,
0,0,0,0,0,0,0,0,0,0,0,0,0,0,0,0,
0,0,0,0,0,0,0,0,0,0,0,0,0,0,0,0,
0,0,0,0,0,0,0,0,0,0,0,0,0,0,0,0,
0,0,0,0,0,0,0,0,0,0,0,0,0,0,0,0,
0,0,0,0,0,0,0,0,0,0,0,0,0,0,0,0,
0,0,0,0,0,0,0,0,0,0,0,0,0,0,0,0,
0,0,0,0,0,0,0,0,0,0,0,0,0,0,0,0,
0,0,0,0,0,0,0,0,0,0,0,0,0,0,0,0,
0,0,0,0,0,0,0,0,0,0,0,0,0,0,0,0,
0,0,0,0,0,0,0,0,0,0,0,0,0,0,0,0,
0,0,0,0,0,0,0,0,0,0,0,0,0,0,0,0
</data>
 </layer>
</map>
