<?xml version="1.0" encoding="UTF-8"?>
<map version="1.10" tiledversion="1.11.0" orientation="orthogonal" renderorder="right-down" width="16" height="256" tilewidth="8" tileheight="8" infinite="0" nextlayerid="4" nextobjectid="1">
 <tileset firstgid="1" name="4" tilewidth="8" tileheight="8" tilecount="2048" columns="16">
  <image source="M2/4.png" trans="ffffff" width="128" height="1024"/>
 </tileset>
 <tileset firstgid="2049" name="5" tilewidth="8" tileheight="8" tilecount="512" columns="16">
  <image source="M2/5.png" trans="ffffff" width="128" height="256"/>
 </tileset>
 <tileset firstgid="2561" name="1" tilewidth="8" tileheight="8" tilecount="1088" columns="16">
  <image source="M2/1.png" trans="ffffff" width="128" height="544"/>
 </tileset>
 <tileset firstgid="3649" name="2" tilewidth="8" tileheight="8" tilecount="1024" columns="16">
  <image source="M2/2.png" trans="ffffff" width="128" height="512"/>
 </tileset>
 <tileset firstgid="4673" name="3" tilewidth="8" tileheight="8" tilecount="2048" columns="16">
  <image source="M2/3.png" trans="ffffff" width="128" height="1024"/>
 </tileset>
 <tileset firstgid="6721" name="6" tilewidth="8" tileheight="8" tilecount="1072" columns="16">
  <image source="M2/6.png" trans="ffffff" width="128" height="542"/>
 </tileset>
 <tileset firstgid="7793" name="7" tilewidth="8" tileheight="8" tilecount="1024" columns="16">
  <image source="M2/7.png" trans="ffffff" width="128" height="512"/>
 </tileset>
 <tileset firstgid="8817" name="8" tilewidth="8" tileheight="8" tilecount="1024" columns="16">
  <image source="M2/8.png" trans="ffffff" width="128" height="512"/>
 </tileset>
 <tileset firstgid="9841" name="9" tilewidth="8" tileheight="8" tilecount="1024" columns="16">
  <image source="M2/9.png" trans="ffffff" width="128" height="512"/>
 </tileset>
 <tileset firstgid="10865" name="10" tilewidth="8" tileheight="8" tilecount="1024" columns="16">
  <image source="M2/10.png" trans="ffffff" width="128" height="512"/>
 </tileset>
 <tileset firstgid="11889" name="11" tilewidth="8" tileheight="8" tilecount="1024" columns="16">
  <image source="M2/11.png" trans="ffffff" width="128" height="512"/>
 </tileset>
 <layer id="1" name="buttom" width="16" height="256">
  <data encoding="csv">
0,0,577,578,579,580,581,582,0,0,579,580,8825,8826,8827,8828,
0,0,593,594,595,596,597,598,0,0,595,596,8843,8844,8843,8844,
579,580,579,580,579,580,8825,8826,8825,8826,8825,8826,8825,8826,8825,8826,
595,596,595,596,595,596,8843,8844,8843,8844,8843,8844,8843,8844,8843,8844,
579,580,579,580,579,580,8825,8826,8825,8826,8825,8826,8825,8826,8825,8826,
595,596,595,596,595,596,8843,8844,8843,8844,8843,8844,8843,8844,8843,8844,
579,580,579,580,579,580,579,580,0,0,0,0,579,580,579,580,
595,596,595,596,595,596,595,596,0,0,0,0,595,596,595,596,
579,580,579,580,579,580,579,580,0,0,0,0,579,580,579,580,
595,596,595,596,595,596,595,596,0,0,0,0,595,596,595,596,
579,580,0,0,579,580,579,580,0,0,0,0,579,580,579,580,
595,596,0,0,595,596,595,596,0,0,0,0,595,596,595,596,
1,2,3,4,5,6,7,8,0,0,579,580,579,580,579,580,
17,18,19,20,21,22,23,24,0,0,595,596,595,596,595,596,
33,34,35,36,37,38,39,40,0,0,579,580,579,580,579,580,
49,50,51,52,53,54,55,56,0,0,595,596,595,596,595,596,
579,580,579,580,579,580,579,580,579,580,579,579,580,580,579,580,
595,596,595,596,595,596,595,596,595,596,595,595,596,596,595,596,
579,580,0,0,0,0,579,580,193,194,195,196,197,198,199,200,
595,596,0,0,0,0,595,596,209,210,211,212,213,214,215,216,
579,580,353,354,355,356,579,580,225,226,227,228,229,230,231,232,
595,596,369,370,371,372,595,596,241,242,243,244,245,246,247,248,
579,580,579,580,579,580,579,580,579,580,0,0,0,0,579,580,
595,596,595,596,579,580,595,596,595,596,0,0,0,0,595,596,
579,580,579,580,0,0,0,0,417,418,9905,9906,0,0,455,456,
595,596,595,596,0,0,0,0,433,434,9921,9922,0,0,471,472,
385,386,387,388,433,434,433,434,453,454,579,580,579,580,433,434,
401,402,403,404,579,580,579,580,469,470,595,596,595,596,595,596,
579,580,579,580,579,580,579,580,579,580,433,434,433,434,579,580,
595,596,595,596,595,596,595,596,595,596,595,596,595,596,595,596,
579,580,579,580,579,580,579,580,579,580,579,580,3337,580,579,580,
595,596,595,596,595,596,595,596,595,596,595,596,3353,596,595,596,
579,580,579,580,579,580,579,580,579,580,579,580,579,580,579,580,
595,596,595,596,595,596,595,596,595,596,595,596,595,596,579,580,
579,580,579,580,579,580,579,580,579,580,579,580,579,580,0,0,
595,596,595,596,595,596,595,596,595,596,595,596,595,596,0,0,
579,580,579,580,579,580,579,580,579,580,579,580,579,580,0,0,
595,596,595,596,595,596,595,596,595,596,595,596,595,596,0,0,
929,930,931,932,933,934,935,936,937,938,939,940,941,942,0,0,
945,946,947,948,949,950,951,952,953,954,955,956,957,958,0,0,
961,962,963,964,965,966,967,968,969,970,971,972,973,974,0,0,
977,978,979,980,981,982,983,984,985,986,987,988,989,990,0,0,
579,580,579,996,997,998,999,1000,1001,1002,1003,580,579,580,0,0,
595,596,595,1012,1013,1014,1015,1016,1017,1018,1019,596,595,596,0,0,
579,580,579,580,579,580,579,580,579,580,579,580,579,580,579,580,
595,596,595,596,595,596,595,596,209,210,211,212,213,214,215,216,
579,580,353,354,355,356,579,580,225,226,227,228,229,230,231,232,
595,596,369,370,371,372,595,596,241,242,243,244,245,246,247,248,
579,580,0,0,579,580,595,596,595,596,595,596,595,596,0,0,
595,596,0,0,595,596,579,580,0,0,579,580,579,580,0,0,
1,2,3,4,5,6,871,872,3,4,5,6,7,8,0,0,
17,18,19,20,21,22,887,888,19,20,21,22,23,24,0,0,
33,34,35,36,37,38,903,904,35,36,37,38,39,40,0,0,
49,50,51,52,53,54,919,920,51,52,53,54,55,56,0,0,
579,3330,579,3330,0,0,0,0,0,0,0,0,0,0,0,0,
579,3346,433,3346,0,0,0,0,0,0,0,0,0,0,0,0,
0,0,0,0,0,0,0,0,0,0,0,0,0,0,0,0,
0,0,0,0,0,0,0,0,0,0,0,0,0,0,0,0,
579,580,579,580,579,580,579,580,579,580,579,580,579,580,0,0,
595,596,595,596,595,596,579,580,579,580,579,580,579,580,0,0,
1,2,3,4,5,6,871,872,3,4,5,6,7,8,0,0,
17,18,19,20,21,22,887,888,19,20,21,22,23,24,0,0,
33,34,35,36,37,38,903,904,35,36,37,38,39,40,0,0,
49,50,51,52,53,54,919,920,51,52,53,54,55,56,0,0,
1,2,3,4,5,6,871,872,3,4,5,6,7,8,0,0,
17,18,19,20,21,22,887,888,19,20,21,22,23,24,0,0,
33,34,35,36,37,38,903,904,35,36,37,38,39,40,0,0,
49,50,51,52,53,54,919,920,51,52,53,54,55,56,0,0,
581,582,581,582,581,582,579,580,579,580,579,580,581,582,581,582,
597,598,597,598,597,598,579,580,595,596,595,596,597,598,597,598,
581,582,581,582,581,582,595,596,579,580,579,580,581,582,581,582,
597,598,597,598,597,598,595,596,595,596,595,596,597,598,597,598,
581,582,581,582,581,582,579,580,579,580,579,580,581,582,581,582,
597,598,597,598,597,598,595,596,595,596,595,596,597,598,597,598,
581,582,581,582,581,582,579,580,579,580,579,580,581,582,581,582,
597,598,597,598,597,598,595,596,595,596,595,596,597,598,597,598,
581,582,581,582,581,582,0,0,579,580,579,580,579,580,579,580,
597,598,597,598,597,598,0,0,595,596,595,596,595,596,595,596,
579,580,579,580,579,580,0,0,581,582,579,580,579,580,579,580,
595,596,595,596,595,596,0,0,597,598,595,596,595,596,595,596,
581,582,581,582,581,582,581,582,581,582,581,582,581,582,581,582,
597,598,597,598,597,598,597,598,597,598,597,598,597,598,597,598,
581,582,0,0,0,0,0,0,581,582,581,582,581,582,581,582,
597,598,0,0,0,0,0,0,597,598,597,598,597,598,597,598,
581,582,581,582,581,582,581,582,581,582,0,0,0,0,581,582,
597,598,597,598,597,598,597,598,597,598,0,0,0,0,597,598,
581,582,581,582,581,582,581,582,581,582,581,582,581,582,581,582,
597,598,597,598,597,598,597,598,597,598,597,598,597,598,597,598,
581,582,581,582,581,582,581,582,581,582,581,582,581,582,581,582,
597,598,597,598,597,598,597,598,597,598,597,598,597,598,597,598,
581,582,581,582,581,582,581,582,581,582,581,582,581,582,581,582,
597,598,597,598,597,598,597,598,597,598,597,598,597,598,597,598,
581,582,581,582,581,582,581,582,581,582,581,582,581,582,581,582,
597,598,597,598,597,598,597,598,597,598,597,598,597,598,597,598,
581,582,581,582,581,582,581,582,581,582,581,582,581,582,581,582,
597,598,597,598,597,598,597,598,597,598,597,598,597,598,597,598,
581,582,581,582,581,582,581,582,581,582,581,582,579,580,579,580,
597,598,597,598,597,598,597,598,597,598,597,598,595,596,595,596,
581,582,581,582,581,582,581,582,581,582,581,582,579,580,595,596,
597,598,597,598,597,598,597,598,597,598,597,598,595,596,579,580,
581,582,581,582,581,582,581,582,581,582,581,582,579,580,595,596,
597,598,597,598,597,598,597,598,597,598,597,598,595,596,595,596,
581,582,581,582,581,582,581,582,581,582,581,582,579,580,579,580,
597,598,597,598,597,598,597,598,597,598,597,598,595,596,595,596,
581,582,581,582,581,582,581,582,581,582,581,582,579,580,579,580,
597,598,597,598,597,598,597,598,597,598,597,598,595,596,595,596,
579,580,579,580,579,580,579,580,579,580,579,580,579,580,579,580,
595,596,595,596,595,596,595,596,595,596,595,596,595,596,595,596,
579,580,579,580,579,580,579,580,579,580,579,580,579,580,579,580,
595,596,595,596,595,596,595,596,595,596,595,596,595,596,595,596,
579,580,579,580,579,580,579,580,579,580,579,580,579,580,579,580,
595,596,595,596,595,596,595,596,595,596,595,596,595,596,595,596,
579,580,579,580,579,580,579,580,579,580,579,580,579,580,579,580,
595,596,595,596,595,596,595,596,595,596,595,596,595,596,595,596,
579,580,579,580,579,580,579,580,579,580,579,580,579,580,579,580,
595,596,595,596,595,596,595,596,595,596,595,596,595,596,595,596,
579,580,579,580,579,580,579,580,579,580,579,580,579,580,579,580,
595,596,595,596,595,596,595,596,595,596,595,596,595,596,595,596,
579,580,579,580,579,580,579,580,579,580,579,580,579,580,579,580,
595,596,595,596,595,596,595,596,595,596,595,596,595,596,595,596,
579,580,579,580,579,580,579,580,579,580,579,580,579,580,579,580,
595,596,595,596,595,596,595,596,595,596,595,596,595,596,595,596,
579,580,579,580,579,580,579,580,579,580,579,580,579,580,579,580,
595,596,595,596,595,596,595,596,595,596,595,596,595,596,595,596,
579,580,579,580,579,580,579,580,579,580,579,580,579,580,579,580,
595,596,595,596,595,596,595,596,595,596,595,596,595,596,595,596,
579,580,579,580,579,580,579,580,579,580,579,580,579,580,579,580,
579,580,579,580,579,580,579,580,579,580,579,580,579,580,579,580,
595,596,595,596,595,596,595,596,595,596,595,596,595,596,595,596,
579,580,579,580,579,580,579,580,579,580,579,580,579,580,579,580,
595,596,595,596,595,596,595,596,595,596,595,596,595,596,595,596,
595,596,595,596,595,596,595,596,595,596,595,596,595,596,595,596,
579,580,0,0,0,0,0,0,579,580,579,580,579,580,579,580,
595,596,0,0,0,0,0,0,595,596,595,596,595,596,595,596,
579,580,579,580,579,580,0,0,579,580,579,580,579,580,579,580,
595,596,595,596,595,596,9923,9924,595,596,595,596,595,596,595,596,
0,0,579,580,0,0,0,0,579,580,579,580,579,580,0,0,
0,0,595,596,0,0,0,0,595,596,595,596,595,596,0,0,
0,0,0,0,0,0,0,0,579,580,579,580,579,580,579,580,
0,0,0,0,0,0,0,0,595,596,595,596,595,596,595,596,
0,0,0,0,0,0,0,0,0,0,0,0,0,0,0,0,
0,0,0,0,0,0,0,0,0,0,0,0,0,0,0,0,
0,0,0,0,0,0,0,0,0,0,0,0,0,0,0,0,
0,0,0,0,0,0,0,0,0,0,0,0,0,0,0,0,
579,580,579,580,0,0,0,0,579,580,579,580,0,0,0,0,
595,596,595,596,0,0,0,0,595,596,595,596,0,0,0,0,
833,834,835,836,0,0,0,0,579,580,579,580,0,0,0,0,
849,850,851,852,0,0,0,0,595,596,595,596,0,0,0,0,
0,0,0,0,1093,1094,0,0,0,0,0,0,0,0,1103,1104,
0,0,0,0,1109,1110,0,0,0,0,0,0,0,0,1119,1120,
0,0,0,0,579,580,579,580,0,0,0,0,579,580,579,580,
0,0,0,0,595,596,595,596,0,0,0,0,595,596,595,596,
0,0,0,0,837,838,839,840,0,0,0,0,845,846,847,848,
0,0,0,0,853,854,855,856,0,0,0,0,861,862,863,864,
0,0,0,0,579,580,0,0,0,0,0,0,579,580,0,0,
0,0,0,0,595,596,0,0,0,0,0,0,595,596,0,0,
0,0,0,0,1061,1062,0,0,0,0,0,0,1069,1070,0,0,
0,0,0,0,1077,1078,0,0,0,0,0,0,1085,1086,0,0,
579,580,579,580,579,580,579,580,579,580,579,580,579,580,579,580,
595,596,595,596,595,596,595,596,595,596,595,596,595,596,595,596,
579,580,579,580,579,580,579,580,579,580,579,580,579,580,579,580,
595,596,595,596,595,596,595,596,595,596,595,596,595,596,595,596,
579,580,579,580,579,580,579,580,579,580,579,580,579,580,579,580,
595,596,595,596,595,596,595,596,595,596,595,596,595,596,595,596,
579,580,579,580,579,580,579,580,579,580,579,580,579,580,579,580,
595,596,595,596,595,596,595,596,595,596,595,596,595,596,595,596,
579,580,579,580,579,580,579,580,579,580,579,580,579,580,579,580,
595,596,595,596,595,596,595,596,595,596,595,596,595,596,595,596,
579,580,579,580,579,580,579,580,579,580,579,580,579,580,579,580,
595,596,595,596,595,596,595,596,595,596,595,596,595,596,595,596,
579,580,579,580,579,580,579,580,579,580,579,580,579,580,579,580,
595,596,595,596,595,596,595,596,595,596,595,596,595,596,595,596,
579,580,579,580,579,580,579,580,579,580,579,580,579,580,579,580,
579,580,579,580,579,580,579,580,579,580,579,580,579,580,579,580,
595,596,595,596,595,596,595,596,595,596,595,596,595,596,595,596,
579,580,579,580,579,580,579,580,579,580,579,580,0,0,0,0,
595,596,595,596,595,596,595,596,595,596,595,596,0,0,0,0,
579,580,579,580,579,580,579,580,579,580,579,580,0,0,0,0,
595,596,595,596,595,596,595,596,595,596,595,596,0,0,0,0,
579,580,579,580,579,580,579,580,579,580,579,580,0,0,0,0,
595,596,595,596,595,596,595,596,595,596,595,596,0,0,0,0,
579,580,579,580,579,580,579,580,579,580,579,580,0,0,0,0,
595,596,595,596,595,596,595,596,595,596,595,596,0,0,0,0,
579,580,579,580,579,580,579,580,579,580,579,580,0,0,0,0,
595,596,595,596,595,596,0,0,0,0,0,0,0,0,0,0,
579,580,579,580,579,580,0,0,0,0,0,0,0,0,0,0,
595,596,595,596,595,596,0,0,0,0,595,596,595,596,0,0,
579,580,579,580,579,580,0,0,0,0,579,580,579,580,0,0,
595,596,595,596,595,596,0,0,355,356,0,0,0,0,353,354,
579,580,579,580,579,580,0,0,371,372,0,0,0,0,369,370,
0,0,0,0,0,0,0,0,0,0,353,354,355,356,0,0,
0,0,0,0,0,0,0,0,0,0,369,370,371,372,0,0,
0,0,0,0,0,0,0,0,355,356,0,0,0,0,353,354,
0,0,0,0,0,0,0,0,371,372,0,0,0,0,369,370,
595,596,595,596,595,596,595,596,0,0,0,0,0,0,0,0,
579,580,579,580,579,580,579,580,0,0,0,0,0,0,0,0,
595,596,595,596,595,596,595,596,0,0,0,0,0,0,0,0,
579,580,579,580,579,580,579,580,0,0,0,0,0,0,0,0,
595,596,10931,10932,10933,10934,595,596,0,0,0,0,10941,10942,10943,10944,
579,580,10947,10948,10949,10950,579,580,0,0,0,0,10957,10958,10959,10960,
595,596,595,596,595,596,595,596,0,0,0,0,10973,10974,10975,10976,
579,580,579,580,579,580,579,580,0,0,0,0,10989,10990,10991,10992,
0,0,0,0,0,0,0,0,0,0,0,0,595,596,595,596,
0,0,0,0,0,0,0,0,0,0,0,0,579,580,579,580,
595,596,595,596,595,596,595,596,0,0,0,0,595,596,595,596,
579,580,579,580,579,580,579,580,0,0,0,0,579,580,579,580,
595,596,595,596,595,596,595,596,595,596,595,596,595,596,595,596,
579,580,579,580,579,580,579,580,579,580,579,580,579,580,579,580,
595,596,11091,11092,595,596,595,596,595,596,595,596,595,596,595,596,
579,580,11107,11108,579,580,579,580,579,580,579,580,579,580,579,580,
595,596,595,596,595,596,595,596,595,596,595,596,0,0,0,0,
579,580,579,580,579,580,579,580,579,580,579,580,0,0,0,0,
9841,9842,9843,9844,9845,9846,9847,9848,9849,9850,9851,9852,9853,9854,9855,9856,
9857,9858,9859,9860,9861,9862,9863,9864,9865,9866,9867,9868,9869,9870,9871,9872,
9873,9874,9875,9876,9877,9878,9879,9880,9881,9882,9883,9884,9885,9886,9887,9888,
9889,9890,9891,9892,9893,9894,9895,9896,9897,9898,9899,9900,9901,9902,9903,9904,
9905,9906,9907,9908,9909,9910,9911,9912,9913,9914,9915,9916,9917,9918,9919,9920,
9921,9922,9923,9924,9925,9926,9927,9928,9929,9930,9931,9932,9933,9934,9935,9936,
9937,9938,9939,9940,9941,9942,9943,9944,9945,9946,9947,9948,9949,9950,9951,9952,
9953,9954,9955,9956,9957,9958,9959,9960,9961,9962,9963,9964,9965,9966,9967,9968,
9969,9970,9971,9972,9973,9974,9975,9976,9977,9978,9979,9980,9981,9982,9983,9984,
9985,9986,9987,9988,9989,9990,9991,9992,9993,9994,9995,9996,9997,9998,9999,10000,
10001,10002,10003,10004,10005,10006,10007,10008,10009,10010,10011,10012,10013,10014,10015,10016,
10017,10018,10019,10020,10021,10022,10023,10024,10025,10026,10027,10028,10029,10030,10031,10032,
0,0,0,0,0,0,0,0,0,0,0,0,0,0,0,0,
0,0,0,0,0,0,0,0,0,0,0,0,0,0,0,0,
0,0,0,0,0,0,0,0,0,0,0,0,0,0,0,0,
0,0,0,0,0,0,0,0,0,0,0,0,0,0,0,0,
0,0,0,0,0,0,0,0,0,0,0,0,0,0,0,0,
0,0,0,0,0,0,0,0,0,0,0,0,0,0,0,0,
0,0,0,0,0,0,0,0,0,0,0,0,0,0,0,0,
0,0,0,0,0,0,0,0,0,0,0,0,0,0,0,0,
0,0,0,0,0,0,0,0,0,0,0,0,0,0,0,0,
0,0,0,0,0,0,0,0,0,0,0,0,0,0,0,0,
0,0,0,0,0,0,0,0,0,0,0,0,0,0,0,0,
0,0,0,0,0,0,0,0,0,0,0,0,0,0,0,0,
0,0,0,0,0,0,0,0,0,0,0,0,0,0,0,0,
0,0,0,0,0,0,0,0,0,0,0,0,0,0,0,0,
0,0,0,0,0,0,0,0,0,0,0,0,0,0,0,0,
0,0,0,0,0,0,0,0,0,0,0,0,0,0,0,0,
0,0,0,0,0,0,0,0,0,0,0,0,0,0,0,0,
0,0,0,0,0,0,0,0,0,0,0,0,0,0,0,0,
0,0,0,0,0,0,0,0,0,0,0,0,0,0,0,0,
0,0,0,0,0,0,0,0,0,0,0,0,0,0,0,0,
0,0,0,0,0,0,0,0,0,0,0,0,0,0,0,0,
0,0,0,0,0,0,0,0,0,0,0,0,0,0,0,0,
0,0,0,0,0,0,0,0,0,0,0,0,0,0,0,0,
0,0,0,0,0,0,0,0,0,0,0,0,0,0,0,0,
0,0,0,0,0,0,0,0,0,0,0,0,0,0,0,0,
0,0,0,0,0,0,0,0,0,0,0,0,0,0,0,0,
0,0,0,0,0,0,0,0,0,0,0,0,0,0,0,0,
0,0,0,0,0,0,0,0,0,0,0,0,0,0,0,0,
0,0,0,0,0,0,0,0,0,0,0,0,0,0,0,0,
0,0,0,0,0,0,0,0,0,0,0,0,0,0,0,0,
0,0,0,0,0,0,0,0,0,0,0,0,0,0,0,0,
0,0,0,0,0,0,0,0,0,0,0,0,0,0,0,0
</data>
 </layer>
 <layer id="2" name="middle" width="16" height="256">
  <data encoding="csv">
0,0,0,0,0,0,0,0,0,0,2053,2054,2053,2054,2053,2054,
0,0,0,0,0,0,0,0,0,0,2069,2070,2069,2070,2069,2070,
11929,11930,11931,11932,11993,11994,0,0,2121,2122,2123,2124,0,0,0,0,
11945,11946,11947,11948,12009,12010,0,0,2137,2138,2139,2140,0,0,0,0,
11961,11962,11963,11964,12091,12092,0,0,2153,2154,2155,2156,2083,2084,2085,2086,
11977,11978,11979,11980,12107,12108,0,0,0,0,2171,2172,2099,2100,2101,2102,
4673,4674,4675,4676,4677,4678,4679,4680,0,0,0,0,8817,8818,8819,8820,
4689,4690,4691,4692,4693,4694,4695,4696,0,0,0,0,8833,8834,8835,8836,
4705,4706,4707,4708,4709,4710,4711,4712,0,0,0,0,8849,8850,8851,8852,
4721,4722,4723,4724,4725,4726,4727,4728,0,0,0,0,8865,8866,8867,8868,
4737,4738,4739,4740,4741,4742,4743,4744,0,0,0,0,8881,8882,8883,8884,
4753,4754,4755,4756,4757,4758,4759,4760,0,0,0,0,8897,8898,8899,8900,
4769,4770,4771,4772,4773,4774,4775,4776,0,0,11967,11968,11901,11902,11903,11904,
4785,4786,4787,4788,4789,4790,4791,4792,0,0,11983,11984,11917,11918,11919,11920,
4801,4802,4803,4804,4805,4806,4807,4808,0,0,11999,12000,11933,11934,11935,11936,
4817,4818,4819,4820,4821,4822,4823,4824,0,0,12015,12016,11949,11950,11951,11952,
5185,5186,5187,5188,5189,5190,5191,5192,0,0,5003,5004,5005,5006,5007,5200,
5201,5202,5203,5204,5205,5206,5207,5208,5209,5018,5019,5020,5021,5022,5023,5216,
5217,5218,5219,5220,5221,5222,5223,5224,5225,5034,5035,5036,5037,5038,5039,5232,
5233,5234,5235,5236,5237,5238,5239,5240,5241,5050,5051,5052,5053,5054,5055,5248,
5249,5250,5251,5252,5253,5254,5255,5256,5257,5066,5067,5068,5069,5070,5071,5264,
5265,5266,5267,5268,5269,5270,5271,5272,5273,5082,5083,5084,5085,5018,5087,5280,
5281,5282,5283,5284,5191,3330,3337,3338,5289,5290,9873,9874,9877,9878,5383,5384,
5297,5298,5299,5300,5207,3346,3353,3354,5305,5306,9889,9890,9893,9894,5399,5400,
5313,5314,5315,5316,9873,9874,9877,9878,5321,5322,5289,5290,0,0,5415,5416,
5329,5330,5331,5332,9889,9890,9893,9894,5337,5338,5305,5306,0,0,5431,5432,
5345,5346,5347,5348,5323,5324,5323,5324,5413,5414,5191,3330,3337,3338,5323,5324,
5361,5362,5363,5364,5339,5340,5339,5340,5429,5430,5207,3346,3353,3354,5339,5340,
0,0,5135,0,0,5130,3265,3266,3273,3274,5323,5324,5323,5324,0,0,
0,3282,5151,3282,3289,5146,3281,3282,3289,3290,5339,5340,5339,5340,3289,0,
0,0,5605,5606,5607,5608,5609,5610,5611,5612,5613,5614,5323,5324,3337,0,
0,0,5621,5622,5623,5624,5625,5626,5627,5628,5629,5630,5339,5340,3353,0,
0,0,5637,5638,5639,5640,5641,5642,5643,5644,5645,5646,5647,5648,8881,8882,
0,0,5653,5654,5655,5656,5657,5658,5659,5660,5661,5662,5663,5664,8897,8898,
5667,5668,5669,5670,5671,5672,5673,5674,5675,5676,5677,5678,5679,5680,0,0,
5683,5684,5685,5686,5687,5688,5689,5690,5691,5692,5693,5694,5695,5696,0,0,
5699,5700,5701,5702,5703,5704,5705,5706,5707,5708,5709,5710,5711,5712,0,0,
5715,5716,5717,5718,5719,5720,5721,5722,5723,5724,5725,5726,5727,5728,0,0,
5731,5732,5733,5734,5735,5736,5737,5738,5739,5740,5741,5742,5743,5744,0,0,
5747,5748,5749,5750,5751,5752,5753,5754,5755,5756,5757,5758,5759,5760,0,0,
5763,5764,5765,5766,5767,5768,5769,5770,5771,5772,5773,5774,5775,5776,0,0,
5779,5780,5781,5782,5783,5784,5785,5786,5787,5788,5789,5790,5791,5792,0,0,
5795,5796,5797,5798,5799,5800,5801,5802,5803,5804,5805,5806,5807,5808,0,0,
5811,5812,5813,5814,5815,5816,5817,5818,5819,5820,5821,5822,5823,5824,0,0,
0,5218,5219,5220,5221,5222,5223,0,0,5034,5035,5036,5037,5038,5039,0,
0,5234,5235,5236,5237,5238,5239,0,0,5050,5051,5052,5053,5054,5055,0,
5250,5250,5251,5252,5253,5254,5255,0,0,5066,5067,5068,5069,5070,5071,0,
5266,5266,5267,5268,5269,5270,5271,0,5082,5082,5083,5084,5085,5086,5087,0,
4737,4738,4739,4740,4741,4742,5601,5602,4739,4740,4741,4742,4743,4744,0,0,
4753,4754,4755,4756,4757,4758,5617,5618,4755,4756,4757,4758,4759,4760,0,0,
4769,4770,4771,4772,4773,4774,5633,5634,4771,4772,4773,4774,4775,4776,0,0,
4785,4786,4787,4788,4789,4790,5649,5650,4787,4788,4789,4790,4791,4792,0,0,
4801,4802,4803,4804,4805,4806,4807,4808,4803,4804,4805,4806,4807,4808,0,0,
4817,4818,4819,4820,4821,4822,4823,4824,4819,4820,4821,4822,4823,4824,0,0,
5069,5070,5321,5322,0,0,0,0,0,0,0,0,0,0,0,0,
5085,5018,5337,5338,0,0,0,0,0,0,0,0,0,0,0,0,
0,0,0,0,0,0,0,0,0,0,0,0,0,0,0,0,
0,0,0,0,0,0,0,0,0,0,0,0,0,0,0,0,
4737,4738,4739,4740,4741,4742,5601,5602,4739,4740,4741,4742,4743,4744,0,0,
4753,4754,4755,4756,4757,4758,5617,5618,4755,4756,4757,4758,4759,4760,0,0,
4769,4770,4771,4772,4773,4774,5633,5634,4771,4772,4773,4774,4775,4776,0,0,
4785,4786,4787,4788,4789,4790,5649,5650,4787,4788,4789,4790,4791,4792,0,0,
4801,4802,4803,4804,4805,4806,4807,4808,4803,4804,4805,4806,4807,4808,0,0,
4817,4818,4819,4820,4821,4822,4823,4824,4819,4820,4821,4822,4823,4824,0,0,
0,0,0,0,0,0,0,0,0,0,0,0,0,0,0,0,
0,0,0,0,0,0,0,0,0,0,0,0,0,0,0,0,
0,0,0,0,0,0,0,0,0,0,0,0,0,0,0,0,
0,0,0,0,0,0,0,0,0,0,0,0,0,0,0,0,
2561,2562,2563,2564,2565,2566,2567,2568,2569,2570,2571,2572,2573,2574,2575,2576,
2577,2578,2579,2580,2581,2582,2583,2584,2585,2586,2587,2588,2589,2590,2591,2592,
2593,2594,2595,2596,2597,2598,2599,2600,2601,2602,2603,2604,2605,2606,2607,2608,
2609,2610,2611,2612,2613,2614,2615,2616,2617,2618,2619,2620,2621,2622,2623,2624,
2625,2626,2627,2628,2629,2630,2631,2632,2633,2634,2635,2636,2637,2638,2639,2640,
2641,2642,2643,2644,2645,2646,2647,2648,2649,2650,2651,2652,2653,2654,2655,2656,
2657,2658,2659,2660,2661,2662,2663,2664,2665,2666,2667,2668,2669,2670,2671,2672,
2673,2674,2675,2676,2677,2678,2679,2680,2681,2682,2683,2684,2685,2686,2687,2688,
2689,2690,2691,2692,2693,2694,0,0,2697,2698,2699,2700,2701,2702,2703,2704,
2705,2706,2707,2708,2709,2710,0,0,2713,2714,2715,2716,2717,2718,2719,2720,
2657,2658,2659,2660,2661,2662,0,0,2731,2732,2731,2732,2733,2734,2735,2736,
2673,2674,2675,2676,2677,2678,0,0,2747,2748,2747,2748,0,0,0,0,
2721,2722,2723,2724,2725,2726,2727,2728,2729,2730,0,0,0,0,0,0,
2737,2738,2739,2740,2741,2742,2743,2744,2745,2746,0,0,2749,2750,2751,2752,
2753,2754,2755,2756,2757,2758,2759,2760,2761,2762,2763,2764,2765,2766,2767,2768,
2769,2770,2771,2772,2773,2774,2775,2776,2777,2778,2779,2780,2781,2782,2783,2784,
2785,2786,2787,2788,2789,2790,2791,2792,2793,2794,2795,2796,2797,2798,2799,2800,
2801,2802,2803,2804,2805,2806,2807,2808,2809,2810,2811,2812,2813,2814,2815,2816,
2817,2818,2819,2820,2821,2822,2823,2824,2825,2826,2827,2828,2829,2830,2831,2832,
2833,2834,2835,2836,2837,2838,2839,2840,2841,2842,2843,2844,2845,2846,2847,2848,
2849,2850,2851,2852,2853,2854,2855,2856,2857,2858,2859,2860,2861,2862,2863,2864,
2865,2866,2867,2868,2869,2870,2871,2872,2873,2874,2875,2876,2877,2878,2879,2880,
2881,2882,2883,2884,2885,2886,2887,2888,2889,2890,2891,2892,2893,2894,2895,2896,
2897,2898,2899,2900,2901,2902,2903,2904,2905,2906,2907,2908,2909,2910,2911,2912,
2913,2914,2915,2916,2917,2918,2919,2920,2921,2922,2923,2924,2925,2926,2927,2928,
2929,2930,2931,2932,2933,2934,2935,2936,2937,2938,2939,2940,2941,2942,2943,2944,
2945,2946,2947,2948,2949,2950,2951,2952,2953,2954,2955,2956,2957,2958,2959,2960,
2961,2962,2963,2964,2965,2966,2967,2968,2969,2970,2971,2972,2973,2974,2975,2976,
2977,2978,2979,2980,2981,2982,2983,2984,2985,2986,2987,2988,2989,2990,2991,2992,
2993,2994,2995,2996,2997,2998,2999,3000,3001,3002,3003,3004,3005,3006,3007,3008,
3009,3010,3011,3012,3013,3014,3015,3016,3017,3018,3019,3020,3021,3022,3023,3024,
3025,3026,3027,3028,3029,3030,3031,3032,3033,3034,3035,3036,3037,3038,3039,3040,
3041,3042,3043,3044,3045,3046,3047,3048,3049,3050,3051,3052,3053,3054,3055,3056,
3057,3058,3059,3060,3061,3062,3063,3064,3065,3066,3067,3068,3069,3070,3071,3072,
3073,3074,3075,3076,3077,3078,3079,3080,3081,3082,3083,3084,3085,3086,3087,3088,
3089,3090,3091,3092,3093,3094,3095,3096,3097,3098,3099,3100,3101,3102,3103,3104,
3105,3106,3107,3108,3109,3110,3111,3112,3113,3114,3115,3116,3117,3118,3119,3120,
3121,3122,3123,3124,3125,3126,3127,3128,3129,3130,3131,3132,3133,3134,3135,3136,
3265,3266,3267,3268,3269,3270,3271,3272,3273,3274,3275,3276,3277,3278,3279,3280,
3281,3282,3283,3284,3285,3286,3287,3288,3289,3290,3291,3292,3293,3294,3295,3296,
3297,3298,3299,3300,3301,3302,3303,3304,3305,3306,3307,3308,3309,3310,3311,3312,
3313,3314,3315,3316,3317,3318,3319,3320,3321,3322,3323,3324,3325,3326,3327,3328,
3329,3330,3331,3332,3333,3334,3335,3336,3337,3338,3339,3340,3341,3342,3343,3344,
3345,3346,3347,3348,3349,3350,3351,3352,3353,3354,3355,3356,3357,3358,3359,3360,
3361,3362,3363,3364,3365,3366,3367,3368,3369,3370,3371,3372,3373,3374,3375,3376,
3377,3378,3379,3380,3381,3382,3383,3384,3385,3386,3387,3388,3389,3390,3391,3392,
3393,3394,3395,3396,3397,3398,3399,3400,3401,3402,3403,3404,3405,3406,3407,3408,
3409,3410,3411,3412,3413,3414,3415,3416,3417,3418,3419,3420,3421,3422,3423,3424,
3425,3426,3427,3428,3429,3430,3431,3432,3433,3434,3435,3436,3437,3438,3439,3440,
3441,3442,3443,3444,3445,3446,3447,3448,3449,3450,3451,3452,3453,3454,3455,3456,
3457,3458,3459,3460,3461,3462,3463,3464,3465,3466,3467,3468,3469,3470,3471,3472,
3473,3474,3475,3476,3477,3478,3479,3480,3481,3482,3483,3484,3485,3486,3487,3488,
3649,3650,3651,3652,3653,3654,3655,3656,3657,3658,3659,3660,3661,3662,3663,3664,
3665,3666,3667,3668,3669,3670,3671,3672,3673,3674,3675,3676,3677,3678,3679,3680,
3681,3682,3683,3684,3685,3686,3687,3688,3689,3690,3691,3692,3693,3694,3695,3696,
3697,3698,3699,3700,3701,3702,3703,3704,3705,3706,3707,3708,3709,3710,3711,3712,
3713,3714,3715,3716,3717,3718,3719,3720,3721,3722,3723,3724,3725,3726,3727,3728,
3729,3730,3731,3732,3733,3734,3735,3736,3737,3738,3739,3740,3741,3742,3743,3744,
3745,3746,3747,3748,3749,3750,3751,3752,3753,3754,3755,3756,3757,3758,3759,3760,
3761,3762,3763,3764,3765,3766,3767,3768,3769,3770,3771,3772,3773,3774,3775,3776,
3777,3778,3779,3780,3781,3782,3783,3784,3785,3786,3787,3788,3789,3790,3791,3792,
3793,3794,3795,3796,3797,3798,3799,3800,3801,3802,3803,3804,3805,3806,3807,3808,
3809,3810,3811,3812,3813,3814,3815,3816,3817,3818,3819,3820,3821,3822,3823,3824,
3825,3826,3827,3828,3829,3830,3831,3832,3833,3834,3835,3836,3837,3838,3839,3840,
3337,3338,9907,9908,9909,9910,9905,9906,8889,8890,8827,8828,8891,8892,8829,8830,
3353,3354,9923,9924,9925,9926,9921,9922,8905,8906,8843,8844,8907,8908,8845,8846,
3329,3330,3397,3398,3397,3398,9843,9844,8923,8924,8825,8826,8921,8922,8831,8832,
3345,3346,0,0,0,0,0,0,8939,8940,8841,8842,8937,8938,8847,8848,
0,0,3425,3426,0,0,0,0,8927,8928,8859,8860,8861,8862,8843,8844,
0,0,3441,3442,0,0,0,0,8943,8944,8875,8876,8877,8878,8825,8826,
0,0,0,0,0,0,0,0,8955,8956,8953,8954,8957,8958,8959,8960,
0,0,0,0,0,0,0,0,8971,8972,8969,8970,8973,8974,8975,8976,
0,0,0,0,0,0,0,0,0,0,0,0,0,0,0,0,
0,0,0,0,0,0,0,0,0,0,0,0,0,0,0,0,
0,0,0,0,0,0,0,0,0,0,0,0,0,0,0,0,
0,0,0,0,0,0,0,0,0,0,0,0,0,0,0,0,
6785,6786,6787,6788,0,0,0,0,6793,6794,6795,6796,0,0,0,0,
6801,6802,6803,6804,0,0,0,0,6809,6810,6811,6812,0,0,0,0,
6817,6818,6819,6820,0,0,0,0,6825,6826,6827,6828,0,0,0,0,
6833,6834,6835,6836,0,0,0,0,6841,6842,6843,6844,0,0,0,0,
0,0,0,0,6853,6854,0,0,0,0,0,0,0,0,6863,6864,
0,0,0,0,6869,6870,0,0,0,0,0,0,0,0,6879,6880,
0,0,0,0,6885,6886,6887,6888,0,0,0,0,6893,6894,6895,6896,
0,0,0,0,6901,6902,6903,6904,0,0,0,0,6909,6910,6911,6912,
0,0,0,0,6917,6918,6919,6920,0,0,0,0,6925,6926,6927,6928,
0,0,0,0,6933,6934,6935,6936,0,0,0,0,6941,6942,6943,6944,
0,0,0,0,7077,7078,0,0,0,0,0,0,7085,7086,0,0,
0,0,0,0,7093,7094,0,0,0,0,0,0,7101,7102,0,0,
0,0,0,0,7109,7110,0,0,0,0,0,0,7117,7118,0,0,
0,0,0,0,7125,7126,0,0,0,0,0,0,7133,7134,0,0,
0,0,0,0,0,0,0,0,0,0,0,0,0,0,0,0,
2737,2738,2739,2740,2741,2742,2743,2744,2745,2746,0,0,2749,2750,0,0,
2753,2754,2755,2756,2757,2758,2759,2760,2761,2762,2763,2764,2765,2766,2767,2768,
2769,2770,2771,2772,2773,2774,2775,2776,2777,2778,2779,2780,2781,2782,2783,2784,
2785,2786,2787,2788,2789,2790,2791,2792,2793,2794,2795,2796,2797,2798,2799,2800,
2801,2802,2803,2804,2805,2806,2807,2808,2809,2810,2811,2812,2813,2814,2815,2816,
2817,2818,2819,2820,2821,2822,2823,2824,2825,2826,2827,2828,2829,2830,2831,2832,
2833,2834,2835,2836,2837,2838,2839,2840,2841,2842,2843,2844,2845,2846,2847,2848,
2849,2850,2851,2852,2853,2854,2855,2856,2857,2858,2859,2860,2861,2862,2863,2864,
2865,2866,2867,2868,2869,2870,2871,2872,2873,2874,2875,2876,2877,2878,2879,2880,
2881,2882,2883,2884,2885,2886,2887,2888,2889,2890,2891,2892,2893,2894,2895,2896,
2897,2898,2899,2900,2901,2902,2903,2904,2905,2906,2907,2908,2909,2910,2911,2912,
2913,2914,2915,2916,2917,2918,2919,2920,2921,2922,2923,2924,2925,2926,2927,2928,
2929,2930,2931,2932,2933,2934,2935,2936,2937,2938,2939,2940,2941,2942,2943,2944,
2945,2946,2947,2948,2949,2950,2951,2952,2953,2954,2955,2956,2957,2958,2959,2960,
2961,2962,2963,2964,2965,2966,2967,2968,2969,2970,2971,2972,2973,2974,2975,2976,
2977,2978,2979,2980,2981,2982,2983,2984,2985,2986,2987,2988,2973,2974,2975,2976,
2993,2994,2995,2996,2997,2998,2999,3000,3001,3002,3003,3004,0,0,0,0,
3009,3010,3011,3012,3013,3014,3015,3016,3017,3018,3019,3020,0,0,0,0,
3025,3026,3027,3028,3029,3030,3031,3032,3033,3034,3035,3036,0,0,0,0,
3041,3042,3043,3044,3045,3046,3047,3048,3049,3050,3051,3052,0,0,0,0,
3057,3058,3059,3060,3061,3062,3063,3064,3065,3066,3067,3068,0,0,0,0,
3073,3074,3075,3076,3077,3078,3079,3080,3081,3082,3083,3084,0,0,0,0,
3089,3090,3091,3092,3093,3094,3095,3096,3097,3098,3099,3100,0,0,0,0,
3105,3106,3107,3108,3109,3110,3111,3112,3113,3114,3115,3116,0,0,0,0,
3121,3122,3123,3124,3125,3126,3127,3128,3129,3130,3131,3132,0,0,0,0,
7179,7180,7181,7182,7183,7184,0,0,0,0,0,0,0,0,0,0,
7195,7196,7197,7198,7199,7200,0,0,0,0,0,0,0,0,0,0,
7211,7212,7213,7214,7215,7216,0,0,0,0,5863,5864,5865,5866,0,0,
7227,7228,7229,7230,7231,7232,0,0,0,0,5879,5880,5881,5882,0,0,
7243,7244,7245,7246,7247,7248,0,0,5893,5894,0,0,0,0,5899,5900,
7259,7260,7261,7262,7263,7264,0,0,5909,5910,0,0,0,0,5915,5916,
0,0,0,0,0,0,0,0,0,0,5927,5928,5929,5930,0,0,
0,0,0,0,0,0,0,0,0,0,5943,5944,5945,5946,0,0,
0,0,0,0,0,0,0,0,5957,5958,0,0,0,0,5963,5964,
0,0,0,0,0,0,0,0,5973,5974,0,0,0,0,5979,5980,
10865,10866,10867,10868,10869,10870,10871,10872,0,0,0,0,0,0,0,0,
10881,10882,10883,10884,10885,10886,10887,10888,0,0,0,0,0,0,0,0,
10897,10898,10899,10900,10901,10902,10903,10904,0,0,0,0,0,0,0,0,
10913,10914,10915,10916,10917,10918,10919,10920,0,0,0,0,0,0,0,0,
10929,10930,10931,10932,10933,10934,10935,10936,0,0,0,0,10941,10942,10943,10944,
10945,10946,10947,10948,10949,10950,10951,10952,0,0,0,0,10957,10958,10959,10960,
10961,10962,10963,10964,10965,10966,10967,10968,0,0,0,0,10973,10974,10975,10976,
10977,10978,10979,10980,10981,10982,10983,10984,0,0,0,0,10989,10990,10991,10992,
0,0,0,0,0,0,0,0,0,0,0,0,11005,11006,11007,11008,
0,0,0,0,0,0,0,0,0,0,0,0,11021,11022,11023,11024,
11025,11026,11027,11028,11029,11030,11031,11032,0,0,0,0,11037,11038,11039,11040,
11041,11042,11043,11044,11045,11046,11047,11048,0,0,0,0,11053,11054,11055,11056,
11057,11058,11059,11060,11061,11062,11063,11064,11065,11066,11067,11068,11133,11134,11135,11136,
11073,11074,11075,11076,11077,11078,11079,11080,11081,11082,11083,11084,11149,11150,11151,11152,
11089,11090,11091,11092,11093,11094,11095,11096,11097,11098,11099,11100,11165,11166,11167,11168,
11105,11106,11107,11108,11109,11110,11111,11112,11113,11114,11115,11116,11181,11182,11183,11184,
11121,11122,11123,11124,11125,11126,11127,11128,11129,11130,11131,11132,0,0,0,0,
11137,11138,11139,11140,11141,11142,11143,11144,11145,11146,11147,11148,0,0,0,0,
0,0,0,0,0,0,0,0,0,0,0,0,0,0,0,0,
0,0,0,0,0,0,0,0,0,0,0,0,0,0,0,0,
0,0,0,0,0,0,0,0,0,0,0,0,0,0,0,0,
0,0,0,0,0,0,0,0,0,0,0,0,0,0,0,0,
0,0,0,0,0,0,0,0,0,0,0,0,0,0,0,0,
0,0,0,0,0,0,0,0,0,0,0,0,0,0,0,0,
0,0,0,0,0,0,0,0,0,0,0,0,0,0,0,0,
0,0,0,0,0,0,0,0,0,0,0,0,0,0,0,0,
0,0,0,0,0,0,0,0,0,0,0,0,0,0,0,0,
0,0,0,0,0,0,0,0,0,0,0,0,0,0,0,0,
0,0,0,0,0,0,0,0,0,0,0,0,0,0,0,0,
0,0,0,0,0,0,0,0,0,0,0,0,0,0,0,0,
0,0,0,0,0,0,0,0,0,0,0,0,0,0,0,0,
0,0,0,0,0,0,0,0,0,0,0,0,0,0,0,0,
0,0,0,0,0,0,0,0,0,0,0,0,0,0,0,0,
0,0,0,0,0,0,0,0,0,0,0,0,0,0,0,0,
0,0,0,0,0,0,0,0,0,0,0,0,0,0,0,0,
0,0,0,0,0,0,0,0,0,0,0,0,0,0,0,0,
0,0,0,0,0,0,0,0,0,0,0,0,0,0,0,0,
0,0,0,0,0,0,0,0,0,0,0,0,0,0,0,0,
0,0,0,0,0,0,0,0,0,0,0,0,0,0,0,0,
0,0,0,0,0,0,0,0,0,0,0,0,0,0,0,0,
0,0,0,0,0,0,0,0,0,0,0,0,0,0,0,0,
0,0,0,0,0,0,0,0,0,0,0,0,0,0,0,0,
0,0,0,0,0,0,0,0,0,0,0,0,0,0,0,0,
0,0,0,0,0,0,0,0,0,0,0,0,0,0,0,0,
0,0,0,0,0,0,0,0,0,0,0,0,0,0,0,0,
0,0,0,0,0,0,0,0,0,0,0,0,0,0,0,0,
0,0,0,0,0,0,0,0,0,0,0,0,0,0,0,0,
0,0,0,0,0,0,0,0,0,0,0,0,0,0,0,0,
0,0,0,0,0,0,0,0,0,0,0,0,0,0,0,0,
0,0,0,0,0,0,0,0,0,0,0,0,0,0,0,0,
0,0,0,0,0,0,0,0,0,0,0,0,0,0,0,0,
0,0,0,0,0,0,0,0,0,0,0,0,0,0,0,0,
0,0,0,0,0,0,0,0,0,0,0,0,0,0,0,0,
0,0,0,0,0,0,0,0,0,0,0,0,0,0,0,0,
0,0,0,0,0,0,0,0,0,0,0,0,0,0,0,0,
0,0,0,0,0,0,0,0,0,0,0,0,0,0,0,0,
0,0,0,0,0,0,0,0,0,0,0,0,0,0,0,0,
0,0,0,0,0,0,0,0,0,0,0,0,0,0,0,0,
0,0,0,0,0,0,0,0,0,0,0,0,0,0,0,0,
0,0,0,0,0,0,0,0,0,0,0,0,0,0,0,0,
0,0,0,0,0,0,0,0,0,0,0,0,0,0,0,0,
0,0,0,0,0,0,0,0,0,0,0,0,0,0,0,0
</data>
 </layer>
 <layer id="3" name="top" width="16" height="256">
  <data encoding="csv">
0,0,0,0,0,0,0,0,0,0,0,0,0,0,0,0,
0,0,0,0,0,0,0,0,0,0,0,0,0,0,0,0,
0,0,0,0,0,0,0,0,0,0,0,0,0,0,0,0,
0,0,0,0,0,0,0,0,0,0,0,0,0,0,0,0,
0,0,0,0,0,0,0,0,0,0,0,0,0,0,0,0,
0,0,0,0,0,0,0,0,0,0,0,0,0,0,0,0,
0,0,0,0,0,0,0,0,0,0,0,0,0,0,0,0,
0,0,0,0,0,0,0,0,0,0,0,0,0,0,0,0,
0,0,0,0,0,0,0,0,0,0,0,0,0,0,0,0,
0,0,0,0,0,0,0,0,0,0,0,0,0,0,0,0,
0,0,0,0,0,0,0,0,0,0,0,0,0,0,0,0,
0,0,0,0,0,0,0,0,0,0,0,0,0,0,0,0,
0,0,0,0,0,0,0,0,0,0,0,0,0,0,0,0,
0,0,0,0,0,0,0,0,0,0,0,0,0,0,0,0,
0,0,0,0,0,0,0,0,0,0,0,0,0,0,0,0,
0,0,0,0,0,0,0,0,0,0,0,0,0,0,0,0,
0,0,0,0,0,0,0,0,0,0,0,0,0,0,0,0,
0,0,0,0,0,0,0,0,0,0,0,0,0,0,0,0,
0,0,0,0,0,0,0,0,0,0,0,0,0,0,0,0,
0,0,0,0,0,0,0,0,0,0,0,0,0,0,0,0,
0,0,0,0,0,0,0,0,0,0,0,0,0,0,0,0,
0,0,0,0,0,0,0,0,0,0,0,0,0,0,0,0,
0,0,0,0,5189,5190,5187,5188,0,0,5039,0,0,5034,0,0,
0,0,0,0,5205,5206,5203,5204,0,0,5055,0,0,5050,0,0,
0,0,0,0,5223,0,0,5218,0,0,5223,0,0,0,0,0,
0,0,0,0,5239,0,0,5234,0,0,5239,0,0,0,0,0,
0,0,0,0,5223,0,0,5218,0,0,5005,5006,5003,5004,0,0,
0,0,0,0,5239,0,0,5234,0,0,5021,5022,5019,5020,0,0,
5289,5290,5289,5290,5289,5290,5289,5290,5289,5290,5039,0,0,5034,5289,5290,
5305,5306,5305,5306,5305,5306,5305,5306,5305,5306,5055,0,0,5050,5305,5306,
0,0,0,0,0,0,0,0,0,0,0,0,0,5034,0,5034,
0,0,0,0,0,0,0,0,0,0,0,0,0,5050,0,5050,
0,0,0,0,0,0,0,0,0,0,0,0,0,0,0,0,
0,0,0,0,0,0,0,0,0,0,0,0,0,0,0,0,
0,0,0,0,0,0,0,0,0,0,0,0,0,0,0,0,
0,0,0,0,0,0,0,0,0,0,0,0,0,0,0,0,
0,0,0,0,0,0,0,0,0,0,0,0,0,0,0,0,
0,0,0,0,0,0,0,0,0,0,0,0,0,0,0,0,
0,0,0,0,0,0,0,0,0,0,0,0,0,0,0,0,
0,0,0,0,0,0,0,0,0,0,0,0,0,0,0,0,
0,0,0,0,0,0,0,0,0,0,0,0,0,0,0,0,
0,0,0,0,0,0,0,0,0,0,0,0,0,0,0,0,
0,0,0,0,0,0,0,0,0,0,0,0,0,0,0,0,
0,0,0,0,0,0,0,0,0,0,0,0,0,0,0,0,
0,0,0,0,0,0,0,0,0,0,0,0,0,0,0,0,
0,0,0,0,0,0,0,0,0,0,0,0,0,0,0,0,
5186,5186,5187,5188,5189,5190,5191,0,5002,5002,5003,5004,5005,5006,5007,0,
5202,5202,5203,5204,5205,5206,5207,0,5018,5018,5019,5020,5021,5022,5023,0,
0,0,0,0,0,0,0,0,0,0,0,0,0,0,0,0,
0,0,0,0,0,0,0,0,0,0,0,0,0,0,0,0,
0,0,0,0,0,0,0,0,0,0,0,0,0,0,0,0,
0,0,0,0,0,0,0,0,0,0,0,0,0,0,0,0,
0,0,0,0,0,0,0,0,0,0,0,0,0,0,0,0,
0,0,0,0,0,0,0,0,0,0,0,0,0,0,0,0,
5289,5290,5005,5006,0,0,0,0,0,0,0,0,0,0,0,0,
5305,5306,5021,5022,0,0,0,0,0,0,0,0,0,0,0,0,
0,0,0,0,0,0,0,0,0,0,0,0,0,0,0,0,
0,0,0,0,0,0,0,0,0,0,0,0,0,0,0,0,
4673,4674,4675,4676,4677,4678,4679,4680,4675,4676,4677,4678,4679,4680,0,0,
4689,4690,4691,4692,4693,4694,0,4696,4691,4692,4693,4694,4695,4696,0,0,
4705,4706,4707,4708,4709,4710,4711,4712,4707,4708,4709,4710,4711,4712,0,0,
4721,4722,4723,4724,4725,4726,4727,4728,4723,4724,4725,4726,4727,4728,0,0,
4737,4738,4739,4740,4741,4742,5601,5602,4739,4740,4741,4742,4743,4744,0,0,
4753,4754,4755,4756,4757,4758,5617,5618,4755,4756,4757,4758,4759,4760,0,0,
4769,4770,4771,4772,4773,4774,5633,5634,4771,4772,4773,4774,4775,4776,0,0,
4785,4786,4787,4788,4789,4790,5649,5650,4787,4788,4789,4790,4791,4792,0,0,
4801,4802,4803,4804,4805,4806,4807,4808,4803,4804,4805,4806,4807,4808,0,0,
4817,4818,4819,4820,4821,4822,4823,4824,4819,4820,4821,4822,4823,4824,0,0,
0,0,0,0,0,0,0,0,0,0,0,0,0,0,0,0,
0,0,0,0,0,0,0,0,0,0,0,0,0,0,0,0,
0,0,0,0,0,0,0,0,0,0,0,0,0,0,0,0,
0,0,0,0,0,0,0,0,0,0,0,0,0,0,0,0,
0,0,0,0,0,0,0,0,0,0,0,0,0,0,0,0,
0,0,0,0,0,0,0,0,0,0,0,0,0,0,0,0,
0,0,0,0,0,0,0,0,0,0,0,0,0,0,0,0,
0,0,0,0,0,0,0,0,0,0,0,0,0,0,0,0,
0,0,0,0,0,0,0,0,0,0,0,0,0,0,0,0,
0,0,0,0,0,0,0,0,0,0,0,0,0,0,0,0,
0,0,0,0,0,0,0,0,0,0,0,0,0,0,0,0,
0,0,0,0,0,0,0,0,0,0,0,0,0,0,0,0,
0,0,0,0,0,0,0,0,0,0,0,0,0,0,0,0,
0,0,0,0,0,0,0,0,0,0,0,0,0,0,0,0,
0,0,0,0,0,0,0,0,0,0,0,0,0,0,0,0,
0,0,0,0,0,0,0,0,0,0,0,0,0,0,0,0,
0,0,0,0,0,0,0,0,0,0,0,0,0,0,0,0,
0,0,0,0,0,0,0,0,0,0,0,0,0,0,0,0,
0,0,0,0,0,0,0,0,0,0,0,0,0,0,0,0,
0,0,0,0,0,0,0,0,0,0,0,0,0,0,0,0,
0,0,0,0,0,0,0,0,0,0,0,0,0,0,0,0,
0,0,0,0,0,0,0,0,0,0,0,0,0,0,0,0,
0,0,0,0,0,0,0,0,0,0,0,0,0,0,0,0,
0,0,0,0,0,0,0,0,0,0,0,0,0,0,0,0,
0,0,0,0,0,0,0,0,0,0,0,0,0,0,0,0,
0,0,0,0,0,0,0,0,0,0,0,0,0,0,0,0,
0,0,0,0,0,0,0,0,0,0,0,0,0,0,0,0,
0,0,0,0,0,0,0,0,0,0,0,0,0,0,0,0,
0,0,0,0,0,0,0,0,0,0,0,0,0,0,0,0,
0,0,0,0,0,0,0,0,0,0,0,0,0,0,0,0,
0,0,0,0,0,0,0,0,0,0,0,0,0,0,0,0,
0,0,0,0,0,0,0,0,0,0,0,0,0,0,0,0,
0,0,0,0,0,0,0,0,0,0,0,0,0,0,0,0,
0,0,0,0,0,0,0,0,0,0,0,0,0,0,0,0,
0,0,0,0,0,0,0,0,0,0,0,0,0,0,0,0,
0,0,0,0,0,0,0,0,0,0,0,0,0,0,0,0,
0,0,0,0,0,0,0,0,0,0,0,0,0,0,0,0,
0,0,0,0,0,0,0,0,0,0,0,0,0,0,0,0,
0,0,0,0,0,0,0,0,0,0,0,0,0,0,0,0,
0,0,0,0,0,0,0,0,0,0,0,0,0,0,0,0,
0,0,0,0,0,0,0,0,0,0,0,0,0,0,0,0,
0,0,0,0,0,0,0,0,0,0,0,0,0,0,0,0,
0,0,0,0,0,0,0,0,0,0,0,0,0,0,0,0,
0,0,0,0,0,0,0,0,0,0,0,0,0,0,0,0,
0,0,0,0,0,0,0,0,0,0,0,0,0,0,0,0,
0,0,0,0,0,0,0,0,0,0,0,0,0,0,0,0,
0,0,0,0,0,0,0,0,0,0,0,0,0,0,0,0,
0,0,0,0,0,0,0,0,0,0,0,0,0,0,0,0,
0,0,0,0,0,0,0,0,0,0,0,0,0,0,0,0,
0,0,0,0,0,0,0,0,0,0,0,0,0,0,0,0,
0,0,0,0,0,0,0,0,0,0,0,0,0,0,0,0,
0,0,0,0,0,0,0,0,0,0,0,0,0,0,0,0,
0,0,0,0,0,0,0,0,0,0,0,0,0,0,0,0,
0,0,0,0,0,0,0,0,0,0,0,0,0,0,0,0,
0,0,0,0,0,0,0,0,0,0,0,0,0,0,0,0,
0,0,0,0,0,0,0,0,0,0,0,0,0,0,0,0,
0,0,0,0,0,0,0,0,0,0,0,0,0,0,0,0,
0,0,0,0,0,0,0,0,0,0,0,0,0,0,0,0,
0,0,0,0,0,0,0,0,0,0,0,0,0,0,0,0,
0,0,0,0,0,0,0,0,0,0,0,0,0,0,0,0,
0,0,0,0,0,0,0,0,0,0,0,0,0,0,0,0,
0,0,0,0,0,0,0,0,0,0,0,0,0,0,0,0,
0,0,0,0,0,0,0,0,0,0,0,0,0,0,0,0,
0,0,0,0,0,0,0,0,0,0,0,0,0,0,0,0,
5323,5324,5289,5290,5289,5290,5289,5290,0,0,0,0,0,0,0,0,
5339,5340,5305,5306,5305,5306,5305,5306,0,0,0,0,0,0,0,0,
5323,5324,5289,5290,5323,5324,5289,5290,0,0,0,0,0,0,0,0,
5339,5340,5305,5306,5339,5340,5305,5306,0,0,0,0,0,0,0,0,
0,0,5289,5290,0,0,0,0,0,0,0,0,0,0,0,0,
0,0,5305,5306,0,0,0,0,0,0,0,0,0,0,0,0,
0,0,0,0,0,0,0,0,0,0,0,0,0,0,0,0,
0,0,0,0,0,0,0,0,0,0,0,0,0,0,0,0,
0,0,0,0,0,0,0,0,0,0,0,0,0,0,0,0,
0,0,0,0,0,0,0,0,0,0,0,0,0,0,0,0,
0,0,0,0,0,0,0,0,0,0,0,0,0,0,0,0,
0,0,0,0,0,0,0,0,0,0,0,0,0,0,0,0,
0,0,0,0,0,0,0,0,0,0,0,0,0,0,0,0,
0,0,0,0,0,0,0,0,0,0,0,0,0,0,0,0,
0,0,0,0,0,0,0,0,0,0,0,0,0,0,0,0,
0,0,0,0,0,0,0,0,0,0,0,0,0,0,0,0,
0,0,0,0,0,0,0,0,0,0,0,0,0,0,0,0,
0,0,0,0,0,0,0,0,0,0,0,0,0,0,0,0,
0,0,0,0,0,0,0,0,0,0,0,0,0,0,0,0,
0,0,0,0,0,0,0,0,0,0,0,0,0,0,0,0,
0,0,0,0,0,0,0,0,0,0,0,0,0,0,0,0,
0,0,0,0,0,0,0,0,0,0,0,0,0,0,0,0,
0,0,0,0,0,0,0,0,0,0,0,0,0,0,0,0,
0,0,0,0,0,0,0,0,0,0,0,0,0,0,0,0,
0,0,0,0,0,0,0,0,0,0,0,0,0,0,0,0,
0,0,0,0,0,0,0,0,0,0,0,0,0,0,0,0,
0,0,0,0,0,0,0,0,0,0,0,0,0,0,0,0,
0,0,0,0,0,0,0,0,0,0,0,0,0,0,0,0,
0,0,0,0,0,0,0,0,0,0,0,0,0,0,0,0,
0,0,0,0,0,0,0,0,0,0,0,0,0,0,0,0,
0,0,0,0,0,0,0,0,0,0,0,0,0,0,0,0,
0,0,0,0,0,0,0,0,0,0,0,0,0,0,0,0,
0,0,0,0,0,0,0,0,0,0,0,0,0,0,0,0,
0,0,0,0,0,0,0,0,0,0,0,0,0,0,0,0,
0,0,0,0,0,0,0,0,0,0,0,0,0,0,0,0,
0,0,0,0,0,0,0,0,0,0,0,0,0,0,0,0,
0,0,0,0,0,0,0,0,0,0,0,0,0,0,0,0,
0,0,0,0,0,0,0,0,0,0,0,0,0,0,0,0,
0,0,0,0,0,0,0,0,0,0,0,0,0,0,0,0,
0,0,0,0,0,0,0,0,0,0,0,0,0,0,0,0,
0,0,0,0,0,0,0,0,0,0,0,0,0,0,0,0,
0,0,0,0,0,0,0,0,0,0,0,0,0,0,0,0,
0,0,0,0,0,0,0,0,0,0,0,0,0,0,0,0,
0,0,0,0,0,0,0,0,0,0,0,0,0,0,0,0,
0,0,0,0,0,0,0,0,0,0,0,0,0,0,0,0,
0,0,0,0,0,0,0,0,0,0,0,0,0,0,0,0,
0,0,0,0,0,0,0,0,0,0,0,0,0,0,0,0,
0,0,0,0,0,0,0,0,0,0,0,0,0,0,0,0,
0,0,0,0,0,0,0,0,0,0,0,0,0,0,0,0,
0,0,0,0,0,0,0,0,0,0,0,0,0,0,0,0,
0,0,0,0,0,0,0,0,0,0,0,0,0,0,0,0,
0,0,0,0,0,0,0,0,0,0,0,0,0,0,0,0,
0,0,0,0,0,0,0,0,0,0,0,0,0,0,0,0,
0,0,0,0,0,0,0,0,0,0,0,0,0,0,0,0,
0,0,0,0,0,0,0,0,0,0,0,0,0,0,0,0,
0,0,0,0,0,0,0,0,0,0,0,0,0,0,0,0,
0,0,0,0,0,0,0,0,0,0,0,0,0,0,0,0,
0,0,0,0,0,0,0,0,0,0,0,0,0,0,0,0,
0,0,0,0,0,0,0,0,0,0,0,0,0,0,0,0,
0,0,0,0,0,0,0,0,0,0,0,0,0,0,0,0,
0,0,0,0,0,0,0,0,0,0,0,0,0,0,0,0,
0,0,0,0,0,0,0,0,0,0,0,0,0,0,0,0,
0,0,0,0,0,0,0,0,0,0,0,0,0,0,0,0,
0,0,0,0,0,0,0,0,0,0,0,0,0,0,0,0,
0,0,0,0,0,0,0,0,0,0,0,0,0,0,0,0,
0,0,0,0,0,0,0,0,0,0,0,0,0,0,0,0,
0,0,0,0,0,0,0,0,0,0,0,0,0,0,0,0,
0,0,0,0,0,0,0,0,0,0,0,0,0,0,0,0,
0,0,0,0,0,0,0,0,0,0,0,0,0,0,0,0,
0,0,0,0,0,0,0,0,0,0,0,0,0,0,0,0,
0,0,0,0,0,0,0,0,0,0,0,0,0,0,0,0,
0,0,0,0,0,0,0,0,0,0,0,0,0,0,0,0,
0,0,0,0,0,0,0,0,0,0,0,0,0,0,0,0,
0,0,0,0,0,0,0,0,0,0,0,0,0,0,0,0,
0,0,0,0,0,0,0,0,0,0,0,0,0,0,0,0,
0,0,0,0,0,0,0,0,0,0,0,0,0,0,0,0,
0,0,0,0,0,0,0,0,0,0,0,0,0,0,0,0,
0,0,0,0,0,0,0,0,0,0,0,0,0,0,0,0,
0,0,0,0,0,0,0,0,0,0,0,0,0,0,0,0,
0,0,0,0,0,0,0,0,0,0,0,0,0,0,0,0,
0,0,0,0,0,0,0,0,0,0,0,0,0,0,0,0,
0,0,0,0,0,0,0,0,0,0,0,0,0,0,0,0,
0,0,0,0,0,0,0,0,0,0,0,0,0,0,0,0,
0,0,0,0,0,0,0,0,0,0,0,0,0,0,0,0,
0,0,0,0,0,0,0,0,0,0,0,0,0,0,0,0,
0,0,0,0,0,0,0,0,0,0,0,0,0,0,0,0,
0,0,0,0,0,0,0,0,0,0,0,0,0,0,0,0,
0,0,0,0,0,0,0,0,0,0,0,0,0,0,0,0,
0,0,0,0,0,0,0,0,0,0,0,0,0,0,0,0,
0,0,0,0,0,0,0,0,0,0,0,0,0,0,0,0,
0,0,0,0,0,0,0,0,0,0,0,0,0,0,0,0,
0,0,0,0,0,0,0,0,0,0,0,0,0,0,0,0,
0,0,0,0,0,0,0,0,0,0,0,0,0,0,0,0,
0,0,0,0,0,0,0,0,0,0,0,0,0,0,0,0,
0,0,0,0,0,0,0,0,0,0,0,0,0,0,0,0,
0,0,0,0,0,0,0,0,0,0,0,0,0,0,0,0,
0,0,0,0,0,0,0,0,0,0,0,0,0,0,0,0,
0,0,0,0,0,0,0,0,0,0,0,0,0,0,0,0,
0,0,0,0,0,0,0,0,0,0,0,0,0,0,0,0,
0,0,0,0,0,0,0,0,0,0,0,0,0,0,0,0,
0,0,0,0,0,0,0,0,0,0,0,0,0,0,0,0,
0,0,0,0,0,0,0,0,0,0,0,0,0,0,0,0,
0,0,0,0,0,0,0,0,0,0,0,0,0,0,0,0,
0,0,0,0,0,0,0,0,0,0,0,0,0,0,0,0,
0,0,0,0,0,0,0,0,0,0,0,0,0,0,0,0,
0,0,0,0,0,0,0,0,0,0,0,0,0,0,0,0,
0,0,0,0,0,0,0,0,0,0,0,0,0,0,0,0,
0,0,0,0,0,0,0,0,0,0,0,0,0,0,0,0,
0,0,0,0,0,0,0,0,0,0,0,0,0,0,0,0,
0,0,0,0,0,0,0,0,0,0,0,0,0,0,0,0,
0,0,0,0,0,0,0,0,0,0,0,0,0,0,0,0,
0,0,0,0,0,0,0,0,0,0,0,0,0,0,0,0,
0,0,0,0,0,0,0,0,0,0,0,0,0,0,0,0,
0,0,0,0,0,0,0,0,0,0,0,0,0,0,0,0,
0,0,0,0,0,0,0,0,0,0,0,0,0,0,0,0,
0,0,0,0,0,0,0,0,0,0,0,0,0,0,0,0,
0,0,0,0,0,0,0,0,0,0,0,0,0,0,0,0,
0,0,0,0,0,0,0,0,0,0,0,0,0,0,0,0,
0,0,0,0,0,0,0,0,0,0,0,0,0,0,0,0,
0,0,0,0,0,0,0,0,0,0,0,0,0,0,0,0,
0,0,0,0,0,0,0,0,0,0,0,0,0,0,0,0,
0,0,0,0,0,0,0,0,0,0,0,0,0,0,0,0,
0,0,0,0,0,0,0,0,0,0,0,0,0,0,0,0,
0,0,0,0,0,0,0,0,0,0,0,0,0,0,0,0
</data>
 </layer>
</map>
